!!!!SEGMENT: pl-cz--ii-82_elsner-jozef--confirma-hoc-deus-d-op-32.krn
!!!cenid: 18xx:16
!!!COM: Elsner, Józef
!!!COM-rismID: pe30000957
!!!CDT: 1769/06/01-1854/04/18
!!!CNT: Polish
!!!OTL: Confirma hoc Deus D op. 32
!!!PDT: 1824
!!!AGN: Sacred
!!!YEC: Copyright 2022 Narodowy Instytut Fryderyka Chopina (https://polishscores.org)
!!!YEM: License CC-BY-4.0 (https://creativecommons.org/licenses/by/4.0)
!!!SMS-siglum: PL-CZ
!!!SMS-shelfmark: D II-39
!!!SMS-shelfwork: W
!!!NIFC-rismSourceID: 300000238
!!!NIFC-rismChildID: 300000238
!!!NIFC-islandoraID: pl-cz:33833
!!!URL-pdf-islandora: https://repozytorium.nifc.pl/islandora/object/pl-cz%3A33833/datastream/PDF/view
!!!URL-scan: https://polish.musicsources.pl/pl/lokalizacje/galeria/rekopisy/6811/1 @EN{Scan on Polish Music Sources Website} @PL{Skany w portalu Dziedzictwo Muzyki Polskiej w otwartym dostępie}
!!!IIIF:
!!!ONB-nifc:
!!!AIN: 1 alto 1 bass 2 clars 2 cor 1 fagot 1 organ 1 soprn 1 tenor 1 viola 3 violn
!!!key:
**kern	**fb	**dynam	**kern	**dynam	**kern	**dynam	**kern	**dynam	**kern	**dynam	**kern	**text	**dynam	**kern	**text	**kern	**text	**dynam	**kern	**text	**dynam	**kern	**dynam	**kern	**dynam	**kern	**dynam	**kern	**kern
*part14	*	*	*part13	*	*part12	*	*part11	*	*part10	*	*part9	*	*	*part8	*	*part7	*	*	*part6	*	*	*part5	*	*part4	*	*part3	*	*part2	*part1
*staff14	*	*	*staff13	*	*staff12	*	*staff11	*	*staff10	*	*staff9	*	*	*staff8	*	*staff7	*	*	*staff6	*	*	*staff5	*	*staff4	*	*staff3	*	*staff2	*staff1
*Iorgan	*	*	*Iviola	*	*Ivioln	*	*Ivioln	*	*Ivioln	*	*Ibass	*	*	*Itenor	*	*Ialto	*	*	*Isoprn	*	*	*Icor	*	*Icor	*	*Ifagot	*	*Iclars	*Iclars
*I"Organo vel Basso	*	*	*I"Viola	*	*I"Violino II	*	*I"Violino I	*	*I"Violino Principale	*	*I"Basso	*	*	*I"Tenor	*	*I"Alto	*	*	*I"Soprano	*	*	*I"Corno II in D	*	*I"Corno I in D	*	*I"Fagotti	*	*I"Clarinetto II in A	*I"Clarinetto I in A
*I'Org	*	*	*I'Vla	*	*I'Vn II	*	*I'Vn I	*	*I'Vn Solo	*	*I'B	*	*	*I'T	*	*I'A	*	*	*I'S	*	*	*I'Cor II	*	*I'Cor I	*	*I'Fg	*	*I'Cl 2do	*I'Cl I
*clefF4	*	*	*clefC3	*	*clefG2	*	*clefG2	*	*clefG2	*	*clefF4	*	*	*clefC4	*	*clefC3	*	*	*clefC1	*	*	*clefG2	*	*clefG2	*	*clefF4	*	*clefG2	*clefG2
*	*	*	*	*	*	*	*	*	*	*	*	*	*	*	*	*	*	*	*	*	*	*ITrd-1c-2	*	*ITrd-1c-2	*	*	*	*ITrd2c3	*ITrd2c3
*k[f#c#]	*	*	*k[f#c#]	*	*k[f#c#]	*	*k[f#c#]	*	*k[f#c#]	*	*k[f#c#]	*	*	*k[f#c#]	*	*k[f#c#]	*	*	*k[f#c#]	*	*	*k[f#c#]	*	*k[f#c#]	*	*k[f#c#]	*	*k[f#c#]	*k[f#c#]
*D:	*	*	*D:	*	*D:	*	*D:	*	*D:	*	*D:	*	*	*D:	*	*D:	*	*	*D:	*	*	*	*	*	*	*D:	*	*D:	*D:
*M4/4	*	*	*M4/4	*	*M4/4	*	*M4/4	*	*M4/4	*	*M4/4	*	*	*M4/4	*	*M4/4	*	*	*M4/4	*	*	*M4/4	*	*M4/4	*	*M4/4	*	*M4/4	*M4/4
*met(c)	*	*	*met(c)	*	*met(c)	*	*met(c)	*	*met(c)	*	*met(c)	*	*	*met(c)	*	*met(c)	*	*	*met(c)	*	*	*met(c)	*	*met(c)	*	*met(c)	*	*met(c)	*met(c)
=1	=1	=1	=1	=1	=1	=1	=1	=1	=1	=1	=1	=1	=1	=1	=1	=1	=1	=1	=1	=1	=1	=1	=1	=1	=1	=1	=1	=1	=1
!	!	!	!	!	!	!	!	!	!LO:TX:b:t=dolce	!	!	!	!	!	!	!	!	!	!	!	!	!	!	!	!	!	!	!	!
!LO:TX:a:B:t=Allegro moderato	!	!	!LO:TX:a:B:t=Allegro moderato	!	!LO:TX:a:B:t=Allegro moderato	!	!LO:TX:a:B:t=Allegro moderato	!	!LO:TX:a:B:t=Allegro moderato	!	!LO:TX:a:B:t=Allegro moderato	!	!	!LO:TX:a:B:t=Allegro moderato	!	!LO:TX:a:B:t=Allegro moderato	!	!	!LO:TX:a:B:t=Allegro moderato	!	!	!LO:TX:a:B:t=Allegro moderato	!	!LO:TX:a:B:t=Allegro moderato	!	!LO:TX:a:B:t=Allegro moderato	!	!LO:TX:a:B:t=Allegro moderato	!LO:TX:a:B:t=Allegro moderato
8DL	.	p	8dL	p	(<2d	p	(<2f#	p	(>2ff#	.	1r	.	.	1r	.	1r	.	.	1r	.	.	1r	.	1r	.	1r	.	1r	1r
8D	.	.	8d	.	.	.	.	.	.	.	.	.	.	.	.	.	.	.	.	.	.	.	.	.	.	.	.	.	.
8D	.	.	8d	.	.	.	.	.	.	.	.	.	.	.	.	.	.	.	.	.	.	.	.	.	.	.	.	.	.
8DJ	.	.	8dJ	.	.	.	.	.	.	.	.	.	.	.	.	.	.	.	.	.	.	.	.	.	.	.	.	.	.
8DL	.	.	8dL	.	4e	.	4g	.	4gg	.	.	.	.	.	.	.	.	.	.	.	.	.	.	.	.	.	.	.	.
8D	.	.	8d	.	.	.	.	.	.	.	.	.	.	.	.	.	.	.	.	.	.	.	.	.	.	.	.	.	.
8D	.	.	8d	.	4e#X)	.	4g#X)	.	4gg#X)	.	.	.	.	.	.	.	.	.	.	.	.	.	.	.	.	.	.	.	.
8DJ	.	.	8dJ	.	.	.	.	.	.	.	.	.	.	.	.	.	.	.	.	.	.	.	.	.	.	.	.	.	.
=2	=2	=2	=2	=2	=2	=2	=2	=2	=2	=2	=2	=2	=2	=2	=2	=2	=2	=2	=2	=2	=2	=2	=2	=2	=2	=2	=2	=2	=2
8DL	.	.	8dL	.	(<4.f#	.	(<4.a	.	4.aa	.	1r	.	.	1r	.	1r	.	.	1r	.	.	1r	.	1r	.	1r	.	1r	1r
8D	.	.	8d	.	.	.	.	.	.	.	.	.	.	.	.	.	.	.	.	.	.	.	.	.	.	.	.	.	.
8D	.	.	8d	.	.	.	.	.	.	.	.	.	.	.	.	.	.	.	.	.	.	.	.	.	.	.	.	.	.
.	.	.	.	.	.	.	.	.	16qqccc#/	.	.	.	.	.	.	.	.	.	.	.	.	.	.	.	.	.	.	.	.
8DJ	.	.	8dJ	.	8g	.	8b/	.	8bb	.	.	.	.	.	.	.	.	.	.	.	.	.	.	.	.	.	.	.	.
4D	.	.	4d	.	4f#)	.	4a)	.	4aa	.	.	.	.	.	.	.	.	.	.	.	.	.	.	.	.	.	.	.	.
4r	.	.	4r	.	(<12gL	>	(<12bL	>	(>12bbL	>	.	.	.	.	.	.	.	.	.	.	.	.	.	.	.	.	.	.	.
.	.	.	.	.	12f#	.	12a	.	12aa	.	.	.	.	.	.	.	.	.	.	.	.	.	.	.	.	.	.	.	.
.	.	.	.	.	12eJ)	]]	12gJ)	]	12ggJ)	]]	.	.	.	.	.	.	.	.	.	.	.	.	.	.	.	.	.	.	.
!	!	!	!LO:LB:g=original	!	!	!	!	!	!	!	!	!	!	!	!	!	!	!	!	!	!	!	!	!	!	!	!	!	!
=3	=3	=3	=3	=3	=3	=3	=3	=3	=3	=3	=3	=3	=3	=3	=3	=3	=3	=3	=3	=3	=3	=3	=3	=3	=3	=3	=3	=3	=3
4D	.	.	4d	.	4d	]	4f#	.	4ff#	]	1r	.	.	1r	.	1r	.	.	1r	.	.	1r	.	1r	.	1r	.	1r	1r
4r	.	.	4r	.	(<12f#L	.	(<12aL	>	(>12aaL	>	.	.	.	.	.	.	.	.	.	.	.	.	.	.	.	.	.	.	.
.	.	.	.	.	12e	.	12g	.	12gg	.	.	.	.	.	.	.	.	.	.	.	.	.	.	.	.	.	.	.	.
.	.	.	.	.	12dJ)	.	12f#J)	.	12ff#J)	]	.	.	.	.	.	.	.	.	.	.	.	.	.	.	.	.	.	.	.
4AA	.	.	4A	.	4c#	.	4e	]	4ee	.	.	.	.	.	.	.	.	.	.	.	.	.	.	.	.	.	.	.	.
4r	.	.	4r	.	(<12eL	.	(<12gL	>	(>12ggL	>	.	.	.	.	.	.	.	.	.	.	.	.	.	.	.	.	.	.	.
.	.	.	.	.	12d	.	12f#	.	12ff#	.	.	.	.	.	.	.	.	.	.	.	.	.	.	.	.	.	.	.	.
.	.	.	.	.	12c#J)	.	12eJ)	]]	12eeJ)	]	.	.	.	.	.	.	.	.	.	.	.	.	.	.	.	.	.	.	.
!	!	!	!	!	!LO:LB:g=original	!	!LO:LB:g=original	!	!LO:LB:g=original	!	!	!	!	!	!	!	!	!	!	!	!	!	!	!	!	!	!	!	!
=4	=4	=4	=4	=4	=4	=4	=4	=4	=4	=4	=4	=4	=4	=4	=4	=4	=4	=4	=4	=4	=4	=4	=4	=4	=4	=4	=4	=4	=4
4DD	.	.	4D	.	(<8dL	.	(<8f#L	]	8ddL	.	2r	.	.	2r	.	2r	.	.	2r	.	.	1r	.	1r	.	1r	.	1r	1r
.	.	.	.	.	8A)	.	8A)	.	(>16ggL	.	.	.	.	.	.	.	.	.	.	.	.	.	.	.	.	.	.	.	.
.	.	.	.	.	.	.	.	.	16ff#JJ	.	.	.	.	.	.	.	.	.	.	.	.	.	.	.	.	.	.	.	.
4r	.	.	4r	.	(<8d	.	8f#	.	16eeLL	.	.	.	.	.	.	.	.	.	.	.	.	.	.	.	.	.	.	.	.
.	.	.	.	.	.	.	.	.	16dd	.	.	.	.	.	.	.	.	.	.	.	.	.	.	.	.	.	.	.	.
.	.	.	.	.	8AJ)	.	8AJ	.	16cc#	.	.	.	.	.	.	.	.	.	.	.	.	.	.	.	.	.	.	.	.
.	.	.	.	.	.	.	.	.	16bJJ)	.	.	.	.	.	.	.	.	.	.	.	.	.	.	.	.	.	.	.	.
!	!	!	!	!	!	!	!	!	!	!	!	!	!	!	!	!LO:TX:a:t=dolce	!	!	!	!	!	!	!	!	!	!	!	!	!
4D	.	.	4d	.	8dL	.	8f#L	.	4a	.	4r	.	.	4r	.	4r	.	.	4r	.	.	.	.	.	.	.	.	.	.
.	.	.	.	.	8A	.	8A	.	.	.	.	.	.	.	.	.	.	.	.	.	.	.	.	.	.	.	.	.	.
!	!	!	!	!	!	!	!	!	!	!	!	!	!	!	!	!	!	!	!LO:TX:a:t=dolce	!	!	!	!	!	!	!	!	!	!
4r	.	.	4r	.	8d	.	8f#	.	4r	.	4D	Con-	.	4d	Con-	4d	Con-	.	4f#	Con-	.	.	.	.	.	.	.	.	.
.	.	.	.	.	8AJ	.	8AJ	.	.	.	.	.	.	.	.	.	.	.	.	.	.	.	.	.	.	.	.	.	.
!LO:LB:g=original	!	!	!	!	!	!	!	!	!	!	!	!	!	!	!	!	!	!	!	!	!	!	!	!	!	!	!	!	!
=5	=5	=5	=5	=5	=5	=5	=5	=5	=5	=5	=5	=5	=5	=5	=5	=5	=5	=5	=5	=5	=5	=5	=5	=5	=5	=5	=5	=5	=5
8DL	.	.	8dL	.	(<2d	.	(<2f#	.	1r	.	2D	-fir-	.	2d	-fir-	2d	-fir-	.	2f#	-fir-	.	1r	.	1r	.	1r	.	1r	1r
8D	.	.	8d	.	.	.	.	.	.	.	.	.	.	.	.	.	.	.	.	.	.	.	.	.	.	.	.	.	.
8D	.	.	8d	.	.	.	.	.	.	.	.	.	.	.	.	.	.	.	.	.	.	.	.	.	.	.	.	.	.
8DJ	.	.	8dJ	.	.	.	.	.	.	.	.	.	.	.	.	.	.	.	.	.	.	.	.	.	.	.	.	.	.
8DL	4 2	.	8dL	.	4e	.	4g	.	.	.	4D	-ma	.	4d	-ma	4e	-ma	.	4g/	-ma	.	.	.	.	.	.	.	.	.
8D	.	.	8d	.	.	.	.	.	.	.	.	.	.	.	.	.	.	.	.	.	.	.	.	.	.	.	.	.	.
8D	#4 #2	.	8d	.	4e#X)	.	4g#X)	.	.	.	4D	hoc	.	4d	hoc	4e#X	hoc	.	4g#X/	hoc	.	.	.	.	.	.	.	.	.
8DJ	.	.	8dJ	.	.	.	.	.	.	.	.	.	.	.	.	.	.	.	.	.	.	.	.	.	.	.	.	.	.
=6	=6	=6	=6	=6	=6	=6	=6	=6	=6	=6	=6	=6	=6	=6	=6	=6	=6	=6	=6	=6	=6	=6	=6	=6	=6	=6	=6	=6	=6
8DL	5. 3.	.	8dL	.	4.f#	.	4.a	.	2ddd	.	2D	De-	.	2d	De-	(>4.f#	De-	.	(>4.a	De-	.	1r	.	1r	.	1r	.	1r	1r
8D	.	.	8d	.	.	.	.	.	.	.	.	.	.	.	.	.	.	.	.	.	.	.	.	.	.	.	.	.	.
8D	.	.	8d	.	.	.	.	.	.	.	.	.	.	.	.	.	.	.	.	.	.	.	.	.	.	.	.	.	.
8DJ	6 4	.	8dJ	.	8g	.	8b/	.	.	.	.	.	.	.	.	8g)	.	.	8b)	.	.	.	.	.	.	.	.	.	.
4D	5 3	.	4d	.	4f#	.	4a	.	(>16dddLL	.	4D	-us	.	4d	-us	4f#	-us	.	4a	-us	.	.	.	.	.	.	.	.	.
.	.	.	.	.	.	.	.	.	16ccc#	.	.	.	.	.	.	.	.	.	.	.	.	.	.	.	.	.	.	.	.
.	.	.	.	.	.	.	.	.	16bb	.	.	.	.	.	.	.	.	.	.	.	.	.	.	.	.	.	.	.	.
.	.	.	.	.	.	.	.	.	16aaJJ	.	.	.	.	.	.	.	.	.	.	.	.	.	.	.	.	.	.	.	.
4r	.	.	4r	.	4r	.	4r	.	16fff#LL	.	4D	con-	.	4d	con-	4e	con-	.	4a	con-	.	.	.	.	.	.	.	.	.
.	.	.	.	.	.	.	.	.	16ccc#	.	.	.	.	.	.	.	.	.	.	.	.	.	.	.	.	.	.	.	.
.	.	.	.	.	.	.	.	.	16ddd	.	.	.	.	.	.	.	.	.	.	.	.	.	.	.	.	.	.	.	.
.	.	.	.	.	.	.	.	.	16aaJJ)	.	.	.	.	.	.	.	.	.	.	.	.	.	.	.	.	.	.	.	.
!	!	!	!LO:LB:g=original	!	!	!	!	!	!	!	!	!	!	!	!	!	!	!	!LO:LB:g=original	!	!	!	!	!	!	!	!	!	!
=7	=7	=7	=7	=7	=7	=7	=7	=7	=7	=7	=7	=7	=7	=7	=7	=7	=7	=7	=7	=7	=7	=7	=7	=7	=7	=7	=7	=7	=7
4C#\	6 5	.	4c#	.	(<8eL	.	(<8gL	.	(>4.aa	.	2C#	-fir-	.	2e	-fir-	2g	-fir-	.	2a	-fir-	.	1r	.	1r	.	1r	.	1r	1r
.	.	.	.	.	8A)	.	8A)	.	.	.	.	.	.	.	.	.	.	.	.	.	.	.	.	.	.	.	.	.	.
4E	.	.	4e	.	(<8e	.	(<8g	.	.	.	.	.	.	.	.	.	.	.	.	.	.	.	.	.	.	.	.	.	.
.	.	.	.	.	8AJ)	.	8AJ)	.	8bb)	.	.	.	.	.	.	.	.	.	.	.	.	.	.	.	.	.	.	.	.
4AA	.	.	4A\	.	8eL	.	8gL	.	4aa	.	4C#	-ma	.	4e	-ma	4g	-ma	.	4a	-ma	.	.	.	.	.	.	.	.	.
.	.	.	.	.	8A	.	8A	.	.	.	.	.	.	.	.	.	.	.	.	.	.	.	.	.	.	.	.	.	.
4C#	.	.	4c#	.	8e	.	8g	.	4r	.	4C#	hoc	.	4e	hoc	4g	hoc	.	4a	hoc	.	.	.	.	.	.	.	.	.
.	.	.	.	.	8AJ	.	8AJ	.	.	.	.	.	.	.	.	.	.	.	.	.	.	.	.	.	.	.	.	.	.
!	!	!	!	!	!	!	!LO:LB:g=original	!	!LO:LB:g=original	!	!LO:LB:g=original	!	!	!LO:LB:g=original	!	!LO:LB:g=original	!	!	!	!	!	!	!	!	!	!	!	!	!
=8	=8	=8	=8	=8	=8	=8	=8	=8	=8	=8	=8	=8	=8	=8	=8	=8	=8	=8	=8	=8	=8	=8	=8	=8	=8	=8	=8	=8	=8
8DL	6 4	.	8dL	.	4.d	.	(>4.a	.	(>2ddd	.	2D	De-	.	2d	De-	(>4.f#	De-	.	(>4.a	De-	.	1r	.	1r	.	1r	.	1r	1r
8D	.	.	8d	.	.	.	.	.	.	.	.	.	.	.	.	.	.	.	.	.	.	.	.	.	.	.	.	.	.
8D	.	.	8d	.	.	.	.	.	.	.	.	.	.	.	.	.	.	.	.	.	.	.	.	.	.	.	.	.	.
8DJ	.	.	8dJ	.	8e	.	8b/	.	.	.	.	.	.	.	.	8g)	.	.	8b)	.	.	.	.	.	.	.	.	.	.
4D	5 3	.	4d	.	4d	.	4a)	.	16dddLL	.	4D	-us	.	4d	-us	4f#	-us	.	4a	-us	.	.	.	.	.	.	.	.	.
.	.	.	.	.	.	.	.	.	16ccc#	.	.	.	.	.	.	.	.	.	.	.	.	.	.	.	.	.	.	.	.
.	.	.	.	.	.	.	.	.	16bb	.	.	.	.	.	.	.	.	.	.	.	.	.	.	.	.	.	.	.	.
.	.	.	.	.	.	.	.	.	16aaJJ	.	.	.	.	.	.	.	.	.	.	.	.	.	.	.	.	.	.	.	.
4r	.	.	4r	.	4r	.	4r	.	16fff#LL	.	4D	con-	.	4d	con-	4f#	con-	.	4a	con-	.	.	.	.	.	.	.	.	.
.	.	.	.	.	.	.	.	.	16ccc#	.	.	.	.	.	.	.	.	.	.	.	.	.	.	.	.	.	.	.	.
.	.	.	.	.	.	.	.	.	16ddd	.	.	.	.	.	.	.	.	.	.	.	.	.	.	.	.	.	.	.	.
.	.	.	.	.	.	.	.	.	16bbJJ)	.	.	.	.	.	.	.	.	.	.	.	.	.	.	.	.	.	.	.	.
!	!	!	!	!	!LO:LB:g=original	!	!	!	!	!	!	!	!	!	!	!	!	!	!	!	!	!	!	!	!	!	!	!	!
=9	=9	=9	=9	=9	=9	=9	=9	=9	=9	=9	=9	=9	=9	=9	=9	=9	=9	=9	=9	=9	=9	=9	=9	=9	=9	=9	=9	=9	=9
4C#\	6 5	.	4c#	.	(<8eL	.	(<8gL	.	(>4.aa	.	2C#	-fir-	.	2e	-fir-	2g	-fir-	.	2a	-fir-	.	1a	.	(>1ee	.	(>1C#	.	1g	[1a
.	.	.	.	.	8A)	.	8A)	.	.	.	.	.	.	.	.	.	.	.	.	.	.	.	.	.	.	.	.	.	.
4E	.	.	4e	.	(<8e	.	(<8g	.	.	.	.	.	.	.	.	.	.	.	.	.	.	.	.	.	.	.	.	.	.
.	.	.	.	.	8AJ)	.	8AJ)	.	8bb)	.	.	.	.	.	.	.	.	.	.	.	.	.	.	.	.	.	.	.	.
4AA	.	.	4A\	.	8eL	.	(<8gL	.	4aa	.	4C#	-ma	.	4e	-ma	4g	-ma	.	4a	-ma	.	.	.	.	.	.	.	.	.
.	.	.	.	.	8A	.	8A)	.	.	.	.	.	.	.	.	.	.	.	.	.	.	.	.	.	.	.	.	.	.
4C#	.	.	4c#	.	8e	.	(<8g	.	4r	.	4C#	hoc	.	4e	hoc	4g	hoc	.	4a	hoc	.	.	.	.	.	.	.	.	.
.	.	.	.	.	8AJ	.	8AJ)	.	.	.	.	.	.	.	.	.	.	.	.	.	.	.	.	.	.	.	.	.	.
!	!	!	!	!	!	!	!	!	!	!	!	!	!	!	!	!	!	!	!	!	!	!	!	!	!	!	!	!	!
=10	=10	=10	=10	=10	=10	=10	=10	=10	=10	=10	=10	=10	=10	=10	=10	=10	=10	=10	=10	=10	=10	=10	=10	=10	=10	=10	=10	=10	=10
4D	.	.	4d	.	8dL	.	(<8f#L	.	(>4.ff#	.	2D	De-	.	2d	De-	2f#	De-	.	2a	De-	.	1dd	.	1ff#)	.	1D)	.	1f#	2.a]
.	.	.	.	.	8A	.	8A)	.	.	.	.	.	.	.	.	.	.	.	.	.	.	.	.	.	.	.	.	.	.
4F#	.	.	4f#	.	8d	.	8f#	.	.	.	.	.	.	.	.	.	.	.	.	.	.	.	.	.	.	.	.	.	.
.	.	.	.	.	8AJ	.	8AJ	.	16aaLL	.	.	.	.	.	.	.	.	.	.	.	.	.	.	.	.	.	.	.	.
.	.	.	.	.	.	.	.	.	16ggJJ)	.	.	.	.	.	.	.	.	.	.	.	.	.	.	.	.	.	.	.	.
4AA	.	.	4A\	.	8dL	.	8f#L	.	12ff#L	.	4D	-us	.	4d	-us	4f#	-us	.	4a	-us	.	.	.	.	.	.	.	.	.
.	.	.	.	.	.	.	.	.	12gg	.	.	.	.	.	.	.	.	.	.	.	.	.	.	.	.	.	.	.	.
.	.	.	.	.	8A	.	8A	.	.	.	.	.	.	.	.	.	.	.	.	.	.	.	.	.	.	.	.	.	.
.	.	.	.	.	.	.	.	.	12aaJ	.	.	.	.	.	.	.	.	.	.	.	.	.	.	.	.	.	.	.	.
4D	.	.	4d	.	8d	.	8f#	.	12bbL	.	4D	quod	.	4A/	quod	4f#	quod	.	4dd	quod	.	.	.	.	.	.	.	.	[4dd/
.	.	.	.	.	.	.	.	.	12ccc#	.	.	.	.	.	.	.	.	.	.	.	.	.	.	.	.	.	.	.	.
.	.	.	.	.	8AJ	.	8AJ	.	.	.	.	.	.	.	.	.	.	.	.	.	.	.	.	.	.	.	.	.	.
.	.	.	.	.	.	.	.	.	12dddJ	.	.	.	.	.	.	.	.	.	.	.	.	.	.	.	.	.	.	.	.
!LO:LB:g=original	!	!	!LO:LB:g=original	!	!	!	!	!	!LO:LB:g=original	!	!	!	!	!	!	!	!	!	!	!	!	!	!	!	!	!	!	!	!
=11	=11	=11	=11	=11	=11	=11	=11	=11	=11	=11	=11	=11	=11	=11	=11	=11	=11	=11	=11	=11	=11	=11	=11	=11	=11	=11	=11	=11	=11
4E	7	.	4e	.	8dL	.	(<8gL	.	4ddd	.	4E	o-	.	4G	o-	4g	o-	.	4dd	o-	.	1ee	.	1gg	.	1E	.	1g	4dd]
.	.	.	.	.	8A	.	8A)	.	.	.	.	.	.	.	.	.	.	.	.	.	.	.	.	.	.	.	.	.	.
4G	#4	.	4g	.	8c#X	.	8g	.	2ccc#	.	4E	-pe-	.	4G	-pe-	4g	-pe-	.	4cc#	-pe-	.	.	.	.	.	.	.	.	2.cc#
.	.	.	.	.	8AJ	.	8AJ	.	.	.	.	.	.	.	.	.	.	.	.	.	.	.	.	.	.	.	.	.	.
4AA	.	.	4A\	.	8dL	.	8gL	.	.	.	4E	-ra-	.	4G	-ra-	4g	-ra-	.	4cc#	-ra-	.	.	.	.	.	.	.	.	.
.	.	.	.	.	8A	.	8A	.	.	.	.	.	.	.	.	.	.	.	.	.	.	.	.	.	.	.	.	.	.
4E	.	.	4e	.	8c#	.	8g	.	(>12gggL	.	4E	-tus	.	4A/	-tus	4g	-tus	.	4cc#	-tus	.	.	.	.	.	.	.	.	.
.	.	.	.	.	.	.	.	.	12eee	.	.	.	.	.	.	.	.	.	.	.	.	.	.	.	.	.	.	.	.
.	.	.	.	.	8AJ	.	8AJ	.	.	.	.	.	.	.	.	.	.	.	.	.	.	.	.	.	.	.	.	.	.
.	.	.	.	.	.	.	.	.	12ccc#J)	.	.	.	.	.	.	.	.	.	.	.	.	.	.	.	.	.	.	.	.
!	!	!	!	!	!	!	!LO:LB:g=original	!	!	!	!	!	!	!	!	!	!	!	!	!	!	!	!	!	!	!	!	!	!
=12	=12	=12	=12	=12	=12	=12	=12	=12	=12	=12	=12	=12	=12	=12	=12	=12	=12	=12	=12	=12	=12	=12	=12	=12	=12	=12	=12	=12	=12
4F#	6	.	4f#	.	8dL	.	(<8aL	.	4ddd	.	2.F#	es	.	2.A/	es	2.a	es	.	2.dd	es	.	1ff#	.	1aa	.	1F#	.	1a	1dd
.	.	.	.	.	8A	.	8A)	.	.	.	.	.	.	.	.	.	.	.	.	.	.	.	.	.	.	.	.	.	.
4A	.	.	4A	.	8d	.	8a	.	2d	.	.	.	.	.	.	.	.	.	.	.	.	.	.	.	.	.	.	.	.
.	.	.	.	.	8AJ	.	8AJ	.	.	.	.	.	.	.	.	.	.	.	.	.	.	.	.	.	.	.	.	.	.
!	!	!	!	!	!LO:LB:g=original	!	!	!	!	!	!	!	!	!	!	!	!	!	!	!	!	!	!	!	!	!	!	!	!
4D	.	.	4D	.	8dL	.	8aL	.	.	.	.	.	.	.	.	.	.	.	.	.	.	.	.	.	.	.	.	.	.
.	.	.	.	.	8A	.	8A	.	.	.	.	.	.	.	.	.	.	.	.	.	.	.	.	.	.	.	.	.	.
4F#	.	.	4F#	.	8d	.	8a	.	(>12fff#L	.	4F#	in	.	4d	in	4a	in	.	4dd	in	.	.	.	.	.	.	.	.	.
.	.	.	.	.	.	.	.	.	12eee	.	.	.	.	.	.	.	.	.	.	.	.	.	.	.	.	.	.	.	.
.	.	.	.	.	8AJ	.	8AJ	.	.	.	.	.	.	.	.	.	.	.	.	.	.	.	.	.	.	.	.	.	.
.	.	.	.	.	.	.	.	.	12dddJ)	.	.	.	.	.	.	.	.	.	.	.	.	.	.	.	.	.	.	.	.
=13	=13	=13	=13	=13	=13	=13	=13	=13	=13	=13	=13	=13	=13	=13	=13	=13	=13	=13	=13	=13	=13	=13	=13	=13	=13	=13	=13	=13	=13
4G	6	.	4G	.	8dL	.	(<8bL	.	8ccc#L	.	2G	no-	.	2d	no-	2g	no-	.	2b	no-	.	2dd	.	2dd	.	1G	.	1b	2dd
.	.	.	.	.	8B	.	8g)	.	8bb	.	.	.	.	.	.	.	.	.	.	.	.	.	.	.	.	.	.	.	.
4B	.	.	4B	.	8d	.	(<8b	.	8aa#X	.	.	.	.	.	.	.	.	.	.	.	.	.	.	.	.	.	.	.	.
.	.	.	.	.	8BJ	.	8gJ)	.	8bbJ	.	.	.	.	.	.	.	.	.	.	.	.	.	.	.	.	.	.	.	.
4E	.	.	4E	.	8eL	.	(<8bL	.	(>8gggL	.	4G	-bis	.	4d	-bis	4g	-bis	.	4b	-bis	.	2ee	.	2ee	.	.	.	.	2ee
.	.	.	.	.	8B	.	8g)	.	8bb	.	.	.	.	.	.	.	.	.	.	.	.	.	.	.	.	.	.	.	.
4G	.	.	4G	.	8e	.	(<8b	.	8fff#	.	4G	quod	.	4d	quod	4b	quod	.	4ee	quod	.	.	.	.	.	.	.	.	.
.	.	.	.	.	8BJ	.	8gJ)	.	8eeeJ)	.	.	.	.	.	.	.	.	.	.	.	.	.	.	.	.	.	.	.	.
!	!	!	!	!	!	!	!	!	!	!	!	!	!	!LO:LB:g=original	!	!LO:LB:g=original	!	!	!LO:LB:g=original	!	!	!LO:LB:g=original	!	!LO:LB:g=original	!	!	!	!	!LO:LB:g=original
=14	=14	=14	=14	=14	=14	=14	=14	=14	=14	=14	=14	=14	=14	=14	=14	=14	=14	=14	=14	=14	=14	=14	=14	=14	=14	=14	=14	=14	=14
4A	6 4	.	4A	.	8dL	.	(<8f#L	.	(>12dddL	.	4A	o-	.	4d	o-	4a	o-	.	4ff#	o-	.	1dd	.	1ff#	.	1A	.	2a	(<1ff#
.	.	.	.	.	.	.	.	.	12fff#	.	.	.	.	.	.	.	.	.	.	.	.	.	.	.	.	.	.	.	.
.	.	.	.	.	8f#	.	8a)	.	.	.	.	.	.	.	.	.	.	.	.	.	.	.	.	.	.	.	.	.	.
.	.	.	.	.	.	.	.	.	12eeeJ)	.	.	.	.	.	.	.	.	.	.	.	.	.	.	.	.	.	.	.	.
4D	.	.	4d\	.	8d	.	8f#	.	(>12dddL	.	4A	-pe-	.	4A/	-pe-	4f#	-pe-	.	4dd	-pe-	.	.	.	.	.	.	.	.	.
.	.	.	.	.	.	.	.	.	12ccc#	.	.	.	.	.	.	.	.	.	.	.	.	.	.	.	.	.	.	.	.
.	.	.	.	.	8f#J	.	8aJ	.	.	.	.	.	.	.	.	.	.	.	.	.	.	.	.	.	.	.	.	.	.
!	!	!	!	!	!	!	!	!	!LO:LB:g=original	!	!	!	!	!	!	!	!	!	!	!	!	!	!	!	!	!	!	!	!
.	.	.	.	.	.	.	.	.	12bbJ)	.	.	.	.	.	.	.	.	.	.	.	.	.	.	.	.	.	.	.	.
4F#	.	.	4f#	.	8dL	.	8f#L	.	(>12aaL	.	4A	-ra-	.	4A/	-ra-	4f#	-ra-	.	4dd	-ra-	.	.	.	.	.	.	.	[2dd	.
.	.	.	.	.	.	.	.	.	12bb	.	.	.	.	.	.	.	.	.	.	.	.	.	.	.	.	.	.	.	.
.	.	.	.	.	8f#	.	8a	.	.	.	.	.	.	.	.	.	.	.	.	.	.	.	.	.	.	.	.	.	.
.	.	.	.	.	.	.	.	.	12aaJ)	.	.	.	.	.	.	.	.	.	.	.	.	.	.	.	.	.	.	.	.
4D	.	.	4d	.	8d	.	8f#	.	(>12aaL	.	4A	-tus	.	4A/	-tus	4f#	-tus	.	4dd	-tus	.	.	.	.	.	.	.	.	.
.	.	.	.	.	.	.	.	.	12bb	.	.	.	.	.	.	.	.	.	.	.	.	.	.	.	.	.	.	.	.
.	.	.	.	.	8f#J	.	8aJ	.	.	.	.	.	.	.	.	.	.	.	.	.	.	.	.	.	.	.	.	.	.
.	.	.	.	.	.	.	.	.	12aaJ)	.	.	.	.	.	.	.	.	.	.	.	.	.	.	.	.	.	.	.	.
!	!	!	!LO:LB:g=original	!	!	!	!	!	!	!	!LO:LB:g=original	!	!	!	!	!	!	!	!	!	!	!	!	!	!	!	!	!LO:LB:g=original	!
=15	=15	=15	=15	=15	=15	=15	=15	=15	=15	=15	=15	=15	=15	=15	=15	=15	=15	=15	=15	=15	=15	=15	=15	=15	=15	=15	=15	=15	=15
4AA	4	.	4A	.	8dL	.	(<8eL	.	(>12aaL	.	2A	es	.	2A	es	2e	es	.	2dd	es	.	2dd	.	1ee	.	1AA	.	2dd]	1ee)
.	.	.	.	.	.	.	.	.	12bb	.	.	.	.	.	.	.	.	.	.	.	.	.	.	.	.	.	.	.	.
.	.	.	.	.	8e	.	8a)	.	.	.	.	.	.	.	.	.	.	.	.	.	.	.	.	.	.	.	.	.	.
.	.	.	.	.	.	.	.	.	12aaJ)	.	.	.	.	.	.	.	.	.	.	.	.	.	.	.	.	.	.	.	.
4A	.	.	4a	.	8d	.	8e	.	(>12aaL	.	.	.	.	.	.	.	.	.	.	.	.	.	.	.	.	.	.	.	.
.	.	.	.	.	.	.	.	.	12bb	.	.	.	.	.	.	.	.	.	.	.	.	.	.	.	.	.	.	.	.
.	.	.	.	.	8eJ	.	8aJ	.	.	.	.	.	.	.	.	.	.	.	.	.	.	.	.	.	.	.	.	.	.
.	.	.	.	.	.	.	.	.	12aaJ)	.	.	.	.	.	.	.	.	.	.	.	.	.	.	.	.	.	.	.	.
!	!	!	!	!	!	!	!LO:LB:g=original	!	!	!	!	!	!	!	!	!	!	!	!	!	!	!	!	!	!	!	!	!	!
4AA	3	.	4A	.	8c#L	.	8gL	.	(>12aaL	.	2AA	in	.	2A	in	2e	in	.	2cc#	in	.	2a	.	.	.	.	.	2cc#	.
.	.	.	.	.	.	.	.	.	12bb	.	.	.	.	.	.	.	.	.	.	.	.	.	.	.	.	.	.	.	.
.	.	.	.	.	8e	.	8a	.	.	.	.	.	.	.	.	.	.	.	.	.	.	.	.	.	.	.	.	.	.
.	.	.	.	.	.	.	.	.	12aaJ)	.	.	.	.	.	.	.	.	.	.	.	.	.	.	.	.	.	.	.	.
4A	.	.	4a	.	8c#	.	8g	.	(>12ggL	.	.	.	.	.	.	.	.	.	.	.	.	.	.	.	.	.	.	.	.
.	.	.	.	.	.	.	.	.	12ff#	.	.	.	.	.	.	.	.	.	.	.	.	.	.	.	.	.	.	.	.
.	.	.	.	.	8eJ	.	8aJ	.	.	.	.	.	.	.	.	.	.	.	.	.	.	.	.	.	.	.	.	.	.
.	.	.	.	.	.	.	.	.	12eeJ)	.	.	.	.	.	.	.	.	.	.	.	.	.	.	.	.	.	.	.	.
!	!	!	!	!	!	!	!	!	!	!	!	!	!	!	!	!	!	!	!	!	!	!	!	!	!	!LO:LB:g=original	!	!	!
=16	=16	=16	=16	=16	=16	=16	=16	=16	=16	=16	=16	=16	=16	=16	=16	=16	=16	=16	=16	=16	=16	=16	=16	=16	=16	=16	=16	=16	=16
8DL	.	<	8dL	.	8dL	.	(<12f#L	.	4dd	.	2D	no-	.	2A	no-	2f#	no-	.	2dd	no-	.	2dd	.	2ff#	.	2D	.	2dd	2ff#
.	.	.	.	.	.	.	12a	.	.	.	.	.	.	.	.	.	.	.	.	.	.	.	.	.	.	.	.	.	.
8D	.	.	8d	.	8f#	.	.	.	.	.	.	.	.	.	.	.	.	.	.	.	.	.	.	.	.	.	.	.	.
.	.	.	.	.	.	.	12ddJ)	.	.	.	.	.	.	.	.	.	.	.	.	.	.	.	.	.	.	.	.	.	.
8D	.	.	8d	.	8d	.	(>12ff#L	.	4r	.	.	.	.	.	.	.	.	.	.	.	.	.	.	.	.	.	.	.	.
.	.	.	.	.	.	.	12gg	.	.	.	.	.	.	.	.	.	.	.	.	.	.	.	.	.	.	.	.	.	.
8DJ	.	.	8dJ	.	8f#J	.	.	.	.	.	.	.	.	.	.	.	.	.	.	.	.	.	.	.	.	.	.	.	.
.	.	.	.	.	.	.	12gg#XJ)	.	.	.	.	.	.	.	.	.	.	.	.	.	.	.	.	.	.	.	.	.	.
!	!	!	!	!	!LO:LB:g=original	!	!	!	!	!	!	!	!	!	!	!	!	!	!	!	!	!	!	!	!	!	!	!	!
8DL	.	.	8dL	.	8dL	.	4aa	.	2r	.	4D	-bis	.	4A	-bis	4f#	-bis	.	4dd	-bis	.	4dd	.	4ff#	.	4D	.	4dd	4ff#
8D	.	.	8d	.	8f#	.	.	.	.	.	.	.	.	.	.	.	.	.	.	.	.	.	.	.	.	.	.	.	.
8D	.	[	8d	.	8d	.	4a 4ff#	fp	.	.	4D	quod	.	4A	quod	4a	quod	.	4ff#	quod	.	4dd	.	4ff#	.	4D	.	4a	4ff#
8DJ	.	fz	8dJ	.	8f#J	.	.	.	.	.	.	.	.	.	.	.	.	.	.	.	.	.	.	.	.	.	.	.	.
!LO:LB:g=original	!	!	!	!	!	!	!	!	!	!	!	!	!	!	!	!	!	!	!	!	!	!	!	!	!	!	!	!	!
=17	=17	=17	=17	=17	=17	=17	=17	=17	=17	=17	=17	=17	=17	=17	=17	=17	=17	=17	=17	=17	=17	=17	=17	=17	=17	=17	=17	=17	=17
8C#L	6	.	8c#L	.	16aLL\	.	(>4a 4ee	.	1r	.	4C#\	o-	.	4A	o-	4a	o-	.	4ee	o-	.	4a	.	4ee	.	4C#\	.	4a	4ee
.	.	.	.	.	16a	.	.	.	.	.	.	.	.	.	.	.	.	.	.	.	.	.	.	.	.	.	.	.	.
8C#	.	.	8c#	.	16a	.	.	.	.	.	.	.	.	.	.	.	.	.	.	.	.	.	.	.	.	.	.	.	.
.	.	.	.	.	16aJJ	.	.	.	.	.	.	.	.	.	.	.	.	.	.	.	.	.	.	.	.	.	.	.	.
8D	.	.	8d	.	16aLL\	.	4a 4ff#	.	.	.	4D	-pe-	.	4A	-pe-	4a	-pe-	.	4ff#	-pe-	.	4dd	.	4ff#	.	4D	.	4a	4ff#
.	.	.	.	.	16a	.	.	.	.	.	.	.	.	.	.	.	.	.	.	.	.	.	.	.	.	.	.	.	.
8DJ	.	.	8dJ	.	16a	.	.	.	.	.	.	.	.	.	.	.	.	.	.	.	.	.	.	.	.	.	.	.	.
.	.	.	.	.	16aJJ	.	.	.	.	.	.	.	.	.	.	.	.	.	.	.	.	.	.	.	.	.	.	.	.
8C#L	6	.	8c#L	.	16aLL\	.	4a 4ee	.	.	.	4C#\	-ra-	.	4A	-ra-	4a	-ra-	.	4ee	-ra-	.	4a	.	4ee	.	4C#\	.	4a	4ee
.	.	.	.	.	16a	.	.	.	.	.	.	.	.	.	.	.	.	.	.	.	.	.	.	.	.	.	.	.	.
8C#	.	.	8c#	.	16a	.	.	.	.	.	.	.	.	.	.	.	.	.	.	.	.	.	.	.	.	.	.	.	.
.	.	.	.	.	16aJJ	.	.	.	.	.	.	.	.	.	.	.	.	.	.	.	.	.	.	.	.	.	.	.	.
8D	.	.	8d	.	16aLL\	.	4a) 4ff#	.	.	.	4D	-tus	.	4A	-tus	4a	-tus	.	4ff#	-tus	.	4dd	.	4ff#	.	4D	.	4a	4ff#
.	.	.	.	.	16a	.	.	.	.	.	.	.	.	.	.	.	.	.	.	.	.	.	.	.	.	.	.	.	.
8DJ	.	.	8dJ	.	16a	.	.	.	.	.	.	.	.	.	.	.	.	.	.	.	.	.	.	.	.	.	.	.	.
.	.	.	.	.	16aJJ	.	.	.	.	.	.	.	.	.	.	.	.	.	.	.	.	.	.	.	.	.	.	.	.
=18	=18	=18	=18	=18	=18	=18	=18	=18	=18	=18	=18	=18	=18	=18	=18	=18	=18	=18	=18	=18	=18	=18	=18	=18	=18	=18	=18	=18	=18
8C#L	6	.	8c#L	.	16aLL\	.	4.a 4.ee	.	1r	.	2C#\	es	.	2A	es	2a	es	.	(>4.ee	es	.	2a\	.	2ee	.	2C#\	.	1a	4.ee
.	.	.	.	.	16a	.	.	.	.	.	.	.	.	.	.	.	.	.	.	.	.	.	.	.	.	.	.	.	.
8C#	.	.	8c#	.	16a	.	.	.	.	.	.	.	.	.	.	.	.	.	.	.	.	.	.	.	.	.	.	.	.
.	.	.	.	.	16aJJ	.	.	.	.	.	.	.	.	.	.	.	.	.	.	.	.	.	.	.	.	.	.	.	.
8C#	.	.	8c#	.	16aLL\	.	.	.	.	.	.	.	.	.	.	.	.	.	.	.	.	.	.	.	.	.	.	.	.
.	.	.	.	.	16a	.	.	.	.	.	.	.	.	.	.	.	.	.	.	.	.	.	.	.	.	.	.	.	.
8C#J	.	.	8c#J	.	16a	.	8ee#X	.	.	.	.	.	.	.	.	.	.	.	8ee#X)	.	.	.	.	.	.	.	.	.	8ee#X
.	.	.	.	.	16aJJ	.	.	.	.	.	.	.	.	.	.	.	.	.	.	.	.	.	.	.	.	.	.	.	.
8DL	.	.	8dL	.	16aLL\	.	4ff#	.	.	.	2D	in	.	2A	in	2a	in	.	4ff#	in	.	2dd	.	2ff#	.	2D	.	.	4ff#
.	.	.	.	.	16a	.	.	.	.	.	.	.	.	.	.	.	.	.	.	.	.	.	.	.	.	.	.	.	.
8D	.	.	8d	.	16a	.	.	.	.	.	.	.	.	.	.	.	.	.	.	.	.	.	.	.	.	.	.	.	.
.	.	.	.	.	16aJJ	.	.	.	.	.	.	.	.	.	.	.	.	.	.	.	.	.	.	.	.	.	.	.	.
8D	.	.	8d	.	16aLL\	.	8gg#XL	.	.	.	.	.	.	.	.	.	.	.	8gg#XL	.	.	.	.	.	.	.	.	.	8gg#L
.	.	.	.	.	16a	.	.	.	.	.	.	.	.	.	.	.	.	.	.	.	.	.	.	.	.	.	.	.	.
8DJ	.	.	8dJ	.	16a	.	8aaJ	.	.	.	.	.	.	.	.	.	.	.	8aaJ	.	.	.	.	.	.	.	.	.	8aaJ
.	.	.	.	.	16aJJ	.	.	.	.	.	.	.	.	.	.	.	.	.	.	.	.	.	.	.	.	.	.	.	.
!	!	!	!LO:LB:g=original	!	!	!	!	!	!	!	!	!	!	!	!	!	!	!	!	!	!	!	!	!	!	!	!	!	!
=19	=19	=19	=19	=19	=19	=19	=19	=19	=19	=19	=19	=19	=19	=19	=19	=19	=19	=19	=19	=19	=19	=19	=19	=19	=19	=19	=19	=19	=19
8EL	6 4	.	8eL	.	16aLL\	.	8cc#L	.	1r	.	1E	no-	.	8AL	no-	2a	no-	.	2cc#	no-	.	4ee	.	4ee	.	1E	.	2a	2cc#
.	.	.	.	.	16a	.	.	.	.	.	.	.	.	.	.	.	.	.	.	.	.	.	.	.	.	.	.	.	.
8E	.	.	8e	.	16a	.	16aaL	.	.	.	.	.	.	8c#J	.	.	.	.	.	.	.	.	.	.	.	.	.	.	.
.	.	.	.	.	16aJJ	.	16aaJJ	.	.	.	.	.	.	.	.	.	.	.	.	.	.	.	.	.	.	.	.	.	.
!	!	!	!	!	!	!	!LO:LB:g=original	!	!	!	!	!	!	!	!	!	!	!	!	!	!	!	!	!	!	!	!	!	!
8E	.	.	8e	.	16cc#LL	.	16eeLL	.	.	.	.	.	.	2e	.	.	.	.	.	.	.	8eeL	.	8eeL	.	.	.	.	.
.	.	.	.	.	16cc#	.	16ee	.	.	.	.	.	.	.	.	.	.	.	.	.	.	.	.	.	.	.	.	.	.
8EJ	.	.	8eJ	.	16a	.	16cc#	.	.	.	.	.	.	.	.	.	.	.	.	.	.	8eeJ	.	8eeJ	.	.	.	.	.
.	.	.	.	.	16aJJ	.	16cc#JJ	.	.	.	.	.	.	.	.	.	.	.	.	.	.	.	.	.	.	.	.	.	.
8EL	#	.	8eL	.	16g#XLL	.	16bLL	.	.	.	.	.	.	.	.	2g#X	.	.	2b	.	.	4ee	.	4ee	.	.	.	2g#	2b
.	.	.	.	.	16g#	.	16b	.	.	.	.	.	.	.	.	.	.	.	.	.	.	.	.	.	.	.	.	.	.
8E	.	.	8e	.	16b	.	16gg#X	.	.	.	.	.	.	.	.	.	.	.	.	.	.	.	.	.	.	.	.	.	.
.	.	.	.	.	16bJJ	.	16gg#JJ	.	.	.	.	.	.	.	.	.	.	.	.	.	.	.	.	.	.	.	.	.	.
!	!	!	!	!	!LO:LB:g=original	!	!	!	!	!	!	!	!	!	!	!	!	!	!	!	!	!	!	!	!	!	!	!	!
8E	.	.	8e	.	16g#LL	.	16bLL	.	.	.	.	.	.	8dL	.	.	.	.	.	.	.	8eeL	.	8eeL	.	.	.	.	.
.	.	.	.	.	16g#	.	16b	.	.	.	.	.	.	.	.	.	.	.	.	.	.	.	.	.	.	.	.	.	.
8EJ	.	.	8eJ	.	16b	.	16gg#X	.	.	.	.	.	.	8BJ	.	.	.	.	.	.	.	8eeJ	.	8eeJ	.	.	.	.	.
.	.	.	.	.	16bJJ	.	16gg#JJ	.	.	.	.	.	.	.	.	.	.	.	.	.	.	.	.	.	.	.	.	.	.
!	!	!	!	!	!	!	!	!	!	!	!	!	!	!	!	!	!	!	!	!	!	!LO:LB:g=original	!	!LO:LB:g=original	!	!	!	!LO:LB:g=original	!
=20	=20	=20	=20	=20	=20	=20	=20	=20	=20	=20	=20	=20	=20	=20	=20	=20	=20	=20	=20	=20	=20	=20	=20	=20	=20	=20	=20	=20	=20
8C#L	6	.	8c#L	.	16aLL\	.	4.a 4.ee	.	1r	.	2C#\	-bis	.	2A	-bis	2a	-bis	.	4.ee	bis	.	2a\	.	2ee	.	2C#\	.	1a	4.ee
.	.	.	.	.	16a	.	.	.	.	.	.	.	.	.	.	.	.	.	.	.	.	.	.	.	.	.	.	.	.
8C#	.	.	8c#	.	16a	.	.	.	.	.	.	.	.	.	.	.	.	.	.	.	.	.	.	.	.	.	.	.	.
.	.	.	.	.	16aJJ	.	.	.	.	.	.	.	.	.	.	.	.	.	.	.	.	.	.	.	.	.	.	.	.
8C#	.	.	8c#	.	16aLL\	.	.	.	.	.	.	.	.	.	.	.	.	.	.	.	.	.	.	.	.	.	.	.	.
.	.	.	.	.	16a	.	.	.	.	.	.	.	.	.	.	.	.	.	.	.	.	.	.	.	.	.	.	.	.
8C#J	.	.	8c#J	.	16a	.	8ee#X	.	.	.	.	.	.	.	.	.	.	.	8ee#X	.	.	.	.	.	.	.	.	.	8ee#X
.	.	.	.	.	16aJJ	.	.	.	.	.	.	.	.	.	.	.	.	.	.	.	.	.	.	.	.	.	.	.	.
8DL	.	.	8dL	.	16aLL\	.	4ff#	.	.	.	2D	in	.	2A	in	2a	in	.	4ff#	in	.	2dd	.	2ff#	.	2D	.	.	4ff#
.	.	.	.	.	16a	.	.	.	.	.	.	.	.	.	.	.	.	.	.	.	.	.	.	.	.	.	.	.	.
8D	.	.	8d	.	16a	.	.	.	.	.	.	.	.	.	.	.	.	.	.	.	.	.	.	.	.	.	.	.	.
.	.	.	.	.	16aJJ	.	.	.	.	.	.	.	.	.	.	.	.	.	.	.	.	.	.	.	.	.	.	.	.
8D	.	.	8d	.	16aLL\	.	8gg#XL	.	.	.	.	.	.	.	.	.	.	.	8gg#XL	.	.	.	.	.	.	.	.	.	8gg#L
.	.	.	.	.	16a	.	.	.	.	.	.	.	.	.	.	.	.	.	.	.	.	.	.	.	.	.	.	.	.
8DJ	.	.	8dJ	.	16a	.	8aaJ	.	.	.	.	.	.	.	.	.	.	.	8aaJ	.	.	.	.	.	.	.	.	.	8aaJ
.	.	.	.	.	16aJJ	.	.	.	.	.	.	.	.	.	.	.	.	.	.	.	.	.	.	.	.	.	.	.	.
!LO:LB:g=original	!	!	!	!	!	!	!	!	!	!	!	!	!	!LO:LB:g=original	!	!	!	!	!LO:LB:g=original	!	!	!	!	!	!	!	!	!	!LO:LB:g=original
=21	=21	=21	=21	=21	=21	=21	=21	=21	=21	=21	=21	=21	=21	=21	=21	=21	=21	=21	=21	=21	=21	=21	=21	=21	=21	=21	=21	=21	=21
8EL	6 4	.	8eL	.	16aLL\	.	8cc#L	.	1r	.	1E	no-	.	8AL	no-	2a	no-	.	2cc#	no-	.	4ee	.	4ee	.	1E	.	2a	2cc#
.	.	.	.	.	16a	.	.	.	.	.	.	.	.	.	.	.	.	.	.	.	.	.	.	.	.	.	.	.	.
8E	.	.	8e	.	16a	.	16aaL	.	.	.	.	.	.	8c#J	.	.	.	.	.	.	.	.	.	.	.	.	.	.	.
.	.	.	.	.	16aJJ	.	16aaJJ	.	.	.	.	.	.	.	.	.	.	.	.	.	.	.	.	.	.	.	.	.	.
8E	.	.	8e	.	16cc#LL	.	16eeLL	.	.	.	.	.	.	2e	.	.	.	.	.	.	.	8eeL	.	8eeL	.	.	.	.	.
.	.	.	.	.	16cc#	.	16ee	.	.	.	.	.	.	.	.	.	.	.	.	.	.	.	.	.	.	.	.	.	.
8EJ	.	.	8eJ	.	16a	.	16cc#	.	.	.	.	.	.	.	.	.	.	.	.	.	.	8eeJ	.	8eeJ	.	.	.	.	.
.	.	.	.	.	16aJJ	.	16cc#JJ	.	.	.	.	.	.	.	.	.	.	.	.	.	.	.	.	.	.	.	.	.	.
8EL	#	.	8eL	.	16g#XLL\	.	16bLL	.	.	.	.	.	.	.	.	2g#X	.	.	2b	.	.	4ee	.	4ee	.	.	.	2g#	2b
.	.	.	.	.	16g#	.	16b	.	.	.	.	.	.	.	.	.	.	.	.	.	.	.	.	.	.	.	.	.	.
8E	.	.	8e	.	16b	.	16gg#X	.	.	.	.	.	.	.	.	.	.	.	.	.	.	.	.	.	.	.	.	.	.
.	.	.	.	.	16bJJ	.	16gg#JJ	.	.	.	.	.	.	.	.	.	.	.	.	.	.	.	.	.	.	.	.	.	.
8E	.	.	8e	.	16g#LL\	.	16bLL	.	.	.	.	.	.	8dL	.	.	.	.	.	.	.	8eeL	.	8eeL	.	.	.	.	.
.	.	.	.	.	16g#	.	16b	.	.	.	.	.	.	.	.	.	.	.	.	.	.	.	.	.	.	.	.	.	.
8EJ	.	.	8eJ	.	16b	.	16gg#	.	.	.	.	.	.	8BJ	.	.	.	.	.	.	.	8eeJ	.	8eeJ	.	.	.	.	.
.	.	.	.	.	16bJJ	.	16gg#JJ	.	.	.	.	.	.	.	.	.	.	.	.	.	.	.	.	.	.	.	.	.	.
!	!	!	!LO:LB:g=original	!	!	!	!LO:LB:g=original	!	!LO:LB:g=original	!	!	!	!	!	!	!LO:LB:g=original	!	!	!	!	!	!	!	!	!	!	!	!	!
=22	=22	=22	=22	=22	=22	=22	=22	=22	=22	=22	=22	=22	=22	=22	=22	=22	=22	=22	=22	=22	=22	=22	=22	=22	=22	=22	=22	=22	=22
2A	.	.	2a	.	2e 2cc#\	.	2aa	.	(>16ALL	.	2AA	-bis	.	2A	-bis	2a	-bis	.	2cc#	-bis	.	2a	.	2ee	.	2AA	.	2a	2cc#
.	.	.	.	.	.	.	.	.	16c#	.	.	.	.	.	.	.	.	.	.	.	.	.	.	.	.	.	.	.	.
.	.	.	.	.	.	.	.	.	16e	.	.	.	.	.	.	.	.	.	.	.	.	.	.	.	.	.	.	.	.
.	.	.	.	.	.	.	.	.	16aJJ	.	.	.	.	.	.	.	.	.	.	.	.	.	.	.	.	.	.	.	.
.	.	.	.	.	.	.	.	.	16cc#LL	.	.	.	.	.	.	.	.	.	.	.	.	.	.	.	.	.	.	.	.
.	.	.	.	.	.	.	.	.	16ee	.	.	.	.	.	.	.	.	.	.	.	.	.	.	.	.	.	.	.	.
.	.	.	.	.	.	.	.	.	16aa	.	.	.	.	.	.	.	.	.	.	.	.	.	.	.	.	.	.	.	.
.	.	.	.	.	.	.	.	.	16ccc#JJ)	.	.	.	.	.	.	.	.	.	.	.	.	.	.	.	.	.	.	.	.
4r	.	.	4r	.	4r	.	4r	.	4eee	.	2r	.	.	2r	.	2r	.	.	2r	.	.	4r	.	4r	.	4r	.	4r	4r
4E	#	.	4e	.	4e 4dd	.	4b 4gg#X	.	4r	.	.	.	.	.	.	.	.	.	.	.	.	4ee	.	4ee	.	4E	.	4g#	4b
!	!	!	!	!	!LO:LB:g=original	!	!	!	!	!	!LO:LB:g=original	!	!	!	!	!	!	!	!	!	!	!	!	!	!	!	!	!	!
=23	=23	=23	=23	=23	=23	=23	=23	=23	=23	=23	=23	=23	=23	=23	=23	=23	=23	=23	=23	=23	=23	=23	=23	=23	=23	=23	=23	=23	=23
4A	.	.	4a	.	4e 4cc#\	.	4cc# 4aa	.	1r	.	1r	.	.	1r	.	1r	.	.	1r	.	.	4a\	.	4ee	.	4A	.	4a	4cc#
4E	#	.	4e	.	4e 4dd\	.	4b 4gg#X	.	.	.	.	.	.	.	.	.	.	.	.	.	.	4ee	.	4ee	.	4E	.	4g#	4b
4A	.	.	4a	.	4e 4cc#\	.	4cc# 4aa	.	.	.	.	.	.	.	.	.	.	.	.	.	.	4a\	.	4ee	.	4A	.	4a	4cc#
4E	#	.	4e	.	4e 4dd\	.	4b 4gg#	.	.	.	.	.	.	.	.	.	.	.	.	.	.	4ee	.	4ee	.	4E	.	4g#	4b
!	!	!	!	!	!	!	!	!	!	!	!	!	!	!	!	!	!	!	!	!	!	!	!	!LO:LB:g=original	!	!	!	!	!
=24	=24	=24	=24	=24	=24	=24	=24	=24	=24	=24	=24	=24	=24	=24	=24	=24	=24	=24	=24	=24	=24	=24	=24	=24	=24	=24	=24	=24	=24
2A	.	.	2a	.	2e 2cc#\	.	2cc# 2aa	.	16ALL	.	1r	.	.	1r	.	1r	.	.	1r	.	.	2a\	.	2ee	.	2A	.	2a	2cc#
.	.	.	.	.	.	.	.	.	16c#	.	.	.	.	.	.	.	.	.	.	.	.	.	.	.	.	.	.	.	.
.	.	.	.	.	.	.	.	.	16e	.	.	.	.	.	.	.	.	.	.	.	.	.	.	.	.	.	.	.	.
.	.	.	.	.	.	.	.	.	16aJJ	.	.	.	.	.	.	.	.	.	.	.	.	.	.	.	.	.	.	.	.
.	.	.	.	.	.	.	.	.	16cc#LL	.	.	.	.	.	.	.	.	.	.	.	.	.	.	.	.	.	.	.	.
.	.	.	.	.	.	.	.	.	16ee	.	.	.	.	.	.	.	.	.	.	.	.	.	.	.	.	.	.	.	.
.	.	.	.	.	.	.	.	.	16aa	.	.	.	.	.	.	.	.	.	.	.	.	.	.	.	.	.	.	.	.
.	.	.	.	.	.	.	.	.	16ccc#JJ	.	.	.	.	.	.	.	.	.	.	.	.	.	.	.	.	.	.	.	.
4r	.	.	4r	.	4r	.	4r	.	4eee	.	.	.	.	.	.	.	.	.	.	.	.	4r	.	4r	.	4r	.	4r	4r
4E	#	.	4e	.	4e 4dd\	.	4b 4gg#X	.	4r	.	.	.	.	.	.	.	.	.	.	.	.	4ee	.	4ee	.	4E	.	4g#	4b
!	!	!	!	!	!	!	!	!	!	!	!	!	!	!	!	!	!	!	!	!	!	!LO:LB:g=original	!	!	!	!LO:LB:g=original	!	!	!LO:LB:g=original
=25	=25	=25	=25	=25	=25	=25	=25	=25	=25	=25	=25	=25	=25	=25	=25	=25	=25	=25	=25	=25	=25	=25	=25	=25	=25	=25	=25	=25	=25
4A	.	.	4a	.	4e 4cc#\	.	4cc# 4aa	.	1r	.	2r	.	.	2r	.	2r	.	.	2r	.	.	4a\	.	4ee	.	4A	.	4a	4cc#
4E	#	.	4e	.	4e 4dd\	.	4b 4gg#X	.	.	.	.	.	.	.	.	.	.	.	.	.	.	4ee	.	4ee	.	4E	.	4g#	4b
4A	.	.	4a	.	4e 4cc#\	.	4cc# 4aa	.	.	.	4r	.	.	4r	.	4r	.	.	4r	.	.	4a\	.	4ee	.	4A	.	4a	4cc#
4E	#	.	4e	.	4e 4dd\	.	4b 4gg#	.	.	.	4E	in	.	4e	in	4g#X	in	.	4b	in	.	4ee	.	4ee	.	4E	.	4g#	4b
!	!	!	!	!	!	!	!	!	!LO:LB:g=original	!	!	!	!	!	!	!	!	!	!	!	!	!	!	!	!	!	!	!LO:LB:g=original	!
=26	=26	=26	=26	=26	=26	=26	=26	=26	=26	=26	=26	=26	=26	=26	=26	=26	=26	=26	=26	=26	=26	=26	=26	=26	=26	=26	=26	=26	=26
2A	.	.	2a	.	2e 2cc#\	.	2cc# 2aa	.	16ALL	.	1A	no-	.	1e	no-	1a	no-	.	1cc#	no-	.	2a\	.	2ee	.	2A	.	2a	2cc#
.	.	.	.	.	.	.	.	.	16c#	.	.	.	.	.	.	.	.	.	.	.	.	.	.	.	.	.	.	.	.
.	.	.	.	.	.	.	.	.	16e	.	.	.	.	.	.	.	.	.	.	.	.	.	.	.	.	.	.	.	.
.	.	.	.	.	.	.	.	.	16aJJ	.	.	.	.	.	.	.	.	.	.	.	.	.	.	.	.	.	.	.	.
.	.	.	.	.	.	.	.	.	16cc#LL	.	.	.	.	.	.	.	.	.	.	.	.	.	.	.	.	.	.	.	.
.	.	.	.	.	.	.	.	.	16ee	.	.	.	.	.	.	.	.	.	.	.	.	.	.	.	.	.	.	.	.
.	.	.	.	.	.	.	.	.	16aa	.	.	.	.	.	.	.	.	.	.	.	.	.	.	.	.	.	.	.	.
.	.	.	.	.	.	.	.	.	16ccc#JJ	.	.	.	.	.	.	.	.	.	.	.	.	.	.	.	.	.	.	.	.
2r	.	.	2r	.	2r	.	2r	.	16eeeLL	.	.	.	.	.	.	.	.	.	.	.	.	2r	.	2r	.	2r	.	2r	2r
.	.	.	.	.	.	.	.	.	16ee	.	.	.	.	.	.	.	.	.	.	.	.	.	.	.	.	.	.	.	.
.	.	.	.	.	.	.	.	.	16aa	.	.	.	.	.	.	.	.	.	.	.	.	.	.	.	.	.	.	.	.
.	.	.	.	.	.	.	.	.	16ccc#JJ	.	.	.	.	.	.	.	.	.	.	.	.	.	.	.	.	.	.	.	.
.	.	.	.	.	.	.	.	.	16eeeLL	.	.	.	.	.	.	.	.	.	.	.	.	.	.	.	.	.	.	.	.
.	.	.	.	.	.	.	.	.	16aa	.	.	.	.	.	.	.	.	.	.	.	.	.	.	.	.	.	.	.	.
.	.	.	.	.	.	.	.	.	16ccc#	.	.	.	.	.	.	.	.	.	.	.	.	.	.	.	.	.	.	.	.
.	.	.	.	.	.	.	.	.	16eeeJJ	.	.	.	.	.	.	.	.	.	.	.	.	.	.	.	.	.	.	.	.
!LO:LB:g=original	!	!	!LO:LB:g=original	!	!	!	!	!	!	!	!	!	!	!	!	!	!	!	!	!	!	!	!	!	!	!	!	!	!
=27	=27	=27	=27	=27	=27	=27	=27	=27	=27	=27	=27	=27	=27	=27	=27	=27	=27	=27	=27	=27	=27	=27	=27	=27	=27	=27	=27	=27	=27
4r	.	.	4r	.	4r	.	4r	.	2aaa	.	2A	-bis	.	2e	-bis	2a	-bis	.	2cc#	-bis	.	4r	.	4r	.	4r	.	4r	4r
8.r	.	.	8.r	.	8.r	.	8.r	.	.	.	.	.	.	.	.	.	.	.	.	.	.	8.r	.	8.r	.	8.r	.	8.r	8.r
!	!	!	!	!	!LO:N:vis=8	!	!	!	!	!	!	!	!	!	!	!	!	!	!	!	!	!	!	!	!	!	!	!	!
16A	.	.	16a	.	16e 16cc#\	.	16cc# 16aa	.	.	.	.	.	.	.	.	.	.	.	.	.	.	16a	.	16ee	.	16A	.	16cc#	16ee
4E	.	.	4e	.	4e 4cc#\	.	4cc# 4aa	.	2r	.	2r	.	.	2r	.	2r	.	.	2r	.	.	4a	.	4ee	.	4E	.	4cc#	4ee
4C#	.	.	4c#	.	4e 4cc#\	.	4cc# 4aa	.	.	.	.	.	.	.	.	.	.	.	.	.	.	4a	.	4ee	.	4C#	.	4cc#	4ee
!	!	!	!	!	!	!	!LO:LB:g=original	!	!	!	!	!	!	!	!	!	!	!	!	!	!	!	!	!	!	!	!	!	!
=28	=28	=28	=28	=28	=28	=28	=28	=28	=28	=28	=28	=28	=28	=28	=28	=28	=28	=28	=28	=28	=28	=28	=28	=28	=28	=28	=28	=28	=28
2AA	.	.	2A	.	2A 2e 2cc#	.	2A 2e 2cc# 2aa	.	1r	.	2r	.	.	2r	.	2r	.	.	2r	.	.	2a\	.	2ee	.	2AA	.	2cc#	2ee
!	!	!	!	!	!	!	!	!	!	!	!	!	!	!	!	!	!	!	!LO:TX:a:t=sotto voce	!	!	!	!	!	!	!	!	!	!
2r	.	.	2r	.	2r	.	2r	.	.	.	2A	a	.	2A	a	2a	a	.	2a	a	.	2r	.	2r	.	2r	.	2r	2r
!	!	!	!	!	!	!	!	!	!	!	!	!	!	!	!	!	!	!	!	!	!	!LO:LB:g=original	!	!LO:LB:g=original	!	!	!	!	!
=29	=29	=29	=29	=29	=29	=29	=29	=29	=29	=29	=29	=29	=29	=29	=29	=29	=29	=29	=29	=29	=29	=29	=29	=29	=29	=29	=29	=29	=29
1r	.	.	1r	.	1r	.	1r	.	1r	.	2A	tem-	.	2A	tem-	2a	tem-	.	2a	tem-	.	1r	.	1r	.	1r	.	1r	1r
.	.	.	.	.	.	.	.	.	.	.	2G#X	-plo	.	2G#X\	-plo	2g#X	-plo	.	2g#X	-plo	.	.	.	.	.	.	.	.	.
=30	=30	=30	=30	=30	=30	=30	=30	=30	=30	=30	=30	=30	=30	=30	=30	=30	=30	=30	=30	=30	=30	=30	=30	=30	=30	=30	=30	=30	=30
1r	.	.	1r	.	1r	.	1r	.	1r	.	4A	tu-	.	4A	tu-	4a	tu-	.	4a	tu-	.	1r	.	1r	.	1r	.	1r	1r
.	.	.	.	.	.	.	.	.	.	.	8.B-XL	.	.	8.B-XL	.	8.b-XL	.	.	8.b-L	.	.	.	.	.	.	.	.	.	.
.	.	.	.	.	.	.	.	.	.	.	16AJk	.	.	16AJk	.	16aJk	.	.	16aJk	.	.	.	.	.	.	.	.	.	.
!	!	!	!	!	!	!	!	!	!	!	!	!	!	!LO:LB:g=original	!	!	!	!	!	!	!	!	!	!	!	!	!	!	!
.	.	.	.	.	.	.	.	.	.	.	4A	-o	.	4A	-o	4a	-o	.	4a	-o	.	.	.	.	.	.	.	.	.
.	.	.	.	.	.	.	.	.	.	.	8.GL	quod	.	8.GL	quod	8.gL	quod	.	8.gL	quod	.	.	.	.	.	.	.	.	.
.	.	.	.	.	.	.	.	.	.	.	16FnJk	.	.	16FnJk	.	16fnJk	.	.	16fnJk	.	.	.	.	.	.	.	.	.	.
!	!	!	!	!	!	!	!	!	!	!	!LO:LB:g=original	!	!	!	!	!	!	!	!LO:LB:g=original	!	!	!	!	!	!	!	!	!	!
=31	=31	=31	=31	=31	=31	=31	=31	=31	=31	=31	=31	=31	=31	=31	=31	=31	=31	=31	=31	=31	=31	=31	=31	=31	=31	=31	=31	=31	=31
1r	.	.	1r	.	1r	.	1r	.	1r	.	2Fn	est	.	2Fn	est	2fn	est	.	2fn	est	.	1r	.	1r	.	1r	.	1r	1r
.	.	.	.	.	.	.	.	.	.	.	4E	in	.	4E	in	4e	in	.	4e	in	.	.	.	.	.	.	.	.	.
.	.	.	.	.	.	.	.	.	.	.	8AL	Je-	.	8AL	Je-	8aL	Je-	.	8aL/	Je-	.	.	.	.	.	.	.	.	.
.	.	.	.	.	.	.	.	.	.	.	8GJ	.	.	8GJ	.	8gJ	.	.	8gJ	.	.	.	.	.	.	.	.	.	.
!	!	!	!	!	!	!	!	!	!	!	!	!	!	!	!	!LO:LB:g=original	!	!	!	!	!	!	!	!	!	!	!	!	!
=32	=32	=32	=32	=32	=32	=32	=32	=32	=32	=32	=32	=32	=32	=32	=32	=32	=32	=32	=32	=32	=32	=32	=32	=32	=32	=32	=32	=32	=32
1r	.	.	1r	.	1r	.	1r	.	1r	.	(>2Fn	-ru-	.	(<2Fn	-ru-	2fn	-ru-	.	2fn	-ru-	.	1r	.	1r	.	1r	.	1r	1r
.	.	.	.	.	.	.	.	.	.	.	4.E)	.	.	4.E)	.	4.e	sa-	.	4.e	.	.	.	.	.	.	.	.	.	.
.	.	.	.	.	.	.	.	.	.	.	8D	-sa-	.	8D	-sa-	8d	.	.	8d	-sa-	.	.	.	.	.	.	.	.	.
!	!	!	!	!	!LO:LB:g=original	!	!	!	!	!	!	!	!	!	!	!	!	!	!	!	!	!	!	!	!	!	!	!	!
=33	=33	=33	=33	=33	=33	=33	=33	=33	=33	=33	=33	=33	=33	=33	=33	=33	=33	=33	=33	=33	=33	=33	=33	=33	=33	=33	=33	=33	=33
1D	n	.	1Fn 1A	.	1A [1fn	.	[1d	.	1r	.	2D	-lem	.	2D	-lem	2d	-lem	.	2d	-lem	.	1r	.	1r	.	1r	.	1r	1r
.	.	.	.	.	.	.	.	.	.	.	2r	.	.	2r	.	2r	.	.	2r	.	.	.	.	.	.	.	.	.	.
=34	=34	=34	=34	=34	=34	=34	=34	=34	=34	=34	=34	=34	=34	=34	=34	=34	=34	=34	=34	=34	=34	=34	=34	=34	=34	=34	=34	=34	=34
2D	.	.	2Fn 2A	.	2A 2fn]	.	2d]	.	1r	.	1r	.	.	4r	.	4r	.	.	4r	.	.	1r	.	1r	.	1r	.	1r	1r
!	!	!	!	!	!	!	!	!	!	!	!	!	!	!	!	!	!	!	!	!	!LO:DY:a	!	!	!	!	!	!	!	!
.	.	.	.	.	.	.	.	.	.	.	.	.	.	2fn	ti-	2a	ti-	.	2dd	Ti-	>	.	.	.	.	.	.	.	.
2r	.	.	2r	.	2r	.	2r	.	.	.	.	.	.	.	.	.	.	.	.	.	.	.	.	.	.	.	.	.	.
.	.	.	.	.	.	.	.	.	.	.	.	.	.	4f	-bi	4a	-bi	.	4dd	-bi	]]	.	.	.	.	.	.	.	.
=35	=35	=35	=35	=35	=35	=35	=35	=35	=35	=35	=35	=35	=35	=35	=35	=35	=35	=35	=35	=35	=35	=35	=35	=35	=35	=35	=35	=35	=35
1r	.	.	1r	.	1r	.	1r	.	1r	.	4r	.	.	4.e	of-	4.g	of-	.	(>4.dd	of-	]	1r	.	1r	.	1r	.	1r	1r
.	.	.	.	.	.	.	.	.	.	.	2cn	ti-	>	.	.	.	.	.	.	.	.	.	.	.	.	.	.	.	.
.	.	.	.	.	.	.	.	.	.	.	.	.	.	8e	-fe-	8g	-fe-	.	8ccn)	-fe-	.	.	.	.	.	.	.	.	.
.	.	.	.	.	.	.	.	.	.	.	.	.	.	4e	-rent	4g	-rent	.	4cc	-rent	.	.	.	.	.	.	.	.	.
.	.	.	.	.	.	.	.	.	.	.	4c	-bi	]]	4r	.	4r	.	.	4r	.	.	.	.	.	.	.	.	.	.
!	!	!	!LO:LB:g=original	!	!	!	!	!	!	!	!	!	!	!LO:LB:g=original	!	!	!	!	!	!	!	!	!	!	!	!	!	!	!
=36	=36	=36	=36	=36	=36	=36	=36	=36	=36	=36	=36	=36	=36	=36	=36	=36	=36	=36	=36	=36	=36	=36	=36	=36	=36	=36	=36	=36	=36
2.Cn	.	.	2.Cn 2.cn	.	2.cn	.	2.cn	.	1r	.	4.cn	of-	]	4r	.	4r	.	.	4r	.	.	1r	.	1r	.	1r	.	1r	1r
.	.	.	.	.	.	.	.	.	.	.	.	.	.	2e	ti-	2g	ti-	>	2ccn	ti-	.	.	.	.	.	.	.	.	.
.	.	.	.	.	.	.	.	.	.	.	8C#	-fe-	.	.	.	.	.	.	.	.	.	.	.	.	.	.	.	.	.
.	.	.	.	.	.	.	.	.	.	.	4C#	-rent	.	.	.	.	.	.	.	.	.	.	.	.	.	.	.	.	.
4r	.	.	4r	.	4r	.	4r	.	.	.	4r	.	.	4e	-bi	4g	-bi	]]	4cc	-bi	.	.	.	.	.	.	.	.	.
!LO:LB:g=original	!	!	!	!	!	!	!	!	!	!	!LO:LB:g=original	!	!	!	!	!	!	!	!LO:LB:g=original	!	!	!	!	!	!	!	!	!	!
=37	=37	=37	=37	=37	=37	=37	=37	=37	=37	=37	=37	=37	=37	=37	=37	=37	=37	=37	=37	=37	=37	=37	=37	=37	=37	=37	=37	=37	=37
2r	.	.	2r	.	2r	.	2r	.	1r	.	2.D	ti-	.	4.fn	of-	4.fn	of-	]	(>4.cc#	of-	.	1r	.	1r	.	1r	.	1r	1r
.	.	.	.	.	.	.	.	.	.	.	.	.	.	8f	-fe-	8f	-fe-	.	8b-X)	-fe-	.	.	.	.	.	.	.	.	.
4r	.	.	4r	.	4r	.	4r	.	.	.	.	.	.	4f	-rent	4f	-rent	.	4b-	-rent	.	.	.	.	.	.	.	.	.
4D	6-	.	4d	.	4fn	.	4b-X	.	.	.	4D	-bi	.	4r	.	4r	.	.	4r	.	.	.	.	.	.	.	.	.	.
=38	=38	=38	=38	=38	=38	=38	=38	=38	=38	=38	=38	=38	=38	=38	=38	=38	=38	=38	=38	=38	=38	=38	=38	=38	=38	=38	=38	=38	=38
4E	6- 5	.	4r	.	4r	.	4r	.	1r	.	2E	re-	.	2cn	re-	2g	re-	.	2b-X	re-	.	1r	.	1r	.	1r	.	1r	1r
4r	.	.	4cn	.	4g	.	4b-X/	.	.	.	.	.	.	.	.	.	.	.	.	.	.	.	.	.	.	.	.	.	.
4Fn	5n	.	4r	.	4r	.	4r	.	.	.	2Fn	-ges	.	2c	-ges	2fn	-ges	.	2a	-ges	.	.	.	.	.	.	.	.	.
4r	.	.	4c	.	4fn	.	4a	.	.	.	.	.	.	.	.	.	.	.	.	.	.	.	.	.	.	.	.	.	.
!	!	!	!	!	!	!	!LO:LB:g=original	!	!	!	!	!	!	!	!	!LO:LB:g=original	!	!	!	!	!	!	!	!	!	!	!	!	!
=39	=39	=39	=39	=39	=39	=39	=39	=39	=39	=39	=39	=39	=39	=39	=39	=39	=39	=39	=39	=39	=39	=39	=39	=39	=39	=39	=39	=39	=39
4BB-X	5 6n	.	4r	.	4r	.	4r	.	1r	.	2BB-X	mu-	.	(>2d	mu-	2fn	mu-	.	2.g	mu-	.	1r	.	1r	.	1r	.	1r	1r
4r	.	.	4B-X 4d	.	4fn	.	4g	.	.	.	.	.	.	.	.	.	.	.	.	.	.	.	.	.	.	.	.	.	.
4Cn	n	.	4r	.	4r	.	4r	.	.	.	2Cn	-ne-	.	4cn)	-ne-	2e	-ne-	.	.	.	.	.	.	.	.	.	.	.	.
4r	.	.	4c#	.	4e	.	4g	.	.	.	.	.	.	4B-X	.	.	.	.	4g	-ne-	.	.	.	.	.	.	.	.	.
=40	=40	=40	=40	=40	=40	=40	=40	=40	=40	=40	=40	=40	=40	=40	=40	=40	=40	=40	=40	=40	=40	=40	=40	=40	=40	=40	=40	=40	=40
1D	n	.	1Fn 1A	.	1d	.	1A 1fn	.	1r	.	2D	-ra	.	2A	-ra	2fn	-ra	.	2fn	-ra	.	1r	.	1r	.	1r	.	1r	1r
.	.	.	.	.	.	.	.	.	.	.	2r	.	.	2r	.	2r	.	.	2r	.	.	.	.	.	.	.	.	.	.
!	!	!	!	!	!LO:LB:g=original	!	!	!	!	!	!	!	!	!	!	!	!	!	!	!	!	!	!	!	!	!	!	!	!
=41	=41	=41	=41	=41	=41	=41	=41	=41	=41	=41	=41	=41	=41	=41	=41	=41	=41	=41	=41	=41	=41	=41	=41	=41	=41	=41	=41	=41	=41
2D	n	.	2Fn 2A	.	2d	.	2A 2f#	.	1r	.	1r	.	.	4r	.	4r	.	.	4r	.	.	1r	.	1r	.	1r	.	1r	1r
.	.	.	.	.	.	.	.	.	.	.	.	.	.	2fn	ti-	2a	ti-	.	2dd	ti-	.	.	.	.	.	.	.	.	.
2r	.	.	2r	.	2r	.	2r	.	.	.	.	.	.	.	.	.	.	.	.	.	.	.	.	.	.	.	.	.	.
.	.	.	.	.	.	.	.	.	.	.	.	.	.	4f	-bi	4a	-bi	.	4dd	-bi	.	.	.	.	.	.	.	.	.
!	!	!	!LO:LB:g=original	!	!	!	!	!	!	!	!	!	!	!LO:LB:g=original	!	!	!	!	!	!	!	!	!	!	!	!	!	!	!
=42	=42	=42	=42	=42	=42	=42	=42	=42	=42	=42	=42	=42	=42	=42	=42	=42	=42	=42	=42	=42	=42	=42	=42	=42	=42	=42	=42	=42	=42
1r	.	.	1r	.	1r	.	1r	.	1r	.	4r	.	.	4.e	of-	4.a	of-	.	4.dd	of-	.	1r	.	1r	.	1r	.	1r	1r
.	.	.	.	.	.	.	.	.	.	.	2cn	ti-	.	.	.	.	.	.	.	.	.	.	.	.	.	.	.	.	.
.	.	.	.	.	.	.	.	.	.	.	.	.	.	8e	-fe-	8g	-fe-	.	8cc#	-fe-	.	.	.	.	.	.	.	.	.
.	.	.	.	.	.	.	.	.	.	.	.	.	.	4e	-rent	4g	-rent	.	4cc#	-rent	.	.	.	.	.	.	.	.	.
.	.	.	.	.	.	.	.	.	.	.	4c	-bi	.	4r	.	4r	.	.	4r	.	.	.	.	.	.	.	.	.	.
!LO:LB:g=original	!	!	!	!	!	!	!	!	!	!	!	!	!	!	!	!	!	!	!LO:LB:g=original	!	!	!	!	!	!	!	!	!	!
=43	=43	=43	=43	=43	=43	=43	=43	=43	=43	=43	=43	=43	=43	=43	=43	=43	=43	=43	=43	=43	=43	=43	=43	=43	=43	=43	=43	=43	=43
2.Cn	.	.	2.Cn 2.c#	.	2.cn	.	2.cn	.	1r	.	4.cn	of-	.	4r	.	4r	.	.	4r	.	.	1r	.	1r	.	1r	.	1r	1r
.	.	.	.	.	.	.	.	.	.	.	.	.	.	2e	ti-	2g	ti-	.	2ccn	ti-	.	.	.	.	.	.	.	.	.
.	.	.	.	.	.	.	.	.	.	.	8C#	-fe-	.	.	.	.	.	.	.	.	.	.	.	.	.	.	.	.	.
.	.	.	.	.	.	.	.	.	.	.	4C#	-rent	.	.	.	.	.	.	.	.	.	.	.	.	.	.	.	.	.
4r	.	.	4r	.	4r	.	4r	.	.	.	4r	.	.	4e	-bi	4g	-bi	.	4cc	-bi	.	.	.	.	.	.	.	.	.
=44	=44	=44	=44	=44	=44	=44	=44	=44	=44	=44	=44	=44	=44	=44	=44	=44	=44	=44	=44	=44	=44	=44	=44	=44	=44	=44	=44	=44	=44
2r	.	.	2r	.	2r	.	2r	.	1r	.	2.D	ti-	.	4.fn	of-	4.fn	of-	.	4.ccn	of-	.	1r	.	1r	.	1r	.	1r	1r
.	.	.	.	.	.	.	.	.	.	.	.	.	.	8f	-fe-	8f	-fe-	.	8b-X	-fe-	.	.	.	.	.	.	.	.	.
4r	.	.	4r	.	4r	.	4r	.	.	.	.	.	.	4f	-rent	4f	-rent	.	4b-	-rent	.	.	.	.	.	.	.	.	.
4D	6-	.	4d	.	4fn	.	4b-/X	.	.	.	4D	-bi	.	4r	.	4r	.	.	4r	.	.	.	.	.	.	.	.	.	.
!	!	!	!	!	!	!	!	!	!	!	!LO:LB:g=original	!	!	!	!	!	!	!	!	!	!	!	!	!	!	!	!	!	!
=45	=45	=45	=45	=45	=45	=45	=45	=45	=45	=45	=45	=45	=45	=45	=45	=45	=45	=45	=45	=45	=45	=45	=45	=45	=45	=45	=45	=45	=45
4E	6 5-	.	4r	.	4r	.	4r	.	1r	.	2E	re-	.	2cn	re-	2g	re-	.	2b-X	re-	.	1r	.	1r	.	1r	.	1r	1r
4r	.	.	4cn	.	4g	.	4b-/X	.	.	.	.	.	.	.	.	.	.	.	.	.	.	.	.	.	.	.	.	.	.
4Fn	.	.	4r	.	4r	.	4r	.	.	.	2Fn	-ges	.	2c	-ges	2fn	-ges	.	2a	-ges	.	.	.	.	.	.	.	.	.
4r	.	.	4c	.	4fn	.	4a	.	.	.	.	.	.	.	.	.	.	.	.	.	.	.	.	.	.	.	.	.	.
!	!	!	!	!	!	!	!LO:LB:g=original	!	!	!	!	!	!	!	!	!LO:LB:g=original	!	!	!	!	!	!	!	!	!	!	!	!	!
=46	=46	=46	=46	=46	=46	=46	=46	=46	=46	=46	=46	=46	=46	=46	=46	=46	=46	=46	=46	=46	=46	=46	=46	=46	=46	=46	=46	=46	=46
4BB-X	6 5n	.	4B-X 4d	.	4r	.	4r	.	1r	.	2BB-X	mu-	.	2d	mu-	2fn	mu-	.	2.g/	mu-	.	1r	.	1r	.	1r	.	1r	1r
!	!	!	!LO:TX:a:t=sic!: brak pauz	!	!	!	!	!	!	!	!	!	!	!	!	!	!	!	!	!	!	!	!	!	!	!	!	!	!
4r	.	.	4ryy	.	4fn	.	4g	.	.	.	.	.	.	.	.	.	.	.	.	.	.	.	.	.	.	.	.	.	.
4Cn	-7	.	4cn	.	4r	.	4r	.	.	.	2Cn	-ne-	.	4cn	-ne-	2e	-ne-	.	.	.	.	.	.	.	.	.	.	.	.
4r	.	.	4ryy	.	4e	.	4g	.	.	.	.	.	.	4B-X	.	.	.	.	4g/	-ne-	.	.	.	.	.	.	.	.	.
!	!	!	!	!	!	!	!	!	!LO:LB:g=original	!	!	!	!	!	!	!	!	!	!	!	!	!	!	!	!	!	!	!	!
=47	=47	=47	=47	=47	=47	=47	=47	=47	=47	=47	=47	=47	=47	=47	=47	=47	=47	=47	=47	=47	=47	=47	=47	=47	=47	=47	=47	=47	=47
4Fn	n5	.	4Fn	.	8fnL	.	(<8aL	.	2ffn	.	2Fn	-ra	.	2A	-ra	2fn	-ra	.	2fn	-ra	.	1r	.	1r	.	1r	.	1r	1r
.	.	.	.	.	8cn	.	8cn)	.	.	.	.	.	.	.	.	.	.	.	.	.	.	.	.	.	.	.	.	.	.
4r	.	.	4r	.	8f	.	(<8a	.	.	.	.	.	.	.	.	.	.	.	.	.	.	.	.	.	.	.	.	.	.
.	.	.	.	.	8cJ	.	8cJ)	.	.	.	.	.	.	.	.	.	.	.	.	.	.	.	.	.	.	.	.	.	.
4F	.	.	4F	.	8fL	.	8aL	.	(>16ggLL	.	2r	.	.	2r	.	2r	.	.	2r	.	.	.	.	.	.	.	.	.	.
.	.	.	.	.	.	.	.	.	16ff	.	.	.	.	.	.	.	.	.	.	.	.	.	.	.	.	.	.	.	.
.	.	.	.	.	8c	.	8c	.	16ee	.	.	.	.	.	.	.	.	.	.	.	.	.	.	.	.	.	.	.	.
.	.	.	.	.	.	.	.	.	16ffJJ	.	.	.	.	.	.	.	.	.	.	.	.	.	.	.	.	.	.	.	.
4r	.	.	4r	.	8f	.	8a	.	16bb-XLL	.	.	.	.	.	.	.	.	.	.	.	.	.	.	.	.	.	.	.	.
.	.	.	.	.	.	.	.	.	16aa	.	.	.	.	.	.	.	.	.	.	.	.	.	.	.	.	.	.	.	.
.	.	.	.	.	8cJ	.	8cJ	.	16ddd	.	.	.	.	.	.	.	.	.	.	.	.	.	.	.	.	.	.	.	.
.	.	.	.	.	.	.	.	.	16cccnJJ)	.	.	.	.	.	.	.	.	.	.	.	.	.	.	.	.	.	.	.	.
!LO:LB:g=original	!	!	!	!	!LO:LB:g=original	!	!	!	!	!	!	!	!	!	!	!	!	!	!	!	!	!	!	!	!	!	!	!	!
=48	=48	=48	=48	=48	=48	=48	=48	=48	=48	=48	=48	=48	=48	=48	=48	=48	=48	=48	=48	=48	=48	=48	=48	=48	=48	=48	=48	=48	=48
4E	6n 5-	.	4E	.	8gL	.	(<8b-XL	.	(>4.cccn	.	1r	.	.	1r	.	1r	.	.	1r	.	.	1r	.	1r	.	1r	.	1r	1r
.	.	.	.	.	8cn	.	8cn)	.	.	.	.	.	.	.	.	.	.	.	.	.	.	.	.	.	.	.	.	.	.
4r	.	.	4r	.	8g	.	(<8b-	.	.	.	.	.	.	.	.	.	.	.	.	.	.	.	.	.	.	.	.	.	.
.	.	.	.	.	8cJ	.	8cJ)	.	8bb-X)	.	.	.	.	.	.	.	.	.	.	.	.	.	.	.	.	.	.	.	.
4E	.	.	4E	.	8gL	.	8b-L	.	12ggL	.	.	.	.	.	.	.	.	.	.	.	.	.	.	.	.	.	.	.	.
.	.	.	.	.	.	.	.	.	12aa	.	.	.	.	.	.	.	.	.	.	.	.	.	.	.	.	.	.	.	.
.	.	.	.	.	8c	.	8c	.	.	.	.	.	.	.	.	.	.	.	.	.	.	.	.	.	.	.	.	.	.
.	.	.	.	.	.	.	.	.	12bb-XJ	.	.	.	.	.	.	.	.	.	.	.	.	.	.	.	.	.	.	.	.
4r	.	.	4r	.	8g	.	8b-	.	12bb-L	.	.	.	.	.	.	.	.	.	.	.	.	.	.	.	.	.	.	.	.
.	.	.	.	.	.	.	.	.	12ccc	.	.	.	.	.	.	.	.	.	.	.	.	.	.	.	.	.	.	.	.
.	.	.	.	.	8cJ	.	8cJ	.	.	.	.	.	.	.	.	.	.	.	.	.	.	.	.	.	.	.	.	.	.
.	.	.	.	.	.	.	.	.	12dddJ	.	.	.	.	.	.	.	.	.	.	.	.	.	.	.	.	.	.	.	.
!	!	!	!	!	!	!	!	!	!	!	!	!	!	!LO:PB:g=original	!	!	!	!	!LO:LB:g=original	!	!	!	!	!	!	!	!	!	!
=49	=49	=49	=49	=49	=49	=49	=49	=49	=49	=49	=49	=49	=49	=49	=49	=49	=49	=49	=49	=49	=49	=49	=49	=49	=49	=49	=49	=49	=49
4Fn	n5	.	4Fn	.	(<8fnL	.	8aL	.	8cccnL	.	2FFn 2Fn	re-	.	2cn	re-	2a	re-	.	2ffn	re-	.	1r	.	1r	.	1r	.	1r	1r
.	.	.	.	.	8cn)	.	8cn	.	8aaJ	.	.	.	.	.	.	.	.	.	.	.	.	.	.	.	.	.	.	.	.
4r	.	.	4r	.	8f	.	8a	.	4.fffn	.	.	.	.	.	.	.	.	.	.	.	.	.	.	.	.	.	.	.	.
.	.	.	.	.	8cJ	.	8cJ	.	.	.	.	.	.	.	.	.	.	.	.	.	.	.	.	.	.	.	.	.	.
!	!	!	!	!	!	!	!	!	!	!	!LO:'ogonek po prawej stronie'	!	!	!	!	!	!	!	!	!	!	!	!	!	!	!	!	!	!
4BB-X	6 n5	.	4B-X	.	8B-XL	.	(<8dL	.	.	.	2BB-X 2B-X	-ges	.	2d	-ges	4fn	-ges	.	2dd	-ges	.	.	.	.	.	.	.	.	.
.	.	.	.	.	8d	.	8fn	.	8dddL	.	.	.	.	.	.	.	.	.	.	.	.	.	.	.	.	.	.	.	.
4r	.	.	4r	.	8B-	.	8d	.	8bb-X	.	.	.	.	.	.	4g	.	.	.	.	.	.	.	.	.	.	.	.	.
.	.	.	.	.	8dJ	.	8gJ)	.	8ggJ	.	.	.	.	.	.	.	.	.	.	.	.	.	.	.	.	.	.	.	.
!	!	!	!LO:LB:g=original	!	!	!	!LO:LB:g=original	!	!LO:LB:g=original	!	!	!	!	!	!	!	!	!	!	!	!	!	!	!	!	!	!	!	!
=50	=50	=50	=50	=50	=50	=50	=50	=50	=50	=50	=50	=50	=50	=50	=50	=50	=50	=50	=50	=50	=50	=50	=50	=50	=50	=50	=50	=50	=50
4Cn	6 n4	.	4cn	.	8fnL	.	(<8aL	.	8ffnL	.	2Cn 2cn	mu-	.	(>2.fn	mu-	2.a	mu-	.	2.ccn	mu-	.	1r	.	1r	.	1r	.	1r	1r
.	.	.	.	.	8cn	.	8cn)	.	8ccnJ	.	.	.	.	.	.	.	.	.	.	.	.	.	.	.	.	.	.	.	.
4r	.	.	4r	.	8f	.	(<8a	.	[4aa	.	.	.	.	.	.	.	.	.	.	.	.	.	.	.	.	.	.	.	.
.	.	.	.	.	8cJ	.	8cJ)	.	.	.	.	.	.	.	.	.	.	.	.	.	.	.	.	.	.	.	.	.	.
4C	7- 5 3	.	4c	.	8fL	.	(<8aL	.	(>12aaL]	.	2C	-ne-	.	.	.	.	.	.	.	.	.	.	.	.	.	.	.	.	.
.	.	.	.	.	.	.	.	.	12bb-X	.	.	.	.	.	.	.	.	.	.	.	.	.	.	.	.	.	.	.	.
.	.	.	.	.	8c	.	8c	.	.	.	.	.	.	.	.	.	.	.	.	.	.	.	.	.	.	.	.	.	.
.	.	.	.	.	.	.	.	.	12aaJ)	.	.	.	.	.	.	.	.	.	.	.	.	.	.	.	.	.	.	.	.
4r	.	.	4r	.	8e	.	8b-X	.	(>12ggL	.	.	.	.	4e)	-ne-	4g	-ne-	.	(>8ccL	-ne-	.	.	.	.	.	.	.	.	.
.	.	.	.	.	.	.	.	.	12aa	.	.	.	.	.	.	.	.	.	.	.	.	.	.	.	.	.	.	.	.
.	.	.	.	.	8cJ	.	8cJ)	.	.	.	.	.	.	.	.	.	.	.	8b-XJ)	.	.	.	.	.	.	.	.	.	.
.	.	.	.	.	.	.	.	.	12ggJ)	.	.	.	.	.	.	.	.	.	.	.	.	.	.	.	.	.	.	.	.
=51	=51	=51	=51	=51	=51	=51	=51	=51	=51	=51	=51	=51	=51	=51	=51	=51	=51	=51	=51	=51	=51	=51	=51	=51	=51	=51	=51	=51	=51
4Fn	n5	.	4Fn	.	(<8fnL	.	(<8aL	.	(>12ffnL	.	2Fn	-ra	.	2fn	-ra	2fn	-ra	.	2a	-ra	.	1r	.	1r	.	1r	.	1r	1r
.	.	.	.	.	.	.	.	.	12gg	.	.	.	.	.	.	.	.	.	.	.	.	.	.	.	.	.	.	.	.
.	.	.	.	.	8cn)	.	8cn)	.	.	.	.	.	.	.	.	.	.	.	.	.	.	.	.	.	.	.	.	.	.
.	.	.	.	.	.	.	.	.	12aaJ	.	.	.	.	.	.	.	.	.	.	.	.	.	.	.	.	.	.	.	.
4r	.	.	4r	.	(<8f	.	(<8a	.	12aaL	.	.	.	.	.	.	.	.	.	.	.	.	.	.	.	.	.	.	.	.
.	.	.	.	.	.	.	.	.	12bb-X	.	.	.	.	.	.	.	.	.	.	.	.	.	.	.	.	.	.	.	.
.	.	.	.	.	8cJ)	.	8cJ)	.	.	.	.	.	.	.	.	.	.	.	.	.	.	.	.	.	.	.	.	.	.
.	.	.	.	.	.	.	.	.	12cccnJ)	.	.	.	.	.	.	.	.	.	.	.	.	.	.	.	.	.	.	.	.
!	!	!	!	!	!LO:LB:g=original	!	!	!	!	!	!	!	!	!	!	!	!	!	!	!	!	!	!	!	!	!	!	!	!
4E	6 5-	.	4E	.	(<8gL	.	(<8b-XL	.	(>12cccL	.	2r	.	.	2r	.	2r	.	.	2r	.	.	.	.	.	.	.	.	.	.
.	.	.	.	.	.	.	.	.	12bbn	.	.	.	.	.	.	.	.	.	.	.	.	.	.	.	.	.	.	.	.
.	.	.	.	.	8c)	.	8c)	.	.	.	.	.	.	.	.	.	.	.	.	.	.	.	.	.	.	.	.	.	.
.	.	.	.	.	.	.	.	.	12bb-XJ	.	.	.	.	.	.	.	.	.	.	.	.	.	.	.	.	.	.	.	.
4r	.	.	4r	.	(<8g	.	(<8b-	.	12bb-L	.	.	.	.	.	.	.	.	.	.	.	.	.	.	.	.	.	.	.	.
.	.	.	.	.	.	.	.	.	12aa	.	.	.	.	.	.	.	.	.	.	.	.	.	.	.	.	.	.	.	.
.	.	.	.	.	8cJ)	.	8cJ)	.	.	.	.	.	.	.	.	.	.	.	.	.	.	.	.	.	.	.	.	.	.
.	.	.	.	.	.	.	.	.	12ggJ)	.	.	.	.	.	.	.	.	.	.	.	.	.	.	.	.	.	.	.	.
!LO:LB:g=original	!	!	!	!	!	!	!	!	!LO:LB:g=original	!	!	!	!	!	!	!	!	!	!	!	!	!	!	!	!	!	!	!	!
=52	=52	=52	=52	=52	=52	=52	=52	=52	=52	=52	=52	=52	=52	=52	=52	=52	=52	=52	=52	=52	=52	=52	=52	=52	=52	=52	=52	=52	=52
4Fn	5n	.	4Fn	.	(<8fnL	.	(<8aL	.	(>12ffnL	.	1r	.	.	1r	.	1r	.	.	1r	.	.	1r	.	1r	.	1r	.	1r	1r
.	.	.	.	.	.	.	.	.	12gg	.	.	.	.	.	.	.	.	.	.	.	.	.	.	.	.	.	.	.	.
.	.	.	.	.	8cn)	.	8cn)	.	.	.	.	.	.	.	.	.	.	.	.	.	.	.	.	.	.	.	.	.	.
.	.	.	.	.	.	.	.	.	12aaJ	.	.	.	.	.	.	.	.	.	.	.	.	.	.	.	.	.	.	.	.
4r	.	.	4r	.	(<8f	.	(<8a	.	12aaL	.	.	.	.	.	.	.	.	.	.	.	.	.	.	.	.	.	.	.	.
.	.	.	.	.	.	.	.	.	12bb-X	.	.	.	.	.	.	.	.	.	.	.	.	.	.	.	.	.	.	.	.
.	.	.	.	.	8cJ)	.	8cJ)	.	.	.	.	.	.	.	.	.	.	.	.	.	.	.	.	.	.	.	.	.	.
.	.	.	.	.	.	.	.	.	12cccnJ)	.	.	.	.	.	.	.	.	.	.	.	.	.	.	.	.	.	.	.	.
4E	6 5-	.	4E	.	(<8gL	.	(<8b-XL	.	(>12cccL	.	.	.	.	.	.	.	.	.	.	.	.	.	.	.	.	.	.	.	.
.	.	.	.	.	.	.	.	.	12bbn	.	.	.	.	.	.	.	.	.	.	.	.	.	.	.	.	.	.	.	.
.	.	.	.	.	8c)	.	8c)	.	.	.	.	.	.	.	.	.	.	.	.	.	.	.	.	.	.	.	.	.	.
.	.	.	.	.	.	.	.	.	12bb-XJ	.	.	.	.	.	.	.	.	.	.	.	.	.	.	.	.	.	.	.	.
4r	.	.	4r	.	(<8g	.	(<8b-	.	12bb-L	.	.	.	.	.	.	.	.	.	.	.	.	.	.	.	.	.	.	.	.
.	.	.	.	.	.	.	.	.	12aa	.	.	.	.	.	.	.	.	.	.	.	.	.	.	.	.	.	.	.	.
.	.	.	.	.	8cJ)	.	8cJ)	.	.	.	.	.	.	.	.	.	.	.	.	.	.	.	.	.	.	.	.	.	.
.	.	.	.	.	.	.	.	.	12ggJ)	.	.	.	.	.	.	.	.	.	.	.	.	.	.	.	.	.	.	.	.
!	!	!	!	!	!	!	!	!	!	!	!LO:PB:g=original	!	!	!	!	!LO:PB:g=original	!	!	!	!	!	!	!	!	!	!	!	!	!
=53	=53	=53	=53	=53	=53	=53	=53	=53	=53	=53	=53	=53	=53	=53	=53	=53	=53	=53	=53	=53	=53	=53	=53	=53	=53	=53	=53	=53	=53
2Fn	5n	.	2Fn	.	2fn	.	2a	.	4ffn	.	2r	.	.	2r	.	2r	.	.	2r	.	.	1r	.	1r	.	1r	.	1r	1r
.	.	.	.	.	.	.	.	.	(>12ff#XL	.	.	.	.	.	.	.	.	.	.	.	.	.	.	.	.	.	.	.	.
.	.	.	.	.	.	.	.	.	12gg	.	.	.	.	.	.	.	.	.	.	.	.	.	.	.	.	.	.	.	.
.	.	.	.	.	.	.	.	.	12gg#XJ)	.	.	.	.	.	.	.	.	.	.	.	.	.	.	.	.	.	.	.	.
2r	.	.	2r	.	2r	.	2r	.	4aa	.	2A	a	.	2A	a	2a	a	.	(>2a	a	.	.	.	.	.	.	.	.	.
.	.	.	.	.	.	.	.	.	4r	.	.	.	.	.	.	.	.	.	.	.	.	.	.	.	.	.	.	.	.
!	!	!	!LO:LB:g=original	!	!	!	!LO:LB:g=original	!	!	!	!	!	!	!	!	!	!	!	!	!	!	!	!	!	!	!	!	!	!
=54	=54	=54	=54	=54	=54	=54	=54	=54	=54	=54	=54	=54	=54	=54	=54	=54	=54	=54	=54	=54	=54	=54	=54	=54	=54	=54	=54	=54	=54
1r	.	.	1r	.	1r	.	1r	.	1r	.	2A	tem-	.	2A	tem-	2a	tem-	.	2a)	tem-	.	1r	.	1r	.	1r	.	1r	1r
.	.	.	.	.	.	.	.	.	.	.	2G#X	-plo	.	2G#X\	-plo	2g#X	-plo	.	2g#X	-plo	.	.	.	.	.	.	.	.	.
=55	=55	=55	=55	=55	=55	=55	=55	=55	=55	=55	=55	=55	=55	=55	=55	=55	=55	=55	=55	=55	=55	=55	=55	=55	=55	=55	=55	=55	=55
1r	.	.	1r	.	1r	.	1r	.	1r	.	4A	tu-	.	4A	tu-	4a	tu-	.	4a	tu-	.	1r	.	1r	.	1r	.	1r	1r
.	.	.	.	.	.	.	.	.	.	.	8.B-XL	.	.	8.B-XL	.	8.b-XL	o	.	8.b-XL	.	.	.	.	.	.	.	.	.	.
.	.	.	.	.	.	.	.	.	.	.	16AJk	.	.	16AJk	.	16aJk	.	.	16aJk	.	.	.	.	.	.	.	.	.	.
.	.	.	.	.	.	.	.	.	.	.	4A	-o	.	4A	-o	4a	.	.	4a	-o	.	.	.	.	.	.	.	.	.
.	.	.	.	.	.	.	.	.	.	.	8.GL	quod	.	8.GL\	quod	8.gL	quod	.	8.gL	quod	.	.	.	.	.	.	.	.	.
.	.	.	.	.	.	.	.	.	.	.	16FnJk	.	.	16FnJk	.	16fnJk	.	.	16f#Jk	.	.	.	.	.	.	.	.	.	.
!	!	!	!	!	!	!	!	!	!	!	!	!	!	!LO:LB:g=original	!	!	!	!	!LO:LB:g=original	!	!	!	!	!	!	!	!	!	!
=56	=56	=56	=56	=56	=56	=56	=56	=56	=56	=56	=56	=56	=56	=56	=56	=56	=56	=56	=56	=56	=56	=56	=56	=56	=56	=56	=56	=56	=56
1r	.	.	1r	.	1r	.	1r	.	1r	.	2Fn	est	.	2Fn	est	2f#	est	.	2fn	est	.	1r	.	1r	.	1r	.	1r	1r
.	.	.	.	.	.	.	.	.	.	.	4E	in	.	4E	in	4e	in	.	4e	in	.	.	.	.	.	.	.	.	.
.	.	.	.	.	.	.	.	.	.	.	8AL	Je-	.	8AL	Je-	8aL	Je-	.	8aL/	Je-	.	.	.	.	.	.	.	.	.
.	.	.	.	.	.	.	.	.	.	.	8GJ	.	.	8GJ	.	8gJ	.	.	8gJ	.	.	.	.	.	.	.	.	.	.
=57	=57	=57	=57	=57	=57	=57	=57	=57	=57	=57	=57	=57	=57	=57	=57	=57	=57	=57	=57	=57	=57	=57	=57	=57	=57	=57	=57	=57	=57
1r	.	.	1r	.	1r	.	1r	.	1r	.	(>2Fn	-ru-	.	2Fn	-ru-	2fn	-ru-	.	(>2fn	-ru-	.	1r	.	1r	.	1r	.	1r	1r
.	.	.	.	.	.	.	.	.	.	.	4.E	.	.	4.E	.	4.e	.	.	4.e	.	.	.	.	.	.	.	.	.	.
.	.	.	.	.	.	.	.	.	.	.	8D)	-sa-	.	8D	-sa-	8d	-sa-	.	8d)	-sa-	.	.	.	.	.	.	.	.	.
!	!	!	!	!	!	!	!	!	!LO:LB:g=original	!	!	!	!	!	!	!LO:LB:g=original	!	!	!	!	!	!	!	!	!	!	!	!	!
=58	=58	=58	=58	=58	=58	=58	=58	=58	=58	=58	=58	=58	=58	=58	=58	=58	=58	=58	=58	=58	=58	=58	=58	=58	=58	=58	=58	=58	=58
[1D	n	.	1d	.	1A	.	1fn	.	4r	.	2D	-lem	.	2D	-lem	2d	-lem	.	2d	-lem	.	1r	.	1r	.	1r	.	1r	1r
.	.	.	.	.	.	.	.	.	4dd	.	.	.	.	.	.	.	.	.	.	.	.	.	.	.	.	.	.	.	.
.	.	.	.	.	.	.	.	.	12ddL	.	2r	.	.	2r	.	2r	.	.	2r	.	.	.	.	.	.	.	.	.	.
.	.	.	.	.	.	.	.	.	12cc#X	.	.	.	.	.	.	.	.	.	.	.	.	.	.	.	.	.	.	.	.
.	.	.	.	.	.	.	.	.	12ddJ	.	.	.	.	.	.	.	.	.	.	.	.	.	.	.	.	.	.	.	.
.	.	.	.	.	.	.	.	.	(>12ffnL	.	.	.	.	.	.	.	.	.	.	.	.	.	.	.	.	.	.	.	.
.	.	.	.	.	.	.	.	.	12ee	.	.	.	.	.	.	.	.	.	.	.	.	.	.	.	.	.	.	.	.
.	.	.	.	.	.	.	.	.	12ddJ)	.	.	.	.	.	.	.	.	.	.	.	.	.	.	.	.	.	.	.	.
!	!	!	!	!	!	!	!	!	!	!	!LO:LB:g=original	!	!	!	!	!	!	!	!	!	!	!	!	!	!	!	!	!	!LO:LB:g=original
=59	=59	=59	=59	=59	=59	=59	=59	=59	=59	=59	=59	=59	=59	=59	=59	=59	=59	=59	=59	=59	=59	=59	=59	=59	=59	=59	=59	=59	=59
2D]	6- 4	.	2d	.	2B-X	.	2g	.	(>12eeL	.	1r	.	.	1r	.	1r	.	.	1r	.	.	2r	.	2r	.	2r	.	2r	2r
.	.	.	.	.	.	.	.	.	12dd	.	.	.	.	.	.	.	.	.	.	.	.	.	.	.	.	.	.	.	.
.	.	.	.	.	.	.	.	.	12eeJ	.	.	.	.	.	.	.	.	.	.	.	.	.	.	.	.	.	.	.	.
.	.	.	.	.	.	.	.	.	12ggL	.	.	.	.	.	.	.	.	.	.	.	.	.	.	.	.	.	.	.	.
.	.	.	.	.	.	.	.	.	12ffn	.	.	.	.	.	.	.	.	.	.	.	.	.	.	.	.	.	.	.	.
.	.	.	.	.	.	.	.	.	12eeJ)	.	.	.	.	.	.	.	.	.	.	.	.	.	.	.	.	.	.	.	.
2Cn	#4	.	2cn	.	2d	.	2f#X 2a	.	(>12ff#XL	.	.	.	.	.	.	.	.	.	.	.	.	4r	.	4r	.	4r	.	4r	4r
.	.	.	.	.	.	.	.	.	12ee	.	.	.	.	.	.	.	.	.	.	.	.	.	.	.	.	.	.	.	.
.	.	.	.	.	.	.	.	.	12ff#J	.	.	.	.	.	.	.	.	.	.	.	.	.	.	.	.	.	.	.	.
.	.	.	.	.	.	.	.	.	12aaL	.	.	.	.	.	.	.	.	.	.	.	.	4dd	.	4dd	.	4Cn	.	4f#	4a
.	.	.	.	.	.	.	.	.	12gg	.	.	.	.	.	.	.	.	.	.	.	.	.	.	.	.	.	.	.	.
.	.	.	.	.	.	.	.	.	12ff#J)	.	.	.	.	.	.	.	.	.	.	.	.	.	.	.	.	.	.	.	.
!	!	!	!	!	!	!	!	!	!	!	!	!	!	!	!	!	!	!	!	!	!	!	!	!	!	!	!	!LO:LB:g=original	!
=60	=60	=60	=60	=60	=60	=60	=60	=60	=60	=60	=60	=60	=60	=60	=60	=60	=60	=60	=60	=60	=60	=60	=60	=60	=60	=60	=60	=60	=60
4BB-X	6	.	4B-X	.	4d	.	4g	.	(>4gg	.	1r	.	.	1r	.	1r	.	.	1r	.	.	4r	.	4r	.	4r	.	4r	4r
4r	.	.	4r	.	4r	.	4r	.	2ddd	.	.	.	.	.	.	.	.	.	.	.	.	4dd	.	4dd	.	4BB-X	.	4d	4g
4BB-	#6	.	4B-	.	4d	.	4g#X	.	.	.	.	.	.	.	.	.	.	.	.	.	.	4r	.	4r	.	4r	.	4r	4r
4r	.	.	4r	.	4r	.	4r	.	4gg#X)	.	.	.	.	.	.	.	.	.	.	.	.	4dd	.	4dd	.	4BB-	.	4d	4g#
!LO:LB:g=original	!	!	!	!	!LO:LB:g=original	!	!	!	!LO:LB:g=original	!	!	!	!	!	!	!	!	!	!	!	!	!	!	!	!	!	!	!	!
=61	=61	=61	=61	=61	=61	=61	=61	=61	=61	=61	=61	=61	=61	=61	=61	=61	=61	=61	=61	=61	=61	=61	=61	=61	=61	=61	=61	=61	=61
!	!	!	!	!	!	!	!	!	!	!LO:DY:a	!	!	!	!	!	!	!	!	!	!	!	!	!	!	!	!	!	!	!
4AA	#	.	4A	.	4c# 4e#X	.	4a	.	4aa	.	1r	.	.	1r	.	1r	.	.	1r	.	.	4a	.	4ee	.	4AA	.	4c#	4a
4r	.	.	4r	.	4r	.	4r	.	2A	>	.	.	.	.	.	.	.	.	.	.	.	4r	.	4r	.	4r	.	4r	4r
2r	.	.	2r	.	2r	.	2r	.	.	.	.	.	.	.	.	.	.	.	.	.	.	2r	.	2r	.	2r	.	2r	2r
.	.	.	.	.	.	.	.	.	(>12eeL	]	.	.	.	.	.	.	.	.	.	.	.	.	.	.	.	.	.	.	.
.	.	.	.	.	.	.	.	.	12aa	.	.	.	.	.	.	.	.	.	.	.	.	.	.	.	.	.	.	.	.
.	.	.	.	.	.	.	.	.	12ggJ)	.	.	.	.	.	.	.	.	.	.	.	.	.	.	.	.	.	.	.	.
!	!	!	!LO:PB:g=original	!	!	!	!	!	!	!	!	!	!	!	!	!	!	!	!	!	!	!	!	!	!	!LO:LB:g=original	!	!	!
=62	=62	=62	=62	=62	=62	=62	=62	=62	=62	=62	=62	=62	=62	=62	=62	=62	=62	=62	=62	=62	=62	=62	=62	=62	=62	=62	=62	=62	=62
8DL	.	.	8dL	.	2d	.	2f#X	.	(>2ff#	.	1r	.	.	1r	.	1r	.	.	1r	.	.	1r	.	1r	.	1r	.	1r	1r
8D	.	.	8d	.	.	.	.	.	.	.	.	.	.	.	.	.	.	.	.	.	.	.	.	.	.	.	.	.	.
8D	.	.	8d	.	.	.	.	.	.	.	.	.	.	.	.	.	.	.	.	.	.	.	.	.	.	.	.	.	.
8DJ	.	.	8dJ	.	.	.	.	.	.	.	.	.	.	.	.	.	.	.	.	.	.	.	.	.	.	.	.	.	.
8DL	.	.	8dL	.	4e	.	4g	.	4gg	.	.	.	.	.	.	.	.	.	.	.	.	.	.	.	.	.	.	.	.
8D	.	.	8d	.	.	.	.	.	.	.	.	.	.	.	.	.	.	.	.	.	.	.	.	.	.	.	.	.	.
8D	.	.	8d	.	4e#X	.	4g#X	.	4gg#X)	.	.	.	.	.	.	.	.	.	.	.	.	.	.	.	.	.	.	.	.
8DJ	.	.	8dJ	.	.	.	.	.	.	.	.	.	.	.	.	.	.	.	.	.	.	.	.	.	.	.	.	.	.
=63	=63	=63	=63	=63	=63	=63	=63	=63	=63	=63	=63	=63	=63	=63	=63	=63	=63	=63	=63	=63	=63	=63	=63	=63	=63	=63	=63	=63	=63
8DL	.	.	8dL	.	4.f#	.	4.a	.	4.aa	.	1r	.	.	1r	.	1r	.	.	1r	.	.	1r	.	1r	.	1r	.	1r	1r
8D	.	.	8d	.	.	.	.	.	.	.	.	.	.	.	.	.	.	.	.	.	.	.	.	.	.	.	.	.	.
8D	.	.	8d	.	.	.	.	.	.	.	.	.	.	.	.	.	.	.	.	.	.	.	.	.	.	.	.	.	.
8DJ	.	.	8dJ	.	8g	.	8bn	.	8bb	.	.	.	.	.	.	.	.	.	.	.	.	.	.	.	.	.	.	.	.
!	!	!	!	!	!	!	!LO:LB:g=original	!	!	!	!	!	!	!	!	!	!	!	!	!	!	!	!	!	!	!	!	!	!
4D	.	.	4d	.	4f#	.	4a	.	4aa	.	.	.	.	.	.	.	.	.	.	.	.	.	.	.	.	.	.	.	.
4r	.	.	4r	.	(<12gL	.	(<12bL	.	(>12bbL	>	.	.	.	.	.	.	.	.	.	.	.	.	.	.	.	.	.	.	.
.	.	.	.	.	12f#	.	12a	.	12aa	.	.	.	.	.	.	.	.	.	.	.	.	.	.	.	.	.	.	.	.
.	.	.	.	.	12eJ)	.	12gJ)	.	12ggJ)	]	.	.	.	.	.	.	.	.	.	.	.	.	.	.	.	.	.	.	.
=64	=64	=64	=64	=64	=64	=64	=64	=64	=64	=64	=64	=64	=64	=64	=64	=64	=64	=64	=64	=64	=64	=64	=64	=64	=64	=64	=64	=64	=64
4D	.	.	4d	.	4d	.	4f#	.	4ff#	.	1r	.	.	1r	.	1r	.	.	1r	.	.	1r	.	1r	.	1r	.	1r	1r
4r	.	.	4r	.	(<12f#L	.	(<12aL	.	(>12aaL	>	.	.	.	.	.	.	.	.	.	.	.	.	.	.	.	.	.	.	.
.	.	.	.	.	12e	.	12g	.	12gg	.	.	.	.	.	.	.	.	.	.	.	.	.	.	.	.	.	.	.	.
.	.	.	.	.	12dJ)	.	12f#J)	.	12ff#J)	.	.	.	.	.	.	.	.	.	.	.	.	.	.	.	.	.	.	.	.
!	!	!	!	!	!	!	!	!	!LO:LB:g=original	!	!	!	!	!	!	!	!	!	!	!	!	!	!	!	!	!	!	!	!
4AA	.	.	4A	.	4c#	.	4e	.	4ee	]	.	.	.	.	.	.	.	.	.	.	.	.	.	.	.	.	.	.	.
4r	.	.	4r	.	(<12eL	.	(<12gL	.	(>12ggL	>	.	.	.	.	.	.	.	.	.	.	.	.	.	.	.	.	.	.	.
.	.	.	.	.	12d	.	12f#	.	12ff#	.	.	.	.	.	.	.	.	.	.	.	.	.	.	.	.	.	.	.	.
.	.	.	.	.	12c#J)	.	12eJ)	.	12eeJ)	]]	.	.	.	.	.	.	.	.	.	.	.	.	.	.	.	.	.	.	.
!LO:LB:g=original	!	!	!	!	!	!	!	!	!	!	!	!	!	!	!	!	!	!	!	!	!	!	!	!	!	!	!	!	!
=65	=65	=65	=65	=65	=65	=65	=65	=65	=65	=65	=65	=65	=65	=65	=65	=65	=65	=65	=65	=65	=65	=65	=65	=65	=65	=65	=65	=65	=65
4DD	.	.	4D	.	8dL	.	8f#L	.	(>8ddL	]	2r	.	.	2r	.	2r	.	.	2r	.	.	1r	.	1r	.	1r	.	1r	1r
.	.	.	.	.	8A	.	8A	.	16ggL	.	.	.	.	.	.	.	.	.	.	.	.	.	.	.	.	.	.	.	.
.	.	.	.	.	.	.	.	.	16ff#JJ	.	.	.	.	.	.	.	.	.	.	.	.	.	.	.	.	.	.	.	.
4r	.	.	4r	.	8d	.	8f#	.	16eeLL	.	.	.	.	.	.	.	.	.	.	.	.	.	.	.	.	.	.	.	.
.	.	.	.	.	.	.	.	.	16dd	.	.	.	.	.	.	.	.	.	.	.	.	.	.	.	.	.	.	.	.
.	.	.	.	.	8AJ	.	8AJ	.	16cc#	.	.	.	.	.	.	.	.	.	.	.	.	.	.	.	.	.	.	.	.
.	.	.	.	.	.	.	.	.	16bJJ)	.	.	.	.	.	.	.	.	.	.	.	.	.	.	.	.	.	.	.	.
!	!	!	!	!	!LO:LB:g=original	!	!	!	!	!	!	!	!	!	!	!	!	!	!	!	!	!	!	!	!	!	!	!	!
4D	.	.	4d	.	8dL	.	8f#L	.	4a	.	4r	.	.	4r	.	4r	.	.	4r	.	.	.	.	.	.	.	.	.	.
.	.	.	.	.	8A	.	8A	.	.	.	.	.	.	.	.	.	.	.	.	.	.	.	.	.	.	.	.	.	.
4r	.	.	4r	.	8d	.	8f#	.	4r	.	4D	con-	.	4d	con-	4d	con-	.	4f#	con-	.	.	.	.	.	.	.	.	.
.	.	.	.	.	8AJ	.	8AJ	.	.	.	.	.	.	.	.	.	.	.	.	.	.	.	.	.	.	.	.	.	.
!	!	!	!LO:LB:g=original	!	!	!	!	!	!	!	!	!	!	!	!	!	!	!	!	!	!	!	!	!	!	!	!	!	!
=66	=66	=66	=66	=66	=66	=66	=66	=66	=66	=66	=66	=66	=66	=66	=66	=66	=66	=66	=66	=66	=66	=66	=66	=66	=66	=66	=66	=66	=66
8DL	.	.	8dL	.	2d	.	2f#	.	1r	.	2D	-fir-	.	2d	-fir-	2d	-fir-	.	2f#	-fir-	.	1r	.	1r	.	1r	.	1r	1r
8D	.	.	8d	.	.	.	.	.	.	.	.	.	.	.	.	.	.	.	.	.	.	.	.	.	.	.	.	.	.
8D	.	.	8d	.	.	.	.	.	.	.	.	.	.	.	.	.	.	.	.	.	.	.	.	.	.	.	.	.	.
8DJ	.	.	8dJ	.	.	.	.	.	.	.	.	.	.	.	.	.	.	.	.	.	.	.	.	.	.	.	.	.	.
8DL	4 2	.	8dL	.	4e	.	4g	.	.	.	4D	-ma	.	4d	-ma	4e	-ma	.	4g/	-ma	.	.	.	.	.	.	.	.	.
8D	.	.	8d	.	.	.	.	.	.	.	.	.	.	.	.	.	.	.	.	.	.	.	.	.	.	.	.	.	.
8D	4# 2#	.	8d	.	4e#X	.	4g#X	.	.	.	4D	hoc	.	4d	hoc	4e#X	hoc	.	4g#/X	hoc	.	.	.	.	.	.	.	.	.
8DJ	.	.	8dJ	.	.	.	.	.	.	.	.	.	.	.	.	.	.	.	.	.	.	.	.	.	.	.	.	.	.
!	!	!	!	!	!	!	!	!	!LO:PB:g=original	!	!	!	!	!	!	!	!	!	!	!	!	!	!	!	!	!	!	!	!
=67	=67	=67	=67	=67	=67	=67	=67	=67	=67	=67	=67	=67	=67	=67	=67	=67	=67	=67	=67	=67	=67	=67	=67	=67	=67	=67	=67	=67	=67
8DL	5 3	.	8dL	.	4.f#	.	4.a	.	2ddd	.	2D	De-	.	2d	De-	(>4.f#	De	.	(>4.a	De-	.	1r	.	1r	.	1r	.	1r	1r
8D	.	.	8d	.	.	.	.	.	.	.	.	.	.	.	.	.	.	.	.	.	.	.	.	.	.	.	.	.	.
8D	.	.	8d	.	.	.	.	.	.	.	.	.	.	.	.	.	.	.	.	.	.	.	.	.	.	.	.	.	.
8DJ	6 4	.	8dJ	.	8g	.	8b/	.	.	.	.	.	.	.	.	8g)	.	.	8b)	.	.	.	.	.	.	.	.	.	.
4D	5 3	.	4d	.	4f#	.	4a	.	(>16dddLL	.	4D	-us	.	4d	-us	4f#	-us	.	4a	-us	.	.	.	.	.	.	.	.	.
.	.	.	.	.	.	.	.	.	16ccc#	.	.	.	.	.	.	.	.	.	.	.	.	.	.	.	.	.	.	.	.
.	.	.	.	.	.	.	.	.	16bb	.	.	.	.	.	.	.	.	.	.	.	.	.	.	.	.	.	.	.	.
.	.	.	.	.	.	.	.	.	16aaJJ	.	.	.	.	.	.	.	.	.	.	.	.	.	.	.	.	.	.	.	.
4r	.	.	4r	.	4r	.	4r	.	16fff#LL	.	4D	con-	.	4d	con-	4f#	con-	.	4a	con-	.	.	.	.	.	.	.	.	.
.	.	.	.	.	.	.	.	.	16ccc#	.	.	.	.	.	.	.	.	.	.	.	.	.	.	.	.	.	.	.	.
.	.	.	.	.	.	.	.	.	16ddd	.	.	.	.	.	.	.	.	.	.	.	.	.	.	.	.	.	.	.	.
.	.	.	.	.	.	.	.	.	16bbJJ)	.	.	.	.	.	.	.	.	.	.	.	.	.	.	.	.	.	.	.	.
!	!	!	!	!	!	!	!LO:PB:g=original	!	!	!	!	!	!	!LO:LB:g=original	!	!	!	!	!LO:LB:g=original	!	!	!	!	!	!	!	!	!	!
=68	=68	=68	=68	=68	=68	=68	=68	=68	=68	=68	=68	=68	=68	=68	=68	=68	=68	=68	=68	=68	=68	=68	=68	=68	=68	=68	=68	=68	=68
4C#\	6 5	.	4c#	.	8eL	.	8gL	.	4.aa	.	2C#	-fir-	.	2e	-fir-	2g	-fir-	.	2a	-fir-	.	1r	.	1r	.	1r	.	1r	1r
.	.	.	.	.	8A	.	8A	.	.	.	.	.	.	.	.	.	.	.	.	.	.	.	.	.	.	.	.	.	.
4E	.	.	4e	.	8e	.	8g	.	.	.	.	.	.	.	.	.	.	.	.	.	.	.	.	.	.	.	.	.	.
.	.	.	.	.	8AJ	.	8AJ	.	8bb	.	.	.	.	.	.	.	.	.	.	.	.	.	.	.	.	.	.	.	.
4AA	.	.	4A	.	8eL	.	8gL	.	4aa	.	4C#	-ma	.	4e	-ma	4g	-ma	.	4a	-ma	.	.	.	.	.	.	.	.	.
.	.	.	.	.	8A	.	8A	.	.	.	.	.	.	.	.	.	.	.	.	.	.	.	.	.	.	.	.	.	.
4C#	.	.	4c#	.	8e	.	8g	.	4r	.	4C#	hoc	.	4e	hoc	4g	hoc	.	4a	hoc	.	.	.	.	.	.	.	.	.
.	.	.	.	.	8AJ	.	8AJ	.	.	.	.	.	.	.	.	.	.	.	.	.	.	.	.	.	.	.	.	.	.
!LO:LB:g=original	!	!	!	!	!	!	!	!	!	!	!	!	!	!	!	!	!	!	!	!	!	!	!	!	!	!	!	!	!
=69	=69	=69	=69	=69	=69	=69	=69	=69	=69	=69	=69	=69	=69	=69	=69	=69	=69	=69	=69	=69	=69	=69	=69	=69	=69	=69	=69	=69	=69
8DL	.	.	8dL	.	4.f#	.	(<4.a	.	(>2ddd	.	2D	De-	.	2d	De-	(>4.f#	De-	.	(>4.a	De-	.	1r	.	1r	.	1r	.	1r	1r
8D	.	.	8d	.	.	.	.	.	.	.	.	.	.	.	.	.	.	.	.	.	.	.	.	.	.	.	.	.	.
8D	6 4	.	8d	.	.	.	.	.	.	.	.	.	.	.	.	.	.	.	.	.	.	.	.	.	.	.	.	.	.
8DJ	.	.	8dJ	.	8g	.	8b/	.	.	.	.	.	.	.	.	8g)	.	.	8b)	.	.	.	.	.	.	.	.	.	.
4D	5 3	.	4d	.	4f#	.	4a)	.	16dddLL	.	4D	-us	.	4d	-us	4f#	-us	.	4a	-us	.	.	.	.	.	.	.	.	.
.	.	.	.	.	.	.	.	.	16ccc#	.	.	.	.	.	.	.	.	.	.	.	.	.	.	.	.	.	.	.	.
.	.	.	.	.	.	.	.	.	16bb	.	.	.	.	.	.	.	.	.	.	.	.	.	.	.	.	.	.	.	.
.	.	.	.	.	.	.	.	.	16aaJJ	.	.	.	.	.	.	.	.	.	.	.	.	.	.	.	.	.	.	.	.
4r	.	.	4r	.	4r	.	4r	.	16fff#LL	.	4D	con-	.	4d	con-	4f#	con-	.	4a	con-	.	.	.	.	.	.	.	.	.
.	.	.	.	.	.	.	.	.	16ccc#	.	.	.	.	.	.	.	.	.	.	.	.	.	.	.	.	.	.	.	.
.	.	.	.	.	.	.	.	.	16ddd	.	.	.	.	.	.	.	.	.	.	.	.	.	.	.	.	.	.	.	.
.	.	.	.	.	.	.	.	.	16bbJJ)	.	.	.	.	.	.	.	.	.	.	.	.	.	.	.	.	.	.	.	.
!	!	!	!LO:LB:g=original	!	!LO:PB:g=original	!	!	!	!LO:LB:g=original	!	!	!	!	!	!	!LO:LB:g=original	!	!	!	!	!	!LO:PB:g=original	!	!LO:PB:g=original	!	!	!	!LO:LB:g=original	!LO:PB:g=original
=70	=70	=70	=70	=70	=70	=70	=70	=70	=70	=70	=70	=70	=70	=70	=70	=70	=70	=70	=70	=70	=70	=70	=70	=70	=70	=70	=70	=70	=70
4C#\	6 5	.	4c#	.	8eL	.	(<8gL	.	4.aa	.	2C#	-fir-	.	2e	-fir-	2g	-fir-	.	2a	-fir-	.	1a	.	1ee	.	1C#	.	1g	1a
.	.	.	.	.	8A	.	8A)	.	.	.	.	.	.	.	.	.	.	.	.	.	.	.	.	.	.	.	.	.	.
4E	.	.	4e	.	8e	.	(<8g	.	.	.	.	.	.	.	.	.	.	.	.	.	.	.	.	.	.	.	.	.	.
.	.	.	.	.	8AJ	.	8AJ)	.	8bb	.	.	.	.	.	.	.	.	.	.	.	.	.	.	.	.	.	.	.	.
4AA\	.	.	4A	.	8eL	.	8gL	.	4aa	.	4C#	-ma	.	4e	-ma	4g	-ma	.	4a	-ma	.	.	.	.	.	.	.	.	.
.	.	.	.	.	8A	.	8A	.	.	.	.	.	.	.	.	.	.	.	.	.	.	.	.	.	.	.	.	.	.
4C#\	.	.	4c#	.	8e	.	8g	.	4r	.	4C#	hoc	.	4e	hoc	4g	hoc	.	4a	hoc	.	.	.	.	.	.	.	.	.
.	.	.	.	.	8AJ	.	8AJ	.	.	.	.	.	.	.	.	.	.	.	.	.	.	.	.	.	.	.	.	.	.
!	!	!	!	!	!	!	!	!	!	!	!LO:LB:g=original	!	!	!	!	!	!	!	!	!	!	!	!	!	!	!	!	!	!
=71	=71	=71	=71	=71	=71	=71	=71	=71	=71	=71	=71	=71	=71	=71	=71	=71	=71	=71	=71	=71	=71	=71	=71	=71	=71	=71	=71	=71	=71
!	!	!	!	!	!	!	!	!	!	!	!	!	!	!	!	!	!	!	!	!	!	!	!	!	!	!	!	!	!LO:'ogonek po prawej stronie'
4D	.	.	4d	.	8dL	.	(<8f#L	.	(>4.ff#	.	2D	De-	.	2d	De-	2f#	De-	.	2a	De-	.	1dd	.	1ff#	.	1D	.	1f#	2.a/
.	.	.	.	.	8A	.	8A)	.	.	.	.	.	.	.	.	.	.	.	.	.	.	.	.	.	.	.	.	.	.
4F#	.	.	4f#	.	8d	.	(<8f#	.	.	.	.	.	.	.	.	.	.	.	.	.	.	.	.	.	.	.	.	.	.
.	.	.	.	.	8AJ	.	8AJ)	.	16aaLL	.	.	.	.	.	.	.	.	.	.	.	.	.	.	.	.	.	.	.	.
.	.	.	.	.	.	.	.	.	16ggJJ)	.	.	.	.	.	.	.	.	.	.	.	.	.	.	.	.	.	.	.	.
4AA\	.	.	4A	.	8dL	.	8f#L	.	12ff#L	.	4D	-us	.	4d	-us	4f#	-us	.	4a	-us	.	.	.	.	.	.	.	.	.
.	.	.	.	.	.	.	.	.	12gg	.	.	.	.	.	.	.	.	.	.	.	.	.	.	.	.	.	.	.	.
.	.	.	.	.	8A	.	8A	.	.	.	.	.	.	.	.	.	.	.	.	.	.	.	.	.	.	.	.	.	.
.	.	.	.	.	.	.	.	.	12aaJ	.	.	.	.	.	.	.	.	.	.	.	.	.	.	.	.	.	.	.	.
4D	.	.	4d	.	8d	.	8f#	.	12bbL	.	4D	quod	.	4A	quod	4f#	quod	.	4dd	quod	.	.	.	.	.	.	.	.	[>4dd/
.	.	.	.	.	.	.	.	.	(>12ccc#	.	.	.	.	.	.	.	.	.	.	.	.	.	.	.	.	.	.	.	.
.	.	.	.	.	8AJ	.	8AJ	.	.	.	.	.	.	.	.	.	.	.	.	.	.	.	.	.	.	.	.	.	.
.	.	.	.	.	.	.	.	.	12dddJ	.	.	.	.	.	.	.	.	.	.	.	.	.	.	.	.	.	.	.	.
!	!	!	!	!	!	!	!LO:LB:g=original	!	!	!	!	!	!	!	!	!	!	!	!	!	!	!	!	!	!	!	!	!	!
=72	=72	=72	=72	=72	=72	=72	=72	=72	=72	=72	=72	=72	=72	=72	=72	=72	=72	=72	=72	=72	=72	=72	=72	=72	=72	=72	=72	=72	=72
4E	7	.	4e	.	8dL	.	8gL	.	4ddd)	.	4E	o-	.	4G\	o-	4g	o-	.	4dd	o-	.	1ee	.	1gg	.	1E	.	1g	4dd/]
.	.	.	.	.	8A	.	8A	.	.	.	.	.	.	.	.	.	.	.	.	.	.	.	.	.	.	.	.	.	.
4G	#4	.	4g	.	8c#	.	8g	.	2ccc#	.	4E	-pe-	.	4G\	-pe-	4g	-pe-	.	4cc#	-pe-	.	.	.	.	.	.	.	.	2.cc#/
.	.	.	.	.	8AJ	.	8AJ	.	.	.	.	.	.	.	.	.	.	.	.	.	.	.	.	.	.	.	.	.	.
4AA\	.	.	4A	.	8c#L	.	8gL	.	.	.	4E	-ra-	.	4G\	-ra-	4g	-ra-	.	4cc#	-ra-	.	.	.	.	.	.	.	.	.
.	.	.	.	.	8A	.	8A	.	.	.	.	.	.	.	.	.	.	.	.	.	.	.	.	.	.	.	.	.	.
4E	.	.	4e	.	8c#	.	8g	.	(>12gggL	.	4E	-tus	.	4A	-tus	4g	-tus	.	4cc#	-tus	.	.	.	.	.	.	.	.	.
.	.	.	.	.	.	.	.	.	12eee	.	.	.	.	.	.	.	.	.	.	.	.	.	.	.	.	.	.	.	.
.	.	.	.	.	8AJ	.	8AJ	.	.	.	.	.	.	.	.	.	.	.	.	.	.	.	.	.	.	.	.	.	.
.	.	.	.	.	.	.	.	.	12ccc#J)	.	.	.	.	.	.	.	.	.	.	.	.	.	.	.	.	.	.	.	.
!LO:PB:g=original	!	!	!	!	!	!	!	!	!LO:LB:g=original	!	!	!	!	!	!	!	!	!	!	!	!	!	!	!	!	!	!	!	!
=73	=73	=73	=73	=73	=73	=73	=73	=73	=73	=73	=73	=73	=73	=73	=73	=73	=73	=73	=73	=73	=73	=73	=73	=73	=73	=73	=73	=73	=73
4F#	6	.	4f#	.	8dL	.	(<8aL	.	4ddd	.	2.F#	es	.	2.A	es	2.a	es	.	2.dd	es	.	1ff#	.	1aa	.	1F#	.	1a	1dd
.	.	.	.	.	8A	.	8A)	.	.	.	.	.	.	.	.	.	.	.	.	.	.	.	.	.	.	.	.	.	.
4A	.	.	4A	.	8d	.	(<8a	.	2d	.	.	.	.	.	.	.	.	.	.	.	.	.	.	.	.	.	.	.	.
.	.	.	.	.	8AJ	.	8AJ)	.	.	.	.	.	.	.	.	.	.	.	.	.	.	.	.	.	.	.	.	.	.
!	!	!	!	!	!LO:LB:g=original	!	!	!	!	!	!	!	!	!	!	!	!	!	!	!	!	!	!	!	!	!	!	!	!
4D	.	.	4D	.	8dL	.	(<8aL	.	.	.	.	.	.	.	.	.	.	.	.	.	.	.	.	.	.	.	.	.	.
.	.	.	.	.	8A	.	8A)	.	.	.	.	.	.	.	.	.	.	.	.	.	.	.	.	.	.	.	.	.	.
4F#	.	.	4F#	.	8d	.	(<8a	.	(>12fff#L	.	4F#	in	.	4d	in	4a	in	.	4dd	in	.	.	.	.	.	.	.	.	.
.	.	.	.	.	.	.	.	.	12eee	.	.	.	.	.	.	.	.	.	.	.	.	.	.	.	.	.	.	.	.
.	.	.	.	.	8AJ	.	8AJ)	.	.	.	.	.	.	.	.	.	.	.	.	.	.	.	.	.	.	.	.	.	.
.	.	.	.	.	.	.	.	.	12dddJ)	.	.	.	.	.	.	.	.	.	.	.	.	.	.	.	.	.	.	.	.
!	!	!	!LO:LB:g=original	!	!	!	!	!	!	!	!	!	!	!LO:LB:g=original	!	!	!	!	!	!	!	!	!	!	!	!	!	!	!
=74	=74	=74	=74	=74	=74	=74	=74	=74	=74	=74	=74	=74	=74	=74	=74	=74	=74	=74	=74	=74	=74	=74	=74	=74	=74	=74	=74	=74	=74
4G	6	.	4G	.	8dL	.	(<8bL	.	(>8ccc#L	.	2G	no-	.	2d	no-	2g	no-	.	2b	no-	.	2dd	.	2dd	.	1G	.	1b	2dd
.	.	.	.	.	8B	.	8g)	.	8bb	.	.	.	.	.	.	.	.	.	.	.	.	.	.	.	.	.	.	.	.
4B	.	.	4B	.	8d	.	(<8b	.	8aa#X	.	.	.	.	.	.	.	.	.	.	.	.	.	.	.	.	.	.	.	.
.	.	.	.	.	8BJ	.	8gJ)	.	8bbJ)	.	.	.	.	.	.	.	.	.	.	.	.	.	.	.	.	.	.	.	.
4E	.	.	4E	.	8eL	.	(<8bL	.	8gggL	.	4G	-bis	.	4d	-bis	4g	-bis	.	4b	-bis	.	2dd	.	2ee	.	.	.	.	2ee
.	.	.	.	.	8B	.	8g)	.	8bb	.	.	.	.	.	.	.	.	.	.	.	.	.	.	.	.	.	.	.	.
4G	.	.	4G	.	8e	.	(<8b	.	8fff#	.	4G	quod	.	4d	quod	4b	quod	.	4ee	quod	.	.	.	.	.	.	.	.	.
.	.	.	.	.	8BJ	.	8gJ)	.	8eeeJ	.	.	.	.	.	.	.	.	.	.	.	.	.	.	.	.	.	.	.	.
!	!	!	!	!	!	!	!	!	!	!	!	!	!	!	!	!	!	!	!LO:LB:g=original	!	!	!	!	!	!	!	!	!	!
=75	=75	=75	=75	=75	=75	=75	=75	=75	=75	=75	=75	=75	=75	=75	=75	=75	=75	=75	=75	=75	=75	=75	=75	=75	=75	=75	=75	=75	=75
4A	6 4	.	4A	.	8dL	.	(<8f#L	.	12dddL	.	4A	o-	.	4d	o-	4a	o-	.	4ff#	o-	.	1dd	.	1ff#	.	1A	.	2a	1ff#
.	.	.	.	.	.	.	.	.	12fff#	.	.	.	.	.	.	.	.	.	.	.	.	.	.	.	.	.	.	.	.
.	.	.	.	.	8f#	.	8a)	.	.	.	.	.	.	.	.	.	.	.	.	.	.	.	.	.	.	.	.	.	.
.	.	.	.	.	.	.	.	.	12eeeJ	.	.	.	.	.	.	.	.	.	.	.	.	.	.	.	.	.	.	.	.
4D	.	.	4d	.	8d	.	(<8f#	.	12dddL	.	4A	-pe-	.	4A	-pe-	4f#	-pe-	.	4dd	-pe-	.	.	.	.	.	.	.	.	.
.	.	.	.	.	.	.	.	.	12ccc#	.	.	.	.	.	.	.	.	.	.	.	.	.	.	.	.	.	.	.	.
.	.	.	.	.	8f#J	.	8aJ)	.	.	.	.	.	.	.	.	.	.	.	.	.	.	.	.	.	.	.	.	.	.
.	.	.	.	.	.	.	.	.	12bbJ	.	.	.	.	.	.	.	.	.	.	.	.	.	.	.	.	.	.	.	.
!	!	!	!	!	!	!	!LO:LB:g=original	!	!	!	!	!	!	!	!	!	!	!	!	!	!	!	!	!	!	!	!	!	!
4F#	.	.	4f#	.	8dL	.	(<8f#L	.	12aaL	.	4A	-ra-	.	4A	-ra-	4f#	-ra-	.	4dd	-ra-	.	.	.	.	.	.	.	2dd	.
.	.	.	.	.	.	.	.	.	12bb	.	.	.	.	.	.	.	.	.	.	.	.	.	.	.	.	.	.	.	.
.	.	.	.	.	8f#	.	8a)	.	.	.	.	.	.	.	.	.	.	.	.	.	.	.	.	.	.	.	.	.	.
.	.	.	.	.	.	.	.	.	12aaJ	.	.	.	.	.	.	.	.	.	.	.	.	.	.	.	.	.	.	.	.
4D	.	.	4d	.	8d	.	(<8f#	.	12bbL	.	4A	-tus	.	4A	-tus	4f#	-tus	.	4dd	-tus	.	.	.	.	.	.	.	.	.
.	.	.	.	.	.	.	.	.	12bb	.	.	.	.	.	.	.	.	.	.	.	.	.	.	.	.	.	.	.	.
.	.	.	.	.	8f#J	.	8aJ)	.	.	.	.	.	.	.	.	.	.	.	.	.	.	.	.	.	.	.	.	.	.
.	.	.	.	.	.	.	.	.	12aaJ	.	.	.	.	.	.	.	.	.	.	.	.	.	.	.	.	.	.	.	.
!	!	!	!	!	!	!	!	!	!LO:LB:g=original	!	!	!	!	!	!	!	!	!	!	!	!	!	!	!	!	!	!	!	!
=76	=76	=76	=76	=76	=76	=76	=76	=76	=76	=76	=76	=76	=76	=76	=76	=76	=76	=76	=76	=76	=76	=76	=76	=76	=76	=76	=76	=76	=76
4AA	4	.	4A	.	8dL	.	(<8eL	.	(>12aaL	.	2A	es	.	2A	es	2e	es	.	2dd	es	.	2dd	.	1ee	.	1AA	.	2dd	1ee
.	.	.	.	.	.	.	.	.	12bb	.	.	.	.	.	.	.	.	.	.	.	.	.	.	.	.	.	.	.	.
.	.	.	.	.	8e	.	8a)	.	.	.	.	.	.	.	.	.	.	.	.	.	.	.	.	.	.	.	.	.	.
.	.	.	.	.	.	.	.	.	12aaJ	.	.	.	.	.	.	.	.	.	.	.	.	.	.	.	.	.	.	.	.
4A	.	.	4a	.	8d	.	8e	.	12aaL	.	.	.	.	.	.	.	.	.	.	.	.	.	.	.	.	.	.	.	.
.	.	.	.	.	.	.	.	.	12bb	.	.	.	.	.	.	.	.	.	.	.	.	.	.	.	.	.	.	.	.
.	.	.	.	.	8eJ	.	8aJ	.	.	.	.	.	.	.	.	.	.	.	.	.	.	.	.	.	.	.	.	.	.
.	.	.	.	.	.	.	.	.	12aaJ	.	.	.	.	.	.	.	.	.	.	.	.	.	.	.	.	.	.	.	.
4AA	3	.	4A	.	8c#L	.	(<8gL	.	12aaL	.	2AA	in	.	2A	in	2e	in	.	2cc#	in	.	2a	.	.	.	.	.	2cc#	.
.	.	.	.	.	.	.	.	.	12bb	.	.	.	.	.	.	.	.	.	.	.	.	.	.	.	.	.	.	.	.
.	.	.	.	.	8e	.	8a)	.	.	.	.	.	.	.	.	.	.	.	.	.	.	.	.	.	.	.	.	.	.
.	.	.	.	.	.	.	.	.	12aaJ	.	.	.	.	.	.	.	.	.	.	.	.	.	.	.	.	.	.	.	.
4A	.	.	4a	.	8c#	.	8g	.	12ggL	.	.	.	.	.	.	.	.	.	.	.	.	.	.	.	.	.	.	.	.
.	.	.	.	.	.	.	.	.	12ff#	.	.	.	.	.	.	.	.	.	.	.	.	.	.	.	.	.	.	.	.
.	.	.	.	.	8eJ	.	8aJ	.	.	.	.	.	.	.	.	.	.	.	.	.	.	.	.	.	.	.	.	.	.
.	.	.	.	.	.	.	.	.	12eeJ)	.	.	.	.	.	.	.	.	.	.	.	.	.	.	.	.	.	.	.	.
!	!	!	!	!	!LO:LB:g=original	!	!	!	!	!	!LO:LB:g=original	!	!	!	!	!LO:LB:g=original	!	!	!	!	!	!	!	!	!	!	!	!	!
=77	=77	=77	=77	=77	=77	=77	=77	=77	=77	=77	=77	=77	=77	=77	=77	=77	=77	=77	=77	=77	=77	=77	=77	=77	=77	=77	=77	=77	=77
8DL	.	.	8dL	.	8dL	.	12f#L	.	4dd	.	2D	no-	.	2G\	no-	2f#	no-	.	2dd	no-	.	2dd	.	2ff#	.	2D	.	2dd	2ff#
.	.	.	.	.	.	.	12a	.	.	.	.	.	.	.	.	.	.	.	.	.	.	.	.	.	.	.	.	.	.
8D	.	.	8d	.	8f#	.	.	.	.	.	.	.	.	.	.	.	.	.	.	.	.	.	.	.	.	.	.	.	.
.	.	.	.	.	.	.	12ddJ	.	.	.	.	.	.	.	.	.	.	.	.	.	.	.	.	.	.	.	.	.	.
8D	.	.	8d	.	8d	.	12ff#L	.	4r	.	.	.	.	.	.	.	.	.	.	.	.	.	.	.	.	.	.	.	.
.	.	.	.	.	.	.	12gg	.	.	.	.	.	.	.	.	.	.	.	.	.	.	.	.	.	.	.	.	.	.
8DJ	.	.	8dJ	.	8f#J	.	.	.	.	.	.	.	.	.	.	.	.	.	.	.	.	.	.	.	.	.	.	.	.
.	.	.	.	.	.	.	12gg#XJ	.	.	.	.	.	.	.	.	.	.	.	.	.	.	.	.	.	.	.	.	.	.
4D	.	.	4d	.	8dL	.	4aa	.	2r	.	4D	-bis	.	4A	-bis	4f#	-bis	.	4dd	-bis	.	4dd	.	4ff#	.	4D	.	4dd	4ff#
.	.	.	.	.	8AJ 8f#	.	.	.	.	.	.	.	.	.	.	.	.	.	.	.	.	.	.	.	.	.	.	.	.
4G	.	.	4g	.	16ddLL\	.	4dd 4bb	ff	.	.	4G	quod	.	4d	quod	4b	quod	.	4dd	quod	.	4dd	.	4dd	.	4G	.	4b	4dd
.	.	.	.	.	16dd	.	.	.	.	.	.	.	.	.	.	.	.	.	.	.	.	.	.	.	.	.	.	.	.
.	.	.	.	.	16dd	.	.	.	.	.	.	.	.	.	.	.	.	.	.	.	.	.	.	.	.	.	.	.	.
.	.	.	.	.	16ddJJ	.	.	.	.	.	.	.	.	.	.	.	.	.	.	.	.	.	.	.	.	.	.	.	.
!LO:LB:g=original	!	!	!LO:LB:g=original	!	!	!	!	!	!	!	!	!	!	!	!	!	!	!	!	!	!	!LO:LB:g=original	!	!LO:LB:g=original	!	!	!	!LO:LB:g=original	!LO:LB:g=original
=78	=78	=78	=78	=78	=78	=78	=78	=78	=78	=78	=78	=78	=78	=78	=78	=78	=78	=78	=78	=78	=78	=78	=78	=78	=78	=78	=78	=78	=78
4F#	6	.	4f#	.	16ddLL\	.	4dd 4aa	.	1r	.	4F#	o-	.	4d	o-	4a	o-	.	4dd	o-	.	4dd	.	4dd	.	4F#	.	4a	4dd
.	.	.	.	.	16dd	.	.	.	.	.	.	.	.	.	.	.	.	.	.	.	.	.	.	.	.	.	.	.	.
.	.	.	.	.	16dd	.	.	.	.	.	.	.	.	.	.	.	.	.	.	.	.	.	.	.	.	.	.	.	.
.	.	.	.	.	16ddJJ	.	.	.	.	.	.	.	.	.	.	.	.	.	.	.	.	.	.	.	.	.	.	.	.
4G	.	.	4g	.	16ddLL\	.	4dd 4bb	.	.	.	4G	-pe-	.	4d	-pe-	4b	-pe-	.	4dd	-pe-	.	4dd	.	4dd	.	4G	.	4b	4dd
.	.	.	.	.	16dd	.	.	.	.	.	.	.	.	.	.	.	.	.	.	.	.	.	.	.	.	.	.	.	.
.	.	.	.	.	16dd	.	.	.	.	.	.	.	.	.	.	.	.	.	.	.	.	.	.	.	.	.	.	.	.
.	.	.	.	.	16ddJJ	.	.	.	.	.	.	.	.	.	.	.	.	.	.	.	.	.	.	.	.	.	.	.	.
4F#	6	.	4f#	.	16ddLL	.	4dd 4aa	.	.	.	4F#	-ra-	.	4d	-ra-	4a	-ra-	.	4dd	-ra-	.	4dd	.	4dd	.	4F#	.	4a	4dd
.	.	.	.	.	16dd	.	.	.	.	.	.	.	.	.	.	.	.	.	.	.	.	.	.	.	.	.	.	.	.
.	.	.	.	.	16dd	.	.	.	.	.	.	.	.	.	.	.	.	.	.	.	.	.	.	.	.	.	.	.	.
.	.	.	.	.	16ddJJ	.	.	.	.	.	.	.	.	.	.	.	.	.	.	.	.	.	.	.	.	.	.	.	.
4G	.	.	4g	.	16ddLL	.	4dd 4bb	.	.	.	4G	-tus	.	4d	-tus	4b	-tus	.	4dd	-tus	.	4dd	.	4dd	.	4G	.	4b	4dd
.	.	.	.	.	16dd	.	.	.	.	.	.	.	.	.	.	.	.	.	.	.	.	.	.	.	.	.	.	.	.
.	.	.	.	.	16dd	.	.	.	.	.	.	.	.	.	.	.	.	.	.	.	.	.	.	.	.	.	.	.	.
.	.	.	.	.	16ddJJ	.	.	.	.	.	.	.	.	.	.	.	.	.	.	.	.	.	.	.	.	.	.	.	.
!	!	!	!	!	!	!	!LO:LB:g=original	!	!	!	!	!	!	!	!	!	!	!	!	!	!	!	!	!	!	!	!	!	!
=79	=79	=79	=79	=79	=79	=79	=79	=79	=79	=79	=79	=79	=79	=79	=79	=79	=79	=79	=79	=79	=79	=79	=79	=79	=79	=79	=79	=79	=79
8F#L	6	.	8f#L	.	16ddLL	.	4.dd 4.aa	.	1r	.	2F#	es	.	2d	es	(>4.a	es	.	2dd	es	.	1dd	.	1dd	.	2F#	.	4.a	1dd
.	.	.	.	.	16dd	.	.	.	.	.	.	.	.	.	.	.	.	.	.	.	.	.	.	.	.	.	.	.	.
8F#	.	.	8f#	.	16dd	.	.	.	.	.	.	.	.	.	.	.	.	.	.	.	.	.	.	.	.	.	.	.	.
.	.	.	.	.	16ddJJ	.	.	.	.	.	.	.	.	.	.	.	.	.	.	.	.	.	.	.	.	.	.	.	.
8F#	.	.	8f#	.	16ddLL	.	.	.	.	.	.	.	.	.	.	.	.	.	.	.	.	.	.	.	.	.	.	.	.
.	.	.	.	.	16dd	.	.	.	.	.	.	.	.	.	.	.	.	.	.	.	.	.	.	.	.	.	.	.	.
8F#J	.	.	8f#J	.	16dd	.	8aa#X	.	.	.	.	.	.	.	.	8a#X)	.	.	.	.	.	.	.	.	.	.	.	8a#X	.
.	.	.	.	.	16ddJJ	.	.	.	.	.	.	.	.	.	.	.	.	.	.	.	.	.	.	.	.	.	.	.	.
!	!	!	!	!	!LO:LB:g=original	!	!	!	!	!	!	!	!	!	!	!	!	!	!	!	!	!	!	!	!	!	!	!	!
8GL	.	.	8gL	.	16ddLL	.	4bb	.	.	.	2G	in	.	2B	in	4b	in	.	2dd	in	.	.	.	.	.	2G	.	4b	.
.	.	.	.	.	16dd	.	.	.	.	.	.	.	.	.	.	.	.	.	.	.	.	.	.	.	.	.	.	.	.
8G	.	.	8g	.	16dd	.	.	.	.	.	.	.	.	.	.	.	.	.	.	.	.	.	.	.	.	.	.	.	.
.	.	.	.	.	16ddJJ	.	.	.	.	.	.	.	.	.	.	.	.	.	.	.	.	.	.	.	.	.	.	.	.
8G	.	.	8g	.	16ddLL	.	8ccc#L	.	.	.	.	.	.	.	.	8cc#L	.	.	.	.	.	.	.	.	.	.	.	8cc#L	.
.	.	.	.	.	16dd	.	.	.	.	.	.	.	.	.	.	.	.	.	.	.	.	.	.	.	.	.	.	.	.
8GJ	.	.	8gJ	.	16dd	.	8dddJ	.	.	.	.	.	.	.	.	8ddJ	.	.	.	.	.	.	.	.	.	.	.	8ddJ	.
.	.	.	.	.	16ddJJ	.	.	.	.	.	.	.	.	.	.	.	.	.	.	.	.	.	.	.	.	.	.	.	.
!	!	!	!	!	!	!	!	!	!	!	!	!	!	!	!	!	!	!	!	!	!	!	!	!	!	!LO:LB:g=original	!	!	!
=80	=80	=80	=80	=80	=80	=80	=80	=80	=80	=80	=80	=80	=80	=80	=80	=80	=80	=80	=80	=80	=80	=80	=80	=80	=80	=80	=80	=80	=80
8AL	6 4	.	8aL	.	16ddLL	.	8ff#L	.	1r	.	1A	no-	.	(>2f#	no-	1a	no-	.	(>2dd	no-	.	4dd	.	4ff#	.	1A	.	2f#\	2dd
.	.	.	.	.	16dd	.	.	.	.	.	.	.	.	.	.	.	.	.	.	.	.	.	.	.	.	.	.	.	.
8A	.	.	8a	.	16ff#	.	16dddL	.	.	.	.	.	.	.	.	.	.	.	.	.	.	.	.	.	.	.	.	.	.
.	.	.	.	.	16ff#JJ	.	16dddJJ	.	.	.	.	.	.	.	.	.	.	.	.	.	.	.	.	.	.	.	.	.	.
8A	.	.	8a	.	16ff#LL	.	16aaLL	.	.	.	.	.	.	.	.	.	.	.	.	.	.	8ddL	.	8ff#L	.	.	.	.	.
.	.	.	.	.	16ff#	.	16aa	.	.	.	.	.	.	.	.	.	.	.	.	.	.	.	.	.	.	.	.	.	.
8AJ	.	.	8aJ	.	16dd	.	16ff#	.	.	.	.	.	.	.	.	.	.	.	.	.	.	8ddJ	.	8ff#J	.	.	.	.	.
.	.	.	.	.	16ddJJ	.	16ff#JJ	.	.	.	.	.	.	.	.	.	.	.	.	.	.	.	.	.	.	.	.	.	.
8AL	.	.	8aL	.	16cc#LL	.	16eeLL	.	.	.	.	.	.	2e)	.	.	.	.	2cc#)	.	.	4a	.	4ee	.	.	.	2e\	2cc#
.	.	.	.	.	16cc#	.	16ee	.	.	.	.	.	.	.	.	.	.	.	.	.	.	.	.	.	.	.	.	.	.
8A	.	.	8a	.	16ee	.	16ccc#	.	.	.	.	.	.	.	.	.	.	.	.	.	.	.	.	.	.	.	.	.	.
.	.	.	.	.	16eeJJ	.	16ccc#JJ	.	.	.	.	.	.	.	.	.	.	.	.	.	.	.	.	.	.	.	.	.	.
8A	.	.	8a	.	16cc#LL	.	16eeLL	.	.	.	.	.	.	.	.	.	.	.	.	.	.	8aL	.	8eeL	.	.	.	.	.
.	.	.	.	.	16cc#	.	16ee	.	.	.	.	.	.	.	.	.	.	.	.	.	.	.	.	.	.	.	.	.	.
8AJ	.	.	8aJ	.	16ee	.	16ccc#	.	.	.	.	.	.	.	.	.	.	.	.	.	.	8aJ	.	8eeJ	.	.	.	.	.
.	.	.	.	.	16eeJJ	.	16ccc#JJ	.	.	.	.	.	.	.	.	.	.	.	.	.	.	.	.	.	.	.	.	.	.
!	!	!	!LO:LB:g=original	!	!	!	!	!	!	!	!	!	!	!LO:LB:g=original	!	!	!	!	!	!	!	!	!	!	!	!	!	!	!
=81	=81	=81	=81	=81	=81	=81	=81	=81	=81	=81	=81	=81	=81	=81	=81	=81	=81	=81	=81	=81	=81	=81	=81	=81	=81	=81	=81	=81	=81
8F#L	6	.	8f#L	.	16ddLL	.	4.aa	.	1r	.	2F#	-bis	.	2d	-bis	(>4.a	-bis	.	2dd	-bis	.	1dd	.	1dd	.	2F#	.	4.a	1dd
.	.	.	.	.	16dd	.	.	.	.	.	.	.	.	.	.	.	.	.	.	.	.	.	.	.	.	.	.	.	.
8F#	.	.	8f#	.	16dd	.	.	.	.	.	.	.	.	.	.	.	.	.	.	.	.	.	.	.	.	.	.	.	.
.	.	.	.	.	16ddJJ	.	.	.	.	.	.	.	.	.	.	.	.	.	.	.	.	.	.	.	.	.	.	.	.
8F#	.	.	8f#	.	16ddLL	.	.	.	.	.	.	.	.	.	.	.	.	.	.	.	.	.	.	.	.	.	.	.	.
.	.	.	.	.	16dd	.	.	.	.	.	.	.	.	.	.	.	.	.	.	.	.	.	.	.	.	.	.	.	.
8F#J	.	.	8f#J	.	16dd	.	8aa#X	.	.	.	.	.	.	.	.	8a#X)	.	.	.	.	.	.	.	.	.	.	.	8a#X	.
.	.	.	.	.	16ddJJ	.	.	.	.	.	.	.	.	.	.	.	.	.	.	.	.	.	.	.	.	.	.	.	.
!	!	!	!	!	!LO:LB:g=original	!	!	!	!	!	!	!	!	!	!	!	!	!	!	!	!	!	!	!	!	!	!	!	!
8GL	.	fz	8gL	.	16ddLL	.	4bb	.	.	.	2G	in	.	2B	in	4b	in	.	2dd	in	.	.	.	.	.	2G	.	4b	.
.	.	.	.	.	16dd	.	.	.	.	.	.	.	.	.	.	.	.	.	.	.	.	.	.	.	.	.	.	.	.
8G	.	.	8g	.	16dd	.	.	.	.	.	.	.	.	.	.	.	.	.	.	.	.	.	.	.	.	.	.	.	.
.	.	.	.	.	16ddJJ	.	.	.	.	.	.	.	.	.	.	.	.	.	.	.	.	.	.	.	.	.	.	.	.
8G	.	.	8g	.	16ddLL	.	8ccc#L	.	.	.	.	.	.	.	.	8cc#L	.	.	.	.	.	.	.	.	.	.	.	8cc#L	.
.	.	.	.	.	16dd	.	.	.	.	.	.	.	.	.	.	.	.	.	.	.	.	.	.	.	.	.	.	.	.
8GJ	.	.	8gJ	.	16dd	.	8dddJ	.	.	.	.	.	.	.	.	8ddJ	.	.	.	.	.	.	.	.	.	.	.	8ddJ	.
.	.	.	.	.	16ddJJ	.	.	.	.	.	.	.	.	.	.	.	.	.	.	.	.	.	.	.	.	.	.	.	.
!LO:LB:g=original	!	!	!	!	!	!	!LO:LB:g=original	!	!	!	!	!	!	!	!	!	!	!	!LO:LB:g=original	!	!	!	!	!	!	!	!	!LO:LB:g=original	!
=82	=82	=82	=82	=82	=82	=82	=82	=82	=82	=82	=82	=82	=82	=82	=82	=82	=82	=82	=82	=82	=82	=82	=82	=82	=82	=82	=82	=82	=82
8AL	6 4	.	8aL	.	16ddLL	.	8ff#L	.	1r	.	1A	no-	.	(>2f#	no-	2.a	no-	.	(>2dd	no-	.	4dd	.	4ff#	.	1A	.	2f#	2dd
.	.	.	.	.	16dd	.	.	.	.	.	.	.	.	.	.	.	.	.	.	.	.	.	.	.	.	.	.	.	.
8A	.	.	8a	.	16ff#	.	16dddL	.	.	.	.	.	.	.	.	.	.	.	.	.	.	.	.	.	.	.	.	.	.
.	.	.	.	.	16ff#JJ	.	16dddJJ	.	.	.	.	.	.	.	.	.	.	.	.	.	.	.	.	.	.	.	.	.	.
8A	.	.	8a	.	16ff#LL	.	16aaLL	.	.	.	.	.	.	.	.	.	.	.	.	.	.	8ddL	.	8ff#L	.	.	.	.	.
.	.	.	.	.	16ff#	.	16aa	.	.	.	.	.	.	.	.	.	.	.	.	.	.	.	.	.	.	.	.	.	.
8AJ	.	.	8aJ	.	16dd	.	16ff#	.	.	.	.	.	.	.	.	.	.	.	.	.	.	8ddJ	.	8ff#J	.	.	.	.	.
.	.	.	.	.	16ddJJ	.	16ff#JJ	.	.	.	.	.	.	.	.	.	.	.	.	.	.	.	.	.	.	.	.	.	.
8AL	.	.	8aL	.	16cc#LL	.	16eeLL	.	.	.	.	.	.	2e)	.	.	.	.	2cc#)	.	.	4a	.	4ee	.	.	.	2e	2cc#
.	.	.	.	.	16cc#	.	16ee	.	.	.	.	.	.	.	.	.	.	.	.	.	.	.	.	.	.	.	.	.	.
8A	.	.	8a	.	16ee	.	16ccc#	.	.	.	.	.	.	.	.	.	.	.	.	.	.	.	.	.	.	.	.	.	.
.	.	.	.	.	16eeJJ	.	16ccc#JJ	.	.	.	.	.	.	.	.	.	.	.	.	.	.	.	.	.	.	.	.	.	.
8A	.	.	8a	.	16cc#LL	.	16eeLL	.	.	.	.	.	.	.	.	4g	.	.	.	.	.	8aL	.	8eeL	.	.	.	.	.
.	.	.	.	.	16cc#	.	16ee	.	.	.	.	.	.	.	.	.	.	.	.	.	.	.	.	.	.	.	.	.	.
8AJ	.	.	8aJ	.	16ee	.	16ccc#	.	.	.	.	.	.	.	.	.	.	.	.	.	.	8aJ	.	8eeJ	.	.	.	.	.
.	.	.	.	.	16eeJJ	.	16ccc#JJ	.	.	.	.	.	.	.	.	.	.	.	.	.	.	.	.	.	.	.	.	.	.
!	!	!	!	!	!	!	!	!	!LO:LB:g=original	!	!	!	!	!	!	!LO:LB:g=original	!	!	!	!	!	!LO:LB:g=original	!	!LO:LB:g=original	!	!	!	!	!
=83	=83	=83	=83	=83	=83	=83	=83	=83	=83	=83	=83	=83	=83	=83	=83	=83	=83	=83	=83	=83	=83	=83	=83	=83	=83	=83	=83	=83	=83
!	!	!	!LO:TX:a:t=Problem: w źródle brak pauzy ćwiećnutowej	!	!	!	!	!	!	!	!	!	!	!	!	!	!	!	!	!	!	!	!	!	!	!	!	!	!
2D	.	.	4d	.	2a 2ff#	.	2ddd	.	(>16dLL	.	2D	-bis	.	2d	-bis	2f#	-bis	.	2dd	-bis	.	2f#	.	2dd	.	2D	.	2f#	2dd
.	.	.	.	.	.	.	.	.	16f#	.	.	.	.	.	.	.	.	.	.	.	.	.	.	.	.	.	.	.	.
.	.	.	.	.	.	.	.	.	16a	.	.	.	.	.	.	.	.	.	.	.	.	.	.	.	.	.	.	.	.
.	.	.	.	.	.	.	.	.	16ddJJ	.	.	.	.	.	.	.	.	.	.	.	.	.	.	.	.	.	.	.	.
.	.	.	4ryy	.	.	.	.	.	16ff#LL	.	.	.	.	.	.	.	.	.	.	.	.	.	.	.	.	.	.	.	.
.	.	.	.	.	.	.	.	.	16dd	.	.	.	.	.	.	.	.	.	.	.	.	.	.	.	.	.	.	.	.
.	.	.	.	.	.	.	.	.	16ff#	.	.	.	.	.	.	.	.	.	.	.	.	.	.	.	.	.	.	.	.
.	.	.	.	.	.	.	.	.	16aaJJ	.	.	.	.	.	.	.	.	.	.	.	.	.	.	.	.	.	.	.	.
2r	.	.	2r	.	2r	.	2r	.	16dddLL	.	2D	a	.	2A/	a	2f#	a	.	2dd	a	.	2r	.	2r	.	2r	.	2r	2r
.	.	.	.	.	.	.	.	.	16ff#	.	.	.	.	.	.	.	.	.	.	.	.	.	.	.	.	.	.	.	.
.	.	.	.	.	.	.	.	.	16aa	.	.	.	.	.	.	.	.	.	.	.	.	.	.	.	.	.	.	.	.
.	.	.	.	.	.	.	.	.	16dddJJ	.	.	.	.	.	.	.	.	.	.	.	.	.	.	.	.	.	.	.	.
.	.	.	.	.	.	.	.	.	8fff#)	.	.	.	.	.	.	.	.	.	.	.	.	.	.	.	.	.	.	.	.
.	.	.	.	.	.	.	.	.	8r	.	.	.	.	.	.	.	.	.	.	.	.	.	.	.	.	.	.	.	.
!	!	!	!	!	!	!	!	!	!	!	!LO:LB:g=original	!	!	!	!	!	!	!	!	!	!	!	!	!	!	!	!	!	!
=84	=84	=84	=84	=84	=84	=84	=84	=84	=84	=84	=84	=84	=84	=84	=84	=84	=84	=84	=84	=84	=84	=84	=84	=84	=84	=84	=84	=84	=84
1r	.	.	1r	.	1r	.	1r	.	1r	.	2E	tem-	.	2G	tem-	2g	tem-	.	2cc#	tem-	.	1r	.	1r	.	1r	.	1r	1r
.	.	.	.	.	.	.	.	.	.	.	2F#	-plo	.	2d	-plo	2a	-plo	.	2dd	-plo	.	.	.	.	.	.	.	.	.
=85	=85	=85	=85	=85	=85	=85	=85	=85	=85	=85	=85	=85	=85	=85	=85	=85	=85	=85	=85	=85	=85	=85	=85	=85	=85	=85	=85	=85	=85
!	!	!	!	!	!	!	!	!	!	!	!	!	!	!	!	!	!	!	!LO:N:vis=2.	!	!	!	!	!	!	!	!	!	!
1r	.	.	1r	.	1r	.	1r	.	1r	.	2..G	Tu-	.	[1d	tu-	(>4a	tu-	.	(>2..b	tu-	.	1r	.	1r	.	1r	.	1r	1r
.	.	.	.	.	.	.	.	.	.	.	.	.	.	.	.	8gL	.	.	.	.	.	.	.	.	.	.	.	.	.
.	.	.	.	.	.	.	.	.	.	.	.	.	.	.	.	8f#J)	.	.	.	.	.	.	.	.	.	.	.	.	.
.	.	.	.	.	.	.	.	.	.	.	.	.	.	.	.	4.g	.	.	.	.	.	.	.	.	.	.	.	.	.
.	.	.	.	.	.	.	.	.	.	.	8D	.	.	.	.	8f#	.	.	8a)	.	.	.	.	.	.	.	.	.	.
!	!	!	!	!	!	!	!	!	!	!	!	!	!	!	!	!	!	!	!	!	!	!	!	!	!	!	!	!	!LO:LB:g=original
=86	=86	=86	=86	=86	=86	=86	=86	=86	=86	=86	=86	=86	=86	=86	=86	=86	=86	=86	=86	=86	=86	=86	=86	=86	=86	=86	=86	=86	=86
!	!	!	!	!	!	!	!	!LO:DY:a	!	!	!	!	!	!	!	!	!	!	!	!	!	!	!	!	!	!	!	!	!
1D	.	>	1d	.	1d	>	1d	>	1r	.	2D	-o	.	2d]	-o	2f#	-o	.	2a	-o	.	1d	>	1dd	>	1D	.	1d	1d
.	.	.	.	.	.	.	.	.	.	.	4r	.	.	4r	.	4r	.	.	4r	.	.	.	.	.	.	.	.	.	.
.	.	.	.	.	.	.	.	.	.	.	4F#	quod	.	4d	quod	4a	quod	.	4a	quod	.	.	.	.	.	.	.	.	.
!	!	!	!LO:LB:g=original	!	!	!	!	!	!	!	!	!	!	!	!	!	!	!	!	!	!	!	!	!	!	!	!	!	!
=87	=87	=87	=87	=87	=87	=87	=87	=87	=87	=87	=87	=87	=87	=87	=87	=87	=87	=87	=87	=87	=87	=87	=87	=87	=87	=87	=87	=87	=87
1r	.	]	1r	.	1r	]	1r	]	1r	.	2G	est	.	2d	est	2g	est	.	(>4b	est	.	1r	]	1r	]	1r	.	1r	1r
.	.	.	.	.	.	.	.	.	.	.	.	.	.	.	.	.	.	.	4cc#)	.	.	.	.	.	.	.	.	.	.
.	.	.	.	.	.	.	.	.	.	.	4G	in	.	4B	in	4b	in	.	4dd	in	.	.	.	.	.	.	.	.	.
.	.	.	.	.	.	.	.	.	.	.	4G	Je-	.	4B	Je-	4b	Je-	.	4ee	Je-	.	.	.	.	.	.	.	.	.
!	!	!	!	!	!	!	!	!	!	!	!	!	!	!LO:LB:g=original	!	!	!	!	!	!	!	!	!	!	!	!	!	!	!
=88	=88	=88	=88	=88	=88	=88	=88	=88	=88	=88	=88	=88	=88	=88	=88	=88	=88	=88	=88	=88	=88	=88	=88	=88	=88	=88	=88	=88	=88
1r	.	.	1r	.	1r	.	1r	.	16r	.	2A	-ru-	.	2d	-ru-	2a	-ru-	.	2ff#	-ru-	.	1r	.	1r	.	1r	.	1r	1r
.	.	.	.	.	.	.	.	.	(>16aLL	.	.	.	.	.	.	.	.	.	.	.	.	.	.	.	.	.	.	.	.
.	.	.	.	.	.	.	.	.	16b	.	.	.	.	.	.	.	.	.	.	.	.	.	.	.	.	.	.	.	.
.	.	.	.	.	.	.	.	.	16cc#JJ	.	.	.	.	.	.	.	.	.	.	.	.	.	.	.	.	.	.	.	.
.	.	.	.	.	.	.	.	.	16ddLL	.	.	.	.	.	.	.	.	.	.	.	.	.	.	.	.	.	.	.	.
.	.	.	.	.	.	.	.	.	16ff#	.	.	.	.	.	.	.	.	.	.	.	.	.	.	.	.	.	.	.	.
.	.	.	.	.	.	.	.	.	16bb	.	.	.	.	.	.	.	.	.	.	.	.	.	.	.	.	.	.	.	.
.	.	.	.	.	.	.	.	.	16aaJJ	.	.	.	.	.	.	.	.	.	.	.	.	.	.	.	.	.	.	.	.
!	!	!	!	!	!	!	!	!	!	!	!	!	!	!LO:N:vis=4.	!	!LO:N:vis=4.	!	!	!	!	!	!	!	!	!	!	!	!	!
.	.	.	.	.	.	.	.	.	16ggLL	.	2A	-sa-	.	(>4..c#	-sa-	(>4..a	-sa-	.	(>4..ee	-sa-	.	.	.	.	.	.	.	.	.
.	.	.	.	.	.	.	.	.	16ff#	.	.	.	.	.	.	.	.	.	.	.	.	.	.	.	.	.	.	.	.
.	.	.	.	.	.	.	.	.	16ee	.	.	.	.	.	.	.	.	.	.	.	.	.	.	.	.	.	.	.	.
.	.	.	.	.	.	.	.	.	16ddJJ	.	.	.	.	.	.	.	.	.	.	.	.	.	.	.	.	.	.	.	.
.	.	.	.	.	.	.	.	.	16cc#LL	.	.	.	.	.	.	.	.	.	.	.	.	.	.	.	.	.	.	.	.
.	.	.	.	.	.	.	.	.	16ee	.	.	.	.	.	.	.	.	.	.	.	.	.	.	.	.	.	.	.	.
.	.	.	.	.	.	.	.	.	16bb	.	.	.	.	.	.	.	.	.	.	.	.	.	.	.	.	.	.	.	.
.	.	.	.	.	.	.	.	.	16aaJJ)	.	.	.	.	16d)	.	16f#)	.	.	16dd)	.	.	.	.	.	.	.	.	.	.
!	!	!	!	!	!LO:LB:g=original	!	!	!	!LO:LB:g=original	!	!	!	!	!	!	!LO:LB:g=original	!	!	!LO:LB:g=original	!	!	!	!	!	!	!	!	!	!
=89	=89	=89	=89	=89	=89	=89	=89	=89	=89	=89	=89	=89	=89	=89	=89	=89	=89	=89	=89	=89	=89	=89	=89	=89	=89	=89	=89	=89	=89
(<4.D/	.	fz	4.d	fz	16ddLL 16ff#	.	8ff#	ff	2ff#	.	2d	-lem	.	2d	-lem	2f#	-lem	.	2dd	-lem	.	1dd	.	1ff#	.	(<4.D/	fz	1dd	1ff#
.	.	.	.	.	16dd 16ff#	.	.	.	.	.	.	.	.	.	.	.	.	.	.	.	.	.	.	.	.	.	.	.	.
.	.	.	.	.	16dd 16ff#	.	4ddd	.	.	.	.	.	.	.	.	.	.	.	.	.	.	.	.	.	.	.	.	.	.
.	.	.	.	.	16ddJJ 16ff#	.	.	.	.	.	.	.	.	.	.	.	.	.	.	.	.	.	.	.	.	.	.	.	.
.	.	.	.	.	16ddLL 16ff#	.	.	.	.	.	.	.	.	.	.	.	.	.	.	.	.	.	.	.	.	.	.	.	.
.	.	.	.	.	16dd 16ff#	.	.	.	.	.	.	.	.	.	.	.	.	.	.	.	.	.	.	.	.	.	.	.	.
16F#LL/	.	.	16f#LL	.	16dd 16ff#	.	4ddd	.	.	.	.	.	.	.	.	.	.	.	.	.	.	.	.	.	.	16F#LL/	.	.	.
16AJJ)	.	.	16aJJ	.	16ddJJ 16ff#	.	.	.	.	.	.	.	.	.	.	.	.	.	.	.	.	.	.	.	.	16AJJ	.	.	.
4F#	.	.	4f#	.	16ddLL 16ff#	.	.	.	2r	.	4.d	ti-	.	4.f#	ti-	4.a	ti-	.	4.dd	ti-	.	.	.	.	.	4F#/)	.	.	.
.	.	.	.	.	16dd 16ff#	.	.	.	.	.	.	.	.	.	.	.	.	.	.	.	.	.	.	.	.	.	.	.	.
.	.	.	.	.	16dd 16ff#	.	4ddd	.	.	.	.	.	.	.	.	.	.	.	.	.	.	.	.	.	.	.	.	.	.
.	.	.	.	.	16ddJJ 16ff#	.	.	.	.	.	.	.	.	.	.	.	.	.	.	.	.	.	.	.	.	.	.	.	.
4D	.	.	4d	.	16ddLL 16ff#	.	.	.	.	.	.	.	.	.	.	.	.	.	.	.	.	.	.	.	.	4D/	.	.	.
.	.	.	.	.	16dd 16ff#	.	.	.	.	.	.	.	.	.	.	.	.	.	.	.	.	.	.	.	.	.	.	.	.
.	.	.	.	.	16dd 16ff#	.	8ddd	.	.	.	8d	-bi	.	8f#	-bi	8a	-bi	.	8dd	-bi	.	.	.	.	.	.	.	.	.
.	.	.	.	.	16ddJJ 16ff#	.	.	.	.	.	.	.	.	.	.	.	.	.	.	.	.	.	.	.	.	.	.	.	.
!LO:LB:g=original	!	!	!	!	!	!	!LO:LB:g=original	!	!	!	!LO:LB:g=original	!	!	!	!	!	!	!	!	!	!	!	!	!	!	!	!	!	!
=90	=90	=90	=90	=90	=90	=90	=90	=90	=90	=90	=90	=90	=90	=90	=90	=90	=90	=90	=90	=90	=90	=90	=90	=90	=90	=90	=90	=90	=90
4.AA	.	.	4.B	.	16ddLL 16ff#	.	8ddd	.	1r	.	4.B	of-	.	4.f#	of-	4.b	of-	.	4.dd	of-	.	1dd	.	1ff#	.	(<4.BB	.	1dd	1ff#
.	.	.	.	.	16dd 16ff#	.	.	.	.	.	.	.	.	.	.	.	.	.	.	.	.	.	.	.	.	.	.	.	.
.	.	.	.	.	16dd 16ff#	.	4ff#	.	.	.	.	.	.	.	.	.	.	.	.	.	.	.	.	.	.	.	.	.	.
.	.	.	.	.	16ddJJ 16ff#	.	.	.	.	.	.	.	.	.	.	.	.	.	.	.	.	.	.	.	.	.	.	.	.
.	.	.	.	.	16ddLL 16ff#	.	.	.	.	.	.	.	.	.	.	.	.	.	.	.	.	.	.	.	.	.	.	.	.
.	.	.	.	.	16dd 16ff#	.	.	.	.	.	.	.	.	.	.	.	.	.	.	.	.	.	.	.	.	.	.	.	.
16DLL/	.	.	16dLL/	.	16dd 16ff#	.	4ff#	.	.	.	8B	-fe-	.	8f#	-fe-	8b	-fe-	.	8dd	-fe-	.	.	.	.	.	16DLL/	.	.	.
16F#JJ	.	.	16f#JJ	.	16ddJJ 16ff#	.	.	.	.	.	.	.	.	.	.	.	.	.	.	.	.	.	.	.	.	16F#JJ)	.	.	.
4D	.	.	4d	.	16ddLL 16ff#	.	.	.	.	.	2B	-rent	.	2f#	-rent	2b	-rent	.	2dd	-rent	.	.	.	.	.	4D/	.	.	.
.	.	.	.	.	16dd 16ff#	.	.	.	.	.	.	.	.	.	.	.	.	.	.	.	.	.	.	.	.	.	.	.	.
.	.	.	.	.	16dd 16ff#	.	4ff#	.	.	.	.	.	.	.	.	.	.	.	.	.	.	.	.	.	.	.	.	.	.
.	.	.	.	.	16ddJJ 16ff#	.	.	.	.	.	.	.	.	.	.	.	.	.	.	.	.	.	.	.	.	.	.	.	.
4BB	.	.	4B	.	16ddLL 16ff#	.	.	.	.	.	.	.	.	.	.	.	.	.	.	.	.	.	.	.	.	4BB	.	.	.
.	.	.	.	.	16dd 16ff#	.	.	.	.	.	.	.	.	.	.	.	.	.	.	.	.	.	.	.	.	.	.	.	.
.	.	.	.	.	16dd 16ff#	.	8ff#	.	.	.	.	.	.	.	.	.	.	.	.	.	.	.	.	.	.	.	.	.	.
.	.	.	.	.	16ddJJ 16ff#	.	.	.	.	.	.	.	.	.	.	.	.	.	.	.	.	.	.	.	.	.	.	.	.
!	!	!	!	!	!LO:LB:g=original	!	!	!	!	!	!	!	!	!	!	!	!	!	!	!	!	!	!	!	!	!	!	!LO:LB:g=original	!
=91	=91	=91	=91	=91	=91	=91	=91	=91	=91	=91	=91	=91	=91	=91	=91	=91	=91	=91	=91	=91	=91	=91	=91	=91	=91	=91	=91	=91	=91
8GGL	6 5	.	8GL	.	16ddLL 16ee	.	(>4.ee	.	1r	.	4.G	re-	.	4.e	re-	4.b	re-	.	4.dd	re-	.	2dd	.	1ee	.	2GG	.	2dd	1ee
.	.	.	.	.	16dd 16ee	.	.	.	.	.	.	.	.	.	.	.	.	.	.	.	.	.	.	.	.	.	.	.	.
8GG	.	.	8G	.	16dd 16ee	.	.	.	.	.	.	.	.	.	.	.	.	.	.	.	.	.	.	.	.	.	.	.	.
.	.	.	.	.	16ddJJ 16ee	.	.	.	.	.	.	.	.	.	.	.	.	.	.	.	.	.	.	.	.	.	.	.	.
8GG	.	.	8G	.	16ddLL 16ee	.	.	.	.	.	.	.	.	.	.	.	.	.	.	.	.	.	.	.	.	.	.	.	.
.	.	.	.	.	16dd 16ee	.	.	.	.	.	.	.	.	.	.	.	.	.	.	.	.	.	.	.	.	.	.	.	.
8GGJ	.	.	8GJ	.	16dd 16ee	.	16ggLL	.	.	.	8G	-ges	.	8e	-ges	8b	-ges	.	8dd	-ges	.	.	.	.	.	.	.	.	.
.	.	.	.	.	16ddJJ 16ee	.	16bbJJ	.	.	.	.	.	.	.	.	.	.	.	.	.	.	.	.	.	.	.	.	.	.
8AAL	.	.	8AL	.	16cc#LL 16ee	.	4aa	.	.	.	4.A	mu-	.	4.e	mu-	4.a	mu-	.	4.cc#	mu-	.	2a	.	.	.	2AA	.	2cc#	.
.	.	.	.	.	16cc# 16ee	.	.	.	.	.	.	.	.	.	.	.	.	.	.	.	.	.	.	.	.	.	.	.	.
8AA	.	.	8A	.	16cc# 16ee	.	.	.	.	.	.	.	.	.	.	.	.	.	.	.	.	.	.	.	.	.	.	.	.
.	.	.	.	.	16cc#JJ 16ee	.	.	.	.	.	.	.	.	.	.	.	.	.	.	.	.	.	.	.	.	.	.	.	.
8AA	.	.	8A	.	16cc#LL 16ee	.	4gg)	.	.	.	.	.	.	.	.	.	.	.	.	.	.	.	.	.	.	.	.	.	.
.	.	.	.	.	16cc# 16ee	.	.	.	.	.	.	.	.	.	.	.	.	.	.	.	.	.	.	.	.	.	.	.	.
8AAJ	.	.	8AJ	.	16cc# 16ee	.	.	.	.	.	8A	-ne-	.	8e	-ne-	8a	-ne-	.	8cc#	-ne-	.	.	.	.	.	.	.	.	.
.	.	.	.	.	16cc#JJ 16ee	.	.	.	.	.	.	.	.	.	.	.	.	.	.	.	.	.	.	.	.	.	.	.	.
!	!	!	!LO:LB:g=original	!	!	!	!	!	!	!	!	!	!	!	!	!	!	!	!	!	!	!	!	!	!	!LO:LB:g=original	!	!	!
=92	=92	=92	=92	=92	=92	=92	=92	=92	=92	=92	=92	=92	=92	=92	=92	=92	=92	=92	=92	=92	=92	=92	=92	=92	=92	=92	=92	=92	=92
(>4.D	.	.	4.d	.	16ddLL 16ff#	.	8ff#	.	1r	.	2d	-ra	.	2f#	-ra	2a	-ra	.	2dd	-ra	.	1dd	.	1ff#	.	(>4.D#X	.	1dd	1ff#
.	.	.	.	.	16dd 16ff#	.	.	.	.	.	.	.	.	.	.	.	.	.	.	.	.	.	.	.	.	.	.	.	.
.	.	.	.	.	16dd 16ff#	.	4ddd	.	.	.	.	.	.	.	.	.	.	.	.	.	.	.	.	.	.	.	.	.	.
.	.	.	.	.	16ddJJ 16ff#	.	.	.	.	.	.	.	.	.	.	.	.	.	.	.	.	.	.	.	.	.	.	.	.
.	.	.	.	.	16ddLL 16ff#	.	.	.	.	.	.	.	.	.	.	.	.	.	.	.	.	.	.	.	.	.	.	.	.
.	.	.	.	.	16dd 16ff#	.	.	.	.	.	.	.	.	.	.	.	.	.	.	.	.	.	.	.	.	.	.	.	.
16F#LL	.	.	16f#LL	.	16dd 16ff#	.	4ddd	.	.	.	.	.	.	.	.	.	.	.	.	.	.	.	.	.	.	16F#LL	.	.	.
16AJJ)	.	.	16aJJ	.	16ddJJ 16ff#	.	.	.	.	.	.	.	.	.	.	.	.	.	.	.	.	.	.	.	.	16AJJ)	.	.	.
4F#	.	.	4f#	.	16ddLL 16ff#	.	.	.	.	.	4.d	ti-	.	4.d	ti-	4.a	ti-	.	4.ff#	ti-	.	.	.	.	.	4F#	.	.	.
.	.	.	.	.	16dd 16ff#	.	.	.	.	.	.	.	.	.	.	.	.	.	.	.	.	.	.	.	.	.	.	.	.
.	.	.	.	.	16dd 16ff#	.	4ddd	.	.	.	.	.	.	.	.	.	.	.	.	.	.	.	.	.	.	.	.	.	.
.	.	.	.	.	16ddJJ 16ff#	.	.	.	.	.	.	.	.	.	.	.	.	.	.	.	.	.	.	.	.	.	.	.	.
4D	.	.	4d	.	16ddLL 16ff#	.	.	.	.	.	.	.	.	.	.	.	.	.	.	.	.	.	.	.	.	4D#	.	.	.
.	.	.	.	.	16dd 16ff#	.	.	.	.	.	.	.	.	.	.	.	.	.	.	.	.	.	.	.	.	.	.	.	.
.	.	.	.	.	16dd 16ff#	.	8ddd	.	.	.	8d	-bi	.	8d	-bi	8a	-bi	.	8ff#	-bi	.	.	.	.	.	.	.	.	.
.	.	.	.	.	16ddJJ 16ff#	.	.	.	.	.	.	.	.	.	.	.	.	.	.	.	.	.	.	.	.	.	.	.	.
!	!	!	!	!	!LO:LB:g=original	!	!	!	!	!	!	!	!	!	!	!	!	!	!	!	!	!LO:LB:g=original	!	!LO:LB:g=original	!	!	!	!	!
=93	=93	=93	=93	=93	=93	=93	=93	=93	=93	=93	=93	=93	=93	=93	=93	=93	=93	=93	=93	=93	=93	=93	=93	=93	=93	=93	=93	=93	=93
(>4.BB	.	.	4.B	.	16ddLL 16ff#	.	8ddd	.	1r	.	4.B	of-	.	4.d	of-	4.b	of-	.	4.ff#	of-	.	1dd	.	1ff#	.	(<4.BB	.	1dd	1ff#
.	.	.	.	.	16dd 16ff#	.	.	.	.	.	.	.	.	.	.	.	.	.	.	.	.	.	.	.	.	.	.	.	.
.	.	.	.	.	16dd 16ff#	.	4ff#	.	.	.	.	.	.	.	.	.	.	.	.	.	.	.	.	.	.	.	.	.	.
.	.	.	.	.	16ddJJ 16ff#	.	.	.	.	.	.	.	.	.	.	.	.	.	.	.	.	.	.	.	.	.	.	.	.
.	.	.	.	.	16ddLL 16ff#	.	.	.	.	.	.	.	.	.	.	.	.	.	.	.	.	.	.	.	.	.	.	.	.
.	.	.	.	.	16dd 16ff#	.	.	.	.	.	.	.	.	.	.	.	.	.	.	.	.	.	.	.	.	.	.	.	.
16DLL/	.	.	16dLL/	.	16dd 16ff#	.	4ff#	.	.	.	8B	-fe-	.	8d	-fe-	8b	-fe-	.	8ff#	-fe-	.	.	.	.	.	16DLL/	.	.	.
16F#JJ)	.	.	16f#JJ	.	16ddJJ 16ff#	.	.	.	.	.	.	.	.	.	.	.	.	.	.	.	.	.	.	.	.	16F#JJ	.	.	.
4D	.	.	4d	.	16ddLL 16ff#	.	.	.	.	.	2B	-rent	.	2d	-rent	2b	-rent	.	2ff#	-rent	.	.	.	.	.	4D/)	.	.	.
.	.	.	.	.	16dd 16ff#	.	.	.	.	.	.	.	.	.	.	.	.	.	.	.	.	.	.	.	.	.	.	.	.
.	.	.	.	.	16dd 16ff#	.	4ff#	.	.	.	.	.	.	.	.	.	.	.	.	.	.	.	.	.	.	.	.	.	.
.	.	.	.	.	16ddJJ 16ff#	.	.	.	.	.	.	.	.	.	.	.	.	.	.	.	.	.	.	.	.	.	.	.	.
4BB	.	.	4B	.	16ddLL 16ff#	.	.	.	.	.	.	.	.	.	.	.	.	.	.	.	.	.	.	.	.	4BB	.	.	.
.	.	.	.	.	16dd 16ff#	.	.	.	.	.	.	.	.	.	.	.	.	.	.	.	.	.	.	.	.	.	.	.	.
.	.	.	.	.	16dd 16ff#	.	8ff#	.	.	.	.	.	.	.	.	.	.	.	.	.	.	.	.	.	.	.	.	.	.
.	.	.	.	.	16ddJJ 16ff#	.	.	.	.	.	.	.	.	.	.	.	.	.	.	.	.	.	.	.	.	.	.	.	.
!LO:LB:g=original	!	!	!	!	!	!	!LO:LB:g=original	!	!	!	!	!	!	!LO:LB:g=original	!	!	!	!	!	!	!	!	!	!	!	!	!	!	!
=94	=94	=94	=94	=94	=94	=94	=94	=94	=94	=94	=94	=94	=94	=94	=94	=94	=94	=94	=94	=94	=94	=94	=94	=94	=94	=94	=94	=94	=94
8GGL	6 5	.	8GL	.	16ddLL 16ee	.	(>4.ee	.	1r	.	4.G	re-	.	4.d	re-	4.b	re-	.	4.ee	re-	.	2dd	.	1ee	.	2GG	.	2dd	1ee
.	.	.	.	.	16dd 16ee	.	.	.	.	.	.	.	.	.	.	.	.	.	.	.	.	.	.	.	.	.	.	.	.
8GG	.	.	8G	.	16dd 16ee	.	.	.	.	.	.	.	.	.	.	.	.	.	.	.	.	.	.	.	.	.	.	.	.
.	.	.	.	.	16ddJJ 16ee	.	.	.	.	.	.	.	.	.	.	.	.	.	.	.	.	.	.	.	.	.	.	.	.
8GG	.	.	8G	.	16ddLL 16ee	.	.	.	.	.	.	.	.	.	.	.	.	.	.	.	.	.	.	.	.	.	.	.	.
.	.	.	.	.	16dd 16ee	.	.	.	.	.	.	.	.	.	.	.	.	.	.	.	.	.	.	.	.	.	.	.	.
8GGJ	.	.	8GJ	.	16dd 16ee	.	16ggLL	.	.	.	8G	-ges	.	8d	-ges	8b	-ges	.	8ee	-ges	.	.	.	.	.	.	.	.	.
.	.	.	.	.	16ddJJ 16ee	.	16bbJJ	.	.	.	.	.	.	.	.	.	.	.	.	.	.	.	.	.	.	.	.	.	.
8AAL	.	.	8AL	.	16cc#LL 16ee	.	4aa	.	.	.	4.A	mu-	.	4.c#	mu-	4.a	mu-	.	4.ee	mu-	.	2a	.	.	.	2AA	.	2cc#	.
.	.	.	.	.	16cc# 16ee	.	.	.	.	.	.	.	.	.	.	.	.	.	.	.	.	.	.	.	.	.	.	.	.
8AA	.	.	8A	.	16cc# 16ee	.	.	.	.	.	.	.	.	.	.	.	.	.	.	.	.	.	.	.	.	.	.	.	.
.	.	.	.	.	16cc#JJ 16ee	.	.	.	.	.	.	.	.	.	.	.	.	.	.	.	.	.	.	.	.	.	.	.	.
8AA	.	.	8A	.	16cc#LL 16ee	.	4gg)	.	.	.	.	.	.	.	.	.	.	.	.	.	.	.	.	.	.	.	.	.	.
.	.	.	.	.	16cc# 16ee	.	.	.	.	.	.	.	.	.	.	.	.	.	.	.	.	.	.	.	.	.	.	.	.
8AAJ	.	.	8AJ	.	16cc# 16ee	.	.	.	.	.	8A	-ne-	.	8c#	-ne-	8a	-ne-	.	8ee	-ne-	.	.	.	.	.	.	.	.	.
.	.	.	.	.	16cc#JJ 16ee	.	.	.	.	.	.	.	.	.	.	.	.	.	.	.	.	.	.	.	.	.	.	.	.
!	!	!	!	!	!LO:LB:g=original	!	!	!	!	!	!LO:LB:g=original	!	!	!	!	!LO:LB:g=original	!	!	!LO:LB:g=original	!	!	!	!	!	!	!	!	!	!
=95	=95	=95	=95	=95	=95	=95	=95	=95	=95	=95	=95	=95	=95	=95	=95	=95	=95	=95	=95	=95	=95	=95	=95	=95	=95	=95	=95	=95	=95
8DL	.	.	8dL	.	16ddLL	.	16ff#LL	.	1r	.	2D	-ra	.	2d	-ra	2a	-ra	.	2ff#	-ra	.	1dd	.	1ff#	.	2D	.	1dd	1ff#
.	.	.	.	.	16dd	.	16ff#	.	.	.	.	.	.	.	.	.	.	.	.	.	.	.	.	.	.	.	.	.	.
8D	.	.	8d	.	16dd	.	16ff#	.	.	.	.	.	.	.	.	.	.	.	.	.	.	.	.	.	.	.	.	.	.
.	.	.	.	.	16ddJJ	.	16ff#JJ	.	.	.	.	.	.	.	.	.	.	.	.	.	.	.	.	.	.	.	.	.	.
8D	.	.	8d	.	16ddLL	.	16ff#LL	.	.	.	.	.	.	.	.	.	.	.	.	.	.	.	.	.	.	.	.	.	.
.	.	.	.	.	16dd	.	16ff#	.	.	.	.	.	.	.	.	.	.	.	.	.	.	.	.	.	.	.	.	.	.
8DJ	.	.	8dJ	.	16dd	.	16ff#	.	.	.	.	.	.	.	.	.	.	.	.	.	.	.	.	.	.	.	.	.	.
.	.	.	.	.	16ddJJ	.	16ff#JJ	.	.	.	.	.	.	.	.	.	.	.	.	.	.	.	.	.	.	.	.	.	.
8F#L	.	.	8f#L	.	16f#LL 16dd	.	16ff#LL 16ddd	.	.	.	4F#	re-	.	4f#	re-	4f#	re-	.	4ff#	re-	.	.	.	.	.	2F#	.	.	.
.	.	.	.	.	16f# 16dd	.	16ff# 16ddd	.	.	.	.	.	.	.	.	.	.	.	.	.	.	.	.	.	.	.	.	.	.
8F#	.	.	8f#	.	16f# 16dd	.	16ff# 16ddd	.	.	.	.	.	.	.	.	.	.	.	.	.	.	.	.	.	.	.	.	.	.
.	.	.	.	.	16f#JJ 16dd	.	16ff#JJ 16ddd	.	.	.	.	.	.	.	.	.	.	.	.	.	.	.	.	.	.	.	.	.	.
8F#	.	.	8f#	.	16f#LL 16dd	.	16ff#LL 16ddd	.	.	.	4D	-ges	.	4d	-ges	4d	-ges	.	4dd	-ges	.	.	.	.	.	.	.	.	.
.	.	.	.	.	16f# 16dd	.	16ff# 16ddd	.	.	.	.	.	.	.	.	.	.	.	.	.	.	.	.	.	.	.	.	.	.
8F#J	.	.	8f#J	.	16f# 16dd	.	16ff# 16ddd	.	.	.	.	.	.	.	.	.	.	.	.	.	.	.	.	.	.	.	.	.	.
.	.	.	.	.	16f#JJ 16dd	.	16ff#JJ 16ddd	.	.	.	.	.	.	.	.	.	.	.	.	.	.	.	.	.	.	.	.	.	.
!	!	!	!LO:LB:g=original	!	!	!	!	!	!	!	!	!	!	!	!	!	!	!	!	!	!	!	!	!	!	!	!	!	!LO:LB:g=original
=96	=96	=96	=96	=96	=96	=96	=96	=96	=96	=96	=96	=96	=96	=96	=96	=96	=96	=96	=96	=96	=96	=96	=96	=96	=96	=96	=96	=96	=96
8AL	4	.	8aL	.	16eLL 16dd	.	16eeLL 16ddd	.	1r	.	2.A	mu-	.	2.A	mu-	2.a	mu-	.	2.aa	mu-	.	1a	.	1ee	.	1A	.	2dd	1ee
.	.	.	.	.	16e 16dd	.	16ee 16ddd	.	.	.	.	.	.	.	.	.	.	.	.	.	.	.	.	.	.	.	.	.	.
8A	.	.	8a	.	16e 16dd	.	16ee 16ddd	.	.	.	.	.	.	.	.	.	.	.	.	.	.	.	.	.	.	.	.	.	.
.	.	.	.	.	16eJJ 16dd	.	16eeJJ 16ddd	.	.	.	.	.	.	.	.	.	.	.	.	.	.	.	.	.	.	.	.	.	.
8A	.	.	8a	.	16eLL 16dd	.	16eeLL 16ddd	.	.	.	.	.	.	.	.	.	.	.	.	.	.	.	.	.	.	.	.	.	.
.	.	.	.	.	16e 16dd	.	16ee 16ddd	.	.	.	.	.	.	.	.	.	.	.	.	.	.	.	.	.	.	.	.	.	.
8AJ	.	.	8aJ	.	16e 16dd	.	16ee 16ddd	.	.	.	.	.	.	.	.	.	.	.	.	.	.	.	.	.	.	.	.	.	.
.	.	.	.	.	16eJJ 16dd	.	16eeJJ 16ddd	.	.	.	.	.	.	.	.	.	.	.	.	.	.	.	.	.	.	.	.	.	.
!	!	!	!	!	!	!	!LO:LB:g=original	!	!	!	!	!	!	!	!	!	!	!	!	!	!	!	!	!	!	!	!	!	!
8AL	3	.	8aL	.	16eLL 16cc#	.	16eeLL 16ccc#	.	.	.	.	.	.	.	.	.	.	.	.	.	.	.	.	.	.	.	.	2cc#	.
.	.	.	.	.	16e 16cc#	.	16ee 16ccc#	.	.	.	.	.	.	.	.	.	.	.	.	.	.	.	.	.	.	.	.	.	.
8A	.	.	8a	.	16e 16cc#	.	16ee 16ccc#	.	.	.	.	.	.	.	.	.	.	.	.	.	.	.	.	.	.	.	.	.	.
.	.	.	.	.	16eJJ 16cc#	.	16eeJJ 16ccc#	.	.	.	.	.	.	.	.	.	.	.	.	.	.	.	.	.	.	.	.	.	.
8A	.	.	8a	.	16eLL 16cc#	.	16eeLL 16ccc#	.	.	.	4A	-ne-	.	4e	-ne-	4g	-ne-	.	4cc#	-ne-	.	.	.	.	.	.	.	.	.
.	.	.	.	.	16e 16cc#	.	16ee 16ccc#	.	.	.	.	.	.	.	.	.	.	.	.	.	.	.	.	.	.	.	.	.	.
8AJ	.	.	8aJ	.	16e 16cc#	.	16ee 16ccc#	.	.	.	.	.	.	.	.	.	.	.	.	.	.	.	.	.	.	.	.	.	.
.	.	.	.	.	16eJJ 16cc#	.	16eeJJ 16ccc#	.	.	.	.	.	.	.	.	.	.	.	.	.	.	.	.	.	.	.	.	.	.
!LO:LB:g=original	!	!	!	!	!LO:LB:g=original	!	!	!	!	!	!	!	!	!	!	!	!	!	!	!	!	!	!	!	!	!	!	!	!
=97	=97	=97	=97	=97	=97	=97	=97	=97	=97	=97	=97	=97	=97	=97	=97	=97	=97	=97	=97	=97	=97	=97	=97	=97	=97	=97	=97	=97	=97
2D	.	.	2d	.	2f# 2dd	.	2ff# 2ddd	.	16dddLL	.	2D 2d	-ra	.	2d	-ra	2f#	-ra	.	2dd	-ra	.	2f#	.	2dd	.	2D	.	2dd	2ff#
.	.	.	.	.	.	.	.	.	16fff#	.	.	.	.	.	.	.	.	.	.	.	.	.	.	.	.	.	.	.	.
.	.	.	.	.	.	.	.	.	16ddd	.	.	.	.	.	.	.	.	.	.	.	.	.	.	.	.	.	.	.	.
.	.	.	.	.	.	.	.	.	16aaJJ	.	.	.	.	.	.	.	.	.	.	.	.	.	.	.	.	.	.	.	.
.	.	.	.	.	.	.	.	.	16ff#LL	.	.	.	.	.	.	.	.	.	.	.	.	.	.	.	.	.	.	.	.
.	.	.	.	.	.	.	.	.	16aa	.	.	.	.	.	.	.	.	.	.	.	.	.	.	.	.	.	.	.	.
.	.	.	.	.	.	.	.	.	16ff#	.	.	.	.	.	.	.	.	.	.	.	.	.	.	.	.	.	.	.	.
.	.	.	.	.	.	.	.	.	16ddJJ	.	.	.	.	.	.	.	.	.	.	.	.	.	.	.	.	.	.	.	.
2r	.	.	2r	.	2r	.	2r	.	16aLL	.	2r	.	.	2r	.	2r	.	.	2r	.	.	2r	.	2r	.	2r	.	2r	2r
.	.	.	.	.	.	.	.	.	16ff#	.	.	.	.	.	.	.	.	.	.	.	.	.	.	.	.	.	.	.	.
.	.	.	.	.	.	.	.	.	16dd	.	.	.	.	.	.	.	.	.	.	.	.	.	.	.	.	.	.	.	.
.	.	.	.	.	.	.	.	.	16aJJ	.	.	.	.	.	.	.	.	.	.	.	.	.	.	.	.	.	.	.	.
.	.	.	.	.	.	.	.	.	16f#LL	.	.	.	.	.	.	.	.	.	.	.	.	.	.	.	.	.	.	.	.
.	.	.	.	.	.	.	.	.	16a	.	.	.	.	.	.	.	.	.	.	.	.	.	.	.	.	.	.	.	.
.	.	.	.	.	.	.	.	.	16f#	.	.	.	.	.	.	.	.	.	.	.	.	.	.	.	.	.	.	.	.
.	.	.	.	.	.	.	.	.	16dJJ	.	.	.	.	.	.	.	.	.	.	.	.	.	.	.	.	.	.	.	.
!	!	!	!	!	!	!	!	!	!LO:LB:g=original	!	!	!	!	!	!	!	!	!	!	!	!	!	!	!	!	!	!	!LO:LB:g=original	!
=98	=98	=98	=98	=98	=98	=98	=98	=98	=98	=98	=98	=98	=98	=98	=98	=98	=98	=98	=98	=98	=98	=98	=98	=98	=98	=98	=98	=98	=98
4D/	.	.	4d	p	2r	.	2r	.	(<8dL	.	1r	.	.	1r	.	1r	.	.	1r	.	.	1r	.	1r	.	1r	.	1r	1r
.	.	.	.	.	.	.	.	.	16eL	.	.	.	.	.	.	.	.	.	.	.	.	.	.	.	.	.	.	.	.
.	.	.	.	.	.	.	.	.	16f#JJ	.	.	.	.	.	.	.	.	.	.	.	.	.	.	.	.	.	.	.	.
4r	.	.	4r	.	.	.	.	.	16gLL	.	.	.	.	.	.	.	.	.	.	.	.	.	.	.	.	.	.	.	.
.	.	.	.	.	.	.	.	.	16a	.	.	.	.	.	.	.	.	.	.	.	.	.	.	.	.	.	.	.	.
.	.	.	.	.	.	.	.	.	16b	.	.	.	.	.	.	.	.	.	.	.	.	.	.	.	.	.	.	.	.
.	.	.	.	.	.	.	.	.	16cc#JJ)	.	.	.	.	.	.	.	.	.	.	.	.	.	.	.	.	.	.	.	.
2r	.	.	2r	.	4f#	p	4a	p	(>16ddLL	.	.	.	.	.	.	.	.	.	.	.	.	.	.	.	.	.	.	.	.
.	.	.	.	.	.	.	.	.	16ee	.	.	.	.	.	.	.	.	.	.	.	.	.	.	.	.	.	.	.	.
.	.	.	.	.	.	.	.	.	16ff#	.	.	.	.	.	.	.	.	.	.	.	.	.	.	.	.	.	.	.	.
.	.	.	.	.	.	.	.	.	16ggJJ	.	.	.	.	.	.	.	.	.	.	.	.	.	.	.	.	.	.	.	.
.	.	.	.	.	4r	.	4r	.	16aaLL	.	.	.	.	.	.	.	.	.	.	.	.	.	.	.	.	.	.	.	.
.	.	.	.	.	.	.	.	.	16bb	.	.	.	.	.	.	.	.	.	.	.	.	.	.	.	.	.	.	.	.
.	.	.	.	.	.	.	.	.	16ccc#	.	.	.	.	.	.	.	.	.	.	.	.	.	.	.	.	.	.	.	.
.	.	.	.	.	.	.	.	.	16dddJJ)	.	.	.	.	.	.	.	.	.	.	.	.	.	.	.	.	.	.	.	.
=99	=99	=99	=99	=99	=99	=99	=99	=99	=99	=99	=99	=99	=99	=99	=99	=99	=99	=99	=99	=99	=99	=99	=99	=99	=99	=99	=99	=99	=99
!	!	!	!	!	!	!	!	!	!	!	!LO:N:vis=4.	!	!	!	!	!	!	!	!	!	!	!	!	!	!	!	!	!	!
4GG	.	.	4G	.	4g	.	4d 4b	.	2bb	.	2..GG	a-	.	1d	A-	2..g	A-	.	2..b	A-	.	1r	.	1r	.	1r	.	1r	1r
4r	.	.	4r	.	4r	.	4r	.	.	.	.	.	.	.	.	.	.	.	.	.	.	.	.	.	.	.	.	.	.
4G	.	.	4G	.	4g	.	4d 4b	.	2r	.	.	.	.	.	.	.	.	.	.	.	.	.	.	.	.	.	.	.	.
4r	.	.	4r	.	4r	.	4r	.	.	.	.	.	.	.	.	.	.	.	.	.	.	.	.	.	.	.	.	.	.
.	.	.	.	.	.	.	.	.	.	.	8D	.	.	.	.	8f#	.	.	8a	.	.	.	.	.	.	.	.	.	.
=100	=100	=100	=100	=100	=100	=100	=100	=100	=100	=100	=100	=100	=100	=100	=100	=100	=100	=100	=100	=100	=100	=100	=100	=100	=100	=100	=100	=100	=100
4D	.	.	4d	.	4f#	.	4d 4a	.	(>12aaL	.	2D	-men.	.	2d	-men.	2f#	-men.	.	2a	-men.	.	4r	.	4r	.	1r	.	1r	1r
.	.	.	.	.	.	.	.	.	12bb	.	.	.	.	.	.	.	.	.	.	.	.	.	.	.	.	.	.	.	.
.	.	.	.	.	.	.	.	.	12aaJ	.	.	.	.	.	.	.	.	.	.	.	.	.	.	.	.	.	.	.	.
4r	.	.	4r	.	4r	.	4r	.	12aaL	.	.	.	.	.	.	.	.	.	.	.	.	2dd	.	2ff#	.	.	.	.	.
.	.	.	.	.	.	.	.	.	12bb	.	.	.	.	.	.	.	.	.	.	.	.	.	.	.	.	.	.	.	.
.	.	.	.	.	.	.	.	.	12aaJ	.	.	.	.	.	.	.	.	.	.	.	.	.	.	.	.	.	.	.	.
4D	.	.	4d	.	4A 4d	.	4A 4f#	.	12aaL	.	2r	.	.	2r	.	2r	.	.	2r	.	.	.	.	.	.	.	.	.	.
.	.	.	.	.	.	.	.	.	12bb	.	.	.	.	.	.	.	.	.	.	.	.	.	.	.	.	.	.	.	.
.	.	.	.	.	.	.	.	.	12aaJ	.	.	.	.	.	.	.	.	.	.	.	.	.	.	.	.	.	.	.	.
4AA	.	.	4A	.	4A 4e	.	4A 4g	.	12aaL	.	.	.	.	.	.	.	.	.	.	.	.	4a	.	4ee	.	.	.	.	.
.	.	.	.	.	.	.	.	.	12bb	.	.	.	.	.	.	.	.	.	.	.	.	.	.	.	.	.	.	.	.
.	.	.	.	.	.	.	.	.	12ccc#J)	.	.	.	.	.	.	.	.	.	.	.	.	.	.	.	.	.	.	.	.
!	!	!	!LO:LB:g=original	!	!	!	!LO:LB:g=original	!	!LO:LB:g=original	!	!	!	!	!	!	!	!	!	!	!	!	!LO:LB:g=original	!	!LO:LB:g=original	!	!	!	!	!
=101	=101	=101	=101	=101	=101	=101	=101	=101	=101	=101	=101	=101	=101	=101	=101	=101	=101	=101	=101	=101	=101	=101	=101	=101	=101	=101	=101	=101	=101
2D	.	.	2d	.	2A 2d	.	2A 2f#	.	2ddd	.	1r	.	.	1r	.	1r	.	.	1r	.	.	4f#	.	4dd	.	2r	.	2r	2r
.	.	.	.	ff	.	.	.	.	.	.	.	.	.	.	.	.	.	.	.	.	.	4r	.	4r	.	.	.	.	.
!	!	!	!	!	!	!	!	!LO:DY:a	!	!LO:DY:a	!	!	!	!	!	!	!	!	!	!	!	!	!	!	!	!	!	!	!
4.D	.	ff	4.D 4.A	.	4.d	ff	4.d	ff	4.d	ff	.	.	.	.	.	.	.	.	.	.	.	4.f#	.	4.dd	.	4.D	.	4.f#	4.dd
8D	.	.	8D 8A	.	8d	.	8d	.	8d	.	.	.	.	.	.	.	.	.	.	.	.	8f#	.	8dd	.	8D	.	8f#	8dd
=102	=102	=102	=102	=102	=102	=102	=102	=102	=102	=102	=102	=102	=102	=102	=102	=102	=102	=102	=102	=102	=102	=102	=102	=102	=102	=102	=102	=102	=102
2D	.	.	2D 2A	.	2d	.	2d	.	2d	.	1r	.	.	1r	.	1r	.	.	1r	.	.	2f#	.	2dd	.	2D	.	2f#	2dd
2r	.	.	2r	.	2r	.	2r	.	2r	.	.	.	.	.	.	.	.	.	.	.	.	2r	.	2r	.	2r	.	2r	2r
==	==	==	==	==	==	==	==	==	==	==	==	==	==	==	==	==	==	==	==	==	==	==	==	==	==	==	==	==	==
*-	*-	*-	*-	*-	*-	*-	*-	*-	*-	*-	*-	*-	*-	*-	*-	*-	*-	*-	*-	*-	*-	*-	*-	*-	*-	*-	*-	*-	*-
!!!system-decoration: [(s1,s2,s3)][(s4,s5)][(s6,s7,s8,s9)][(s10,s11,s12,s13,s14)]
!!!RDF**kern: > = above
!!!RDF**kern: < = below
!!!ENC: Berenika Jozajtis
!!!END: 2020-02-03
!!!ENC: Anna Matuszewska
!!!END: 2020-03-03
